blau.cube
#Generated by lutCreator.js
#Coded by SirSerch
#https://github.com/SirSerch/LutCreatorJs
TITLE lutCreatorJs_25
LUT_3D_SIZE 9
0.003922 0.000000 0.000000
0.054902 0.007843 0.007843
0.231373 0.043137 0.003922
0.482353 0.000000 0.000000
0.807843 0.000000 0.007843
0.996078 0.000000 0.000000
0.996078 0.000000 0.000000
0.996078 0.000000 0.070588
1.000000 0.447059 0.380392
0.164706 0.027451 0.003922
0.023529 0.047059 0.000000
0.172549 0.105882 0.000000
0.349020 0.164706 0.000000
0.549020 0.113725 0.000000
0.921569 0.000000 0.000000
0.996078 0.000000 0.000000
0.996078 0.000000 0.062745
0.996078 0.525490 0.380392
0.258824 0.160784 0.000000
0.141176 0.188235 0.000000
0.223529 0.200000 0.000000
0.364706 0.200000 0.003922
0.623529 0.235294 0.007843
0.901961 0.227451 0.000000
0.992157 0.250980 0.000000
0.992157 0.082353 0.003922
1.000000 0.498039 0.203922
0.258824 0.254902 0.000000
0.152941 0.427451 0.007843
0.309804 0.462745 0.011765
0.596078 0.552941 0.000000
0.956863 0.647059 0.007843
1.000000 0.600000 0.007843
1.000000 0.580392 0.145098
1.000000 0.560784 0.345098
1.000000 0.635294 0.537255
0.427451 0.529412 0.000000
0.152941 0.666667 0.007843
0.294118 0.639216 0.000000
0.521569 0.658824 0.011765
0.803922 0.745098 0.003922
0.941176 0.666667 0.000000
0.992157 0.615686 0.000000
1.000000 0.611765 0.003922
0.992157 0.760784 0.313725
0.462745 0.996078 0.219608
0.313725 0.996078 0.066667
0.529412 0.996078 0.007843
0.631373 1.000000 0.000000
0.823529 1.000000 0.015686
1.000000 0.972549 0.003922
1.000000 0.878431 0.007843
1.000000 0.827451 0.156863
1.000000 0.874510 0.450980
0.721569 1.000000 0.003922
0.466667 0.996078 0.003922
0.349020 1.000000 0.000000
0.568627 1.000000 0.000000
0.721569 0.996078 0.000000
0.960784 0.988235 0.000000
0.992157 0.980392 0.000000
1.000000 0.901961 0.196078
1.000000 0.968627 0.470588
0.921569 0.996078 0.674510
0.878431 1.000000 0.843137
0.854902 0.996078 0.800000
0.882353 1.000000 0.800000
0.901961 0.996078 0.752941
1.000000 0.996078 0.772549
0.996078 0.988235 0.756863
0.996078 0.960784 0.807843
1.000000 1.000000 0.929412
0.968627 1.000000 0.941176
0.960784 1.000000 0.964706
0.988235 1.000000 0.988235
0.956863 1.000000 0.964706
0.984314 0.996078 0.976471
0.992157 0.996078 0.964706
1.000000 0.996078 0.980392
1.000000 0.996078 0.980392
1.000000 1.000000 0.992157
0.000000 0.039216 0.003922
0.000000 0.074510 0.000000
0.109804 0.113725 0.000000
0.247059 0.176471 0.000000
0.333333 0.164706 0.000000
0.552941 0.231373 0.003922
0.898039 0.270588 0.000000
1.000000 0.184314 0.000000
1.000000 0.525490 0.003922
0.117647 0.113725 0.000000
0.003922 0.145098 0.000000
0.043137 0.145098 0.000000
0.156863 0.164706 0.007843
0.298039 0.223529 0.003922
0.423529 0.262745 0.003922
0.745098 0.380392 0.003922
0.992157 0.372549 0.000000
1.000000 0.678431 0.000000
0.262745 0.152941 0.007843
0.082353 0.145098 0.000000
0.203922 0.184314 0.027451
0.317647 0.184314 0.000000
0.501961 0.192157 0.000000
0.768627 0.188235 0.000000
1.000000 0.219608 0.003922
1.000000 0.160784 0.000000
1.000000 0.494118 0.290196
0.227451 0.223529 0.003922
0.113725 0.294118 0.000000
0.227451 0.345098 0.000000
0.454902 0.431373 0.000000
0.725490 0.513725 0.000000
0.980392 0.505882 0.000000
1.000000 0.501961 0.000000
0.988235 0.439216 0.168627
0.992157 0.556863 0.400000
0.364706 0.462745 0.003922
0.121569 0.576471 0.000000
0.298039 0.611765 0.000000
0.458824 0.588235 0.000000
0.725490 0.686275 0.000000
0.956863 0.713725 0.000000
1.000000 0.705882 0.003922
1.000000 0.658824 0.000000
0.996078 0.768627 0.305882
0.360784 1.000000 0.000000
0.368627 0.996078 0.000000
0.474510 0.988235 0.000000
0.596078 1.000000 0.000000
0.827451 0.988235 0.000000
0.984314 0.921569 0.007843
1.000000 0.854902 0.003922
0.996078 0.815686 0.000000
1.000000 0.858824 0.337255
0.717647 0.996078 0.007843
0.411765 1.000000 0.000000
0.239216 1.000000 0.000000
0.552941 1.000000 0.000000
0.741176 0.996078 0.000000
0.894118 0.996078 0.000000
1.000000 0.988235 0.000000
1.000000 0.945098 0.062745
1.000000 0.968627 0.352941
0.937255 0.996078 0.701961
0.831373 0.996078 0.815686
0.811765 1.000000 0.796078
0.909804 1.000000 0.807843
0.988235 0.996078 0.811765
0.996078 0.980392 0.800000
0.992157 0.952941 0.811765
1.000000 0.976471 0.894118
1.000000 0.980392 0.972549
0.980392 1.000000 0.976471
0.980392 1.000000 0.984314
1.000000 0.996078 1.000000
0.976471 1.000000 0.960784
0.996078 1.000000 0.980392
0.992157 1.000000 0.980392
1.000000 1.000000 0.992157
0.996078 0.996078 0.988235
1.000000 0.992157 0.996078
0.000000 0.019608 0.011765
0.000000 0.011765 0.007843
0.152941 0.113725 0.078431
0.243137 0.070588 0.019608
0.384314 0.050980 0.000000
0.533333 0.035294 0.000000
0.866667 0.003922 0.000000
0.996078 0.000000 0.043137
1.000000 0.494118 0.000000
0.117647 0.074510 0.000000
0.058824 0.125490 0.000000
0.082353 0.125490 0.007843
0.239216 0.172549 0.000000
0.305882 0.152941 0.000000
0.478431 0.196078 0.000000
0.784314 0.211765 0.000000
1.000000 0.231373 0.000000
0.996078 0.619608 0.000000
0.274510 0.133333 0.000000
0.105882 0.149020 0.086275
0.160784 0.141176 0.086275
0.301961 0.149020 0.090196
0.482353 0.176471 0.086275
0.752941 0.145098 0.066667
0.996078 0.160784 0.129412
0.996078 0.188235 0.188235
0.992157 0.474510 0.384314
0.250980 0.250980 0.000000
0.109804 0.278431 0.066667
0.196078 0.294118 0.074510
0.360784 0.329412 0.074510
0.635294 0.423529 0.098039
0.901961 0.450980 0.054902
1.000000 0.447059 0.141176
1.000000 0.443137 0.247059
1.000000 0.541176 0.435294
0.407843 0.498039 0.003922
0.164706 0.596078 0.011765
0.309804 0.627451 0.023529
0.447059 0.580392 0.003922
0.701961 0.650980 0.000000
0.956863 0.670588 0.007843
1.000000 0.654902 0.019608
1.000000 0.619608 0.168627
1.000000 0.768627 0.494118
0.011765 1.000000 0.000000
0.003922 1.000000 0.000000
0.294118 1.000000 0.000000
0.580392 0.992157 0.007843
0.835294 0.984314 0.000000
0.988235 0.905882 0.000000
1.000000 0.890196 0.058824
1.000000 0.823529 0.223529
1.000000 0.862745 0.482353
0.725490 0.996078 0.011765
0.447059 1.000000 0.125490
0.372549 1.000000 0.054902
0.537255 1.000000 0.082353
0.725490 1.000000 0.007843
0.874510 0.996078 0.000000
0.996078 0.980392 0.113725
1.000000 0.890196 0.247059
1.000000 0.968627 0.541176
0.937255 1.000000 0.682353
0.827451 1.000000 0.800000
0.835294 0.996078 0.827451
0.854902 1.000000 0.803922
0.843137 1.000000 0.752941
0.976471 0.996078 0.784314
1.000000 0.972549 0.811765
1.000000 0.956863 0.839216
1.000000 0.992157 0.933333
0.972549 0.996078 0.941176
0.945098 1.000000 0.952941
0.933333 1.000000 0.929412
0.968627 1.000000 0.956863
0.952941 1.000000 0.933333
0.980392 1.000000 0.960784
0.992157 1.000000 0.956863
1.000000 1.000000 0.980392
1.000000 0.988235 0.976471
0.000000 0.090196 0.074510
0.007843 0.094118 0.082353
0.078431 0.094118 0.090196
0.219608 0.105882 0.082353
0.376471 0.149020 0.101961
0.447059 0.066667 0.023529
0.815686 0.125490 0.074510
0.988235 0.121569 0.117647
0.996078 0.501961 0.278431
0.129412 0.101961 0.000000
0.007843 0.156863 0.003922
0.019608 0.156863 0.000000
0.160784 0.180392 0.011765
0.290196 0.207843 0.000000
0.443137 0.227451 0.007843
0.749020 0.266667 0.003922
1.000000 0.309804 0.011765
1.000000 0.592157 0.070588
0.349020 0.109804 0.168627
0.109804 0.133333 0.188235
0.207843 0.196078 0.239216
0.329412 0.156863 0.215686
0.560784 0.211765 0.282353
0.776471 0.129412 0.247059
1.000000 0.160784 0.294118
0.996078 0.258824 0.360784
0.992157 0.650980 0.686275
0.286275 0.258824 0.145098
0.133333 0.298039 0.211765
0.247059 0.349020 0.243137
0.364706 0.317647 0.223529
0.600000 0.376471 0.231373
0.901961 0.466667 0.325490
1.000000 0.470588 0.368627
1.000000 0.486275 0.415686
1.000000 0.647059 0.603922
0.376471 0.454902 0.031373
0.192157 0.615686 0.270588
0.301961 0.627451 0.274510
0.470588 0.603922 0.235294
0.705882 0.650980 0.270588
0.952941 0.678431 0.301961
1.000000 0.690196 0.380392
1.000000 0.615686 0.384314
0.992157 0.827451 0.639216
0.086275 0.988235 0.392157
0.113725 0.996078 0.384314
0.333333 0.980392 0.376471
0.568627 0.956863 0.298039
0.803922 0.949020 0.298039
0.968627 0.905882 0.278431
1.000000 0.882353 0.364706
1.000000 0.870588 0.486275
0.996078 0.933333 0.658824
0.678431 1.000000 0.000000
0.274510 1.000000 0.356863
0.349020 1.000000 0.364706
0.529412 1.000000 0.376471
0.713725 1.000000 0.352941
0.862745 1.000000 0.341176
0.996078 0.945098 0.333333
1.000000 0.894118 0.435294
0.996078 0.972549 0.666667
0.909804 0.972549 0.819608
0.835294 0.984314 0.886275
0.866667 0.992157 0.886275
0.929412 0.996078 0.925490
0.952941 0.988235 0.913725
0.996078 0.980392 0.898039
0.996078 0.976471 0.929412
1.000000 0.980392 0.949020
1.000000 0.980392 0.956863
0.988235 0.992157 0.968627
0.945098 1.000000 0.960784
0.960784 0.996078 0.976471
0.996078 0.996078 0.996078
0.988235 1.000000 0.988235
0.984314 1.000000 0.976471
0.992157 0.992157 0.984314
0.996078 0.996078 0.996078
0.992157 1.000000 1.000000
0.003922 0.082353 0.290196
0.000000 0.141176 0.337255
0.117647 0.101961 0.305882
0.258824 0.074510 0.270588
0.431373 0.062745 0.290196
0.529412 0.000000 0.270588
0.827451 0.000000 0.305882
1.000000 0.098039 0.411765
0.996078 0.529412 0.576471
0.223529 0.109804 0.047059
0.062745 0.180392 0.219608
0.152941 0.219608 0.258824
0.239216 0.184314 0.243137
0.364706 0.168627 0.203922
0.403922 0.058824 0.121569
0.796078 0.101961 0.235294
1.000000 0.196078 0.325490
0.996078 0.607843 0.552941
0.329412 0.078431 0.215686
0.078431 0.125490 0.321569
0.207843 0.184314 0.372549
0.364706 0.207843 0.392157
0.525490 0.168627 0.400000
0.815686 0.152941 0.462745
1.000000 0.172549 0.466667
0.996078 0.372549 0.552941
1.000000 0.662745 0.776471
0.254902 0.203922 0.141176
0.149020 0.321569 0.356863
0.196078 0.298039 0.345098
0.435294 0.388235 0.427451
0.713725 0.435294 0.498039
0.890196 0.450980 0.498039
0.996078 0.513725 0.552941
0.988235 0.572549 0.611765
0.992157 0.733333 0.741176
0.427451 0.482353 0.243137
0.168627 0.607843 0.458824
0.290196 0.627451 0.466667
0.517647 0.658824 0.501961
0.768627 0.670588 0.509804
0.921569 0.654902 0.509804
1.000000 0.670588 0.580392
1.000000 0.701961 0.639216
1.000000 0.870588 0.843137
0.282353 0.984314 0.623529
0.278431 0.976471 0.631373
0.376471 0.949020 0.592157
0.588235 0.945098 0.580392
0.764706 0.905882 0.529412
0.984314 0.917647 0.572549
1.000000 0.862745 0.603922
1.000000 0.850980 0.670588
1.000000 0.929412 0.831373
0.729412 1.000000 0.407843
0.576471 1.000000 0.674510
0.596078 1.000000 0.690196
0.615686 1.000000 0.658824
0.788235 1.000000 0.670588
0.870588 0.988235 0.611765
0.996078 0.976471 0.658824
1.000000 0.886275 0.670588
0.996078 0.988235 0.850980
0.941176 0.992157 0.882353
0.866667 0.984314 0.913725
0.909804 0.988235 0.945098
0.890196 0.992157 0.917647
0.949020 0.996078 0.941176
0.988235 0.996078 0.952941
1.000000 0.972549 0.909804
0.996078 0.988235 0.992157
1.000000 1.000000 0.992157
0.980392 1.000000 0.976471
0.960784 1.000000 0.988235
0.964706 1.000000 0.972549
0.984314 1.000000 0.988235
0.976471 0.996078 0.972549
0.992157 0.996078 0.972549
0.996078 0.996078 0.988235
1.000000 0.996078 0.988235
1.000000 0.988235 0.988235
0.003922 0.137255 0.411765
0.007843 0.172549 0.431373
0.000000 0.137255 0.396078
0.231373 0.145098 0.388235
0.360784 0.105882 0.333333
0.521569 0.086275 0.352941
0.850980 0.039216 0.454902
0.996078 0.239216 0.494118
1.000000 0.615686 0.733333
0.247059 0.149020 0.223529
0.000000 0.180392 0.239216
0.011765 0.196078 0.266667
0.117647 0.164706 0.219608
0.290196 0.188235 0.231373
0.450980 0.184314 0.243137
0.811765 0.254902 0.341176
0.992157 0.274510 0.388235
0.996078 0.623529 0.639216
0.364706 0.054902 0.411765
0.023529 0.160784 0.521569
0.196078 0.200000 0.552941
0.341176 0.188235 0.552941
0.568627 0.192157 0.584314
0.792157 0.113725 0.600000
1.000000 0.231373 0.674510
0.996078 0.403922 0.682353
1.000000 0.729412 0.933333
0.286275 0.172549 0.352941
0.152941 0.376471 0.592157
0.211765 0.372549 0.584314
0.419608 0.384314 0.607843
0.666667 0.407843 0.650980
0.886275 0.435294 0.666667
1.000000 0.533333 0.698039
0.996078 0.721569 0.823529
0.996078 0.788235 0.858824
0.470588 0.521569 0.450980
0.066667 0.619608 0.654902
0.270588 0.666667 0.690196
0.494118 0.658824 0.698039
0.756863 0.682353 0.705882
0.913725 0.713725 0.741176
0.996078 0.764706 0.788235
1.000000 0.760784 0.803922
0.996078 0.925490 0.925490
0.427451 0.992157 0.843137
0.372549 0.949020 0.807843
0.482353 0.956863 0.827451
0.674510 0.952941 0.827451
0.815686 0.933333 0.800000
0.952941 0.909804 0.800000
0.992157 0.933333 0.843137
1.000000 0.870588 0.835294
1.000000 0.945098 0.909804
0.772549 0.976471 0.682353
0.682353 1.000000 0.839216
0.647059 0.996078 0.839216
0.686275 0.996078 0.811765
0.807843 0.996078 0.831373
0.905882 0.996078 0.819608
1.000000 0.968627 0.835294
0.996078 0.937255 0.847059
1.000000 0.988235 0.929412
0.992157 0.992157 0.992157
0.937255 1.000000 0.988235
0.905882 0.980392 0.964706
0.960784 0.984314 0.984314
0.952941 0.980392 0.960784
0.976471 0.984314 0.992157
1.000000 0.960784 0.952941
0.992157 0.992157 0.992157
0.996078 0.996078 0.996078
0.984314 1.000000 0.988235
0.984314 1.000000 0.996078
0.980392 0.996078 0.992157
0.980392 1.000000 1.000000
1.000000 1.000000 0.992157
0.992157 1.000000 1.000000
1.000000 0.992157 0.996078
0.988235 0.996078 1.000000
1.000000 0.996078 0.988235
0.000000 0.149020 0.827451
0.003922 0.086275 0.741176
0.007843 0.145098 0.776471
0.250980 0.117647 0.701961
0.415686 0.000000 0.619608
0.647059 0.000000 0.678431
0.925490 0.000000 0.745098
1.000000 0.192157 0.729412
0.992157 0.627451 0.905882
0.274510 0.058824 0.384314
0.003922 0.200000 0.666667
0.000000 0.180392 0.611765
0.184314 0.192157 0.615686
0.368627 0.149020 0.537255
0.541176 0.113725 0.572549
0.901961 0.188235 0.686275
0.996078 0.274510 0.643137
0.996078 0.647059 0.858824
0.388235 0.027451 0.556863
0.003922 0.207843 0.749020
0.094118 0.203922 0.764706
0.352941 0.227451 0.796078
0.623529 0.254902 0.866667
0.800000 0.192157 0.843137
1.000000 0.145098 0.811765
0.996078 0.435294 0.823529
1.000000 0.749020 0.988235
0.368627 0.278431 0.600000
0.082353 0.415686 0.819608
0.286275 0.454902 0.862745
0.505882 0.501961 0.901961
0.698039 0.490196 0.898039
0.878431 0.509804 0.901961
1.000000 0.631373 0.921569
1.000000 0.737255 0.905882
0.996078 0.866667 0.941176
0.529412 0.596078 0.776471
0.278431 0.690196 0.917647
0.392157 0.709804 0.929412
0.611765 0.752941 0.956863
0.717647 0.690196 0.886275
0.913725 0.713725 0.933333
0.992157 0.792157 0.913725
1.000000 0.831373 0.901961
1.000000 0.901961 0.960784
0.654902 1.000000 1.000000
0.549020 0.968627 1.000000
0.611765 0.976471 0.996078
0.741176 0.976471 0.976471
0.839216 0.941176 0.988235
0.949020 0.937255 0.964706
1.000000 0.937255 0.949020
1.000000 0.941176 0.952941
0.996078 0.949020 0.964706
0.874510 0.992157 0.929412
0.670588 1.000000 0.937255
0.717647 0.996078 0.941176
0.741176 0.988235 0.905882
0.866667 0.980392 0.941176
0.925490 0.980392 0.952941
0.956863 0.941176 0.905882
1.000000 0.952941 0.929412
0.996078 0.976471 0.964706
0.976471 0.984314 0.996078
0.925490 1.000000 0.984314
0.909804 0.988235 0.976471
0.898039 0.992157 0.968627
0.968627 0.992157 0.992157
0.980392 0.992157 0.988235
1.000000 0.988235 0.992157
1.000000 0.996078 0.988235
0.988235 0.996078 1.000000
0.984314 0.996078 0.976471
0.980392 0.996078 1.000000
0.972549 0.992157 0.976471
0.996078 0.996078 1.000000
0.980392 1.000000 1.000000
0.984314 0.996078 0.984314
0.996078 0.996078 1.000000
1.000000 1.000000 1.000000
0.992157 1.000000 1.000000
0.000000 0.262745 0.772549
0.000000 0.219608 0.741176
0.000000 0.250980 0.764706
0.184314 0.215686 0.737255
0.466667 0.270588 0.823529
0.650980 0.262745 0.862745
0.886275 0.215686 0.866667
0.992157 0.356863 0.886275
0.996078 0.647059 0.992157
0.243137 0.125490 0.705882
0.000000 0.215686 0.721569
0.000000 0.247059 0.713725
0.003922 0.196078 0.650980
0.349020 0.290196 0.756863
0.560784 0.274510 0.788235
0.870588 0.294118 0.843137
0.992157 0.431373 0.819608
0.992157 0.796078 1.000000
0.345098 0.117647 0.725490
0.149020 0.313725 0.886275
0.250980 0.321569 0.890196
0.419608 0.368627 0.925490
0.600000 0.364706 0.945098
0.768627 0.337255 0.952941
0.949020 0.294118 0.945098
0.992157 0.396078 0.917647
0.992157 0.729412 0.992157
0.466667 0.384314 0.850980
0.376471 0.549020 0.968627
0.458824 0.568627 0.960784
0.635294 0.658824 0.996078
0.792157 0.705882 1.000000
0.870588 0.686275 1.000000
1.000000 0.745098 0.996078
1.000000 0.827451 0.996078
1.000000 0.917647 0.968627
0.623529 0.717647 0.960784
0.474510 0.737255 1.000000
0.611765 0.796078 1.000000
0.662745 0.796078 1.000000
0.815686 0.815686 1.000000
0.854902 0.768627 0.992157
1.000000 0.776471 1.000000
0.996078 0.854902 0.988235
1.000000 0.890196 0.992157
0.874510 0.996078 1.000000
0.827451 0.972549 1.000000
0.854902 0.984314 1.000000
0.866667 0.960784 1.000000
0.941176 0.972549 1.000000
0.937255 0.945098 1.000000
0.992157 0.956863 1.000000
0.996078 0.968627 0.988235
0.988235 0.980392 0.996078
0.850980 0.964706 0.980392
0.741176 0.996078 1.000000
0.717647 1.000000 0.996078
0.796078 0.992157 0.988235
0.933333 0.988235 0.984314
0.898039 0.968627 0.984314
0.960784 0.968627 0.976471
1.000000 0.988235 0.984314
0.984314 0.996078 0.992157
0.988235 0.996078 1.000000
0.949020 0.984314 1.000000
0.956863 0.988235 1.000000
0.968627 0.976471 0.988235
0.964706 0.984314 0.992157
0.972549 0.980392 0.988235
0.988235 0.988235 0.996078
1.000000 0.992157 1.000000
1.000000 0.992157 0.996078
0.988235 1.000000 0.996078
0.992157 1.000000 1.000000
1.000000 1.000000 0.992157
0.980392 1.000000 0.976471
1.000000 1.000000 1.000000
1.000000 1.000000 1.000000
1.000000 1.000000 1.000000
1.000000 0.996078 1.000000
0.992157 1.000000 1.000000
0.364706 0.470588 0.890196
0.403922 0.482353 0.933333
0.407843 0.470588 0.909804
0.521569 0.498039 0.937255
0.600000 0.490196 0.925490
0.741176 0.525490 0.976471
0.850980 0.517647 0.980392
1.000000 0.513725 0.976471
0.992157 0.890196 0.988235
0.219608 0.172549 0.729412
0.000000 0.227451 0.760784
0.129412 0.294118 0.819608
0.325490 0.360784 0.874510
0.517647 0.411765 0.917647
0.647059 0.427451 0.909804
0.823529 0.462745 0.941176
1.000000 0.517647 0.964706
0.984314 0.929412 0.996078
0.447059 0.321569 0.843137
0.458824 0.521569 1.000000
0.458824 0.509804 0.972549
0.509804 0.494118 0.937255
0.654902 0.537255 0.976471
0.745098 0.537255 0.984314
0.866667 0.513725 0.984314
0.980392 0.505882 0.972549
1.000000 0.878431 1.000000
0.627451 0.650980 0.956863
0.662745 0.756863 1.000000
0.698039 0.772549 1.000000
0.811765 0.839216 1.000000
0.862745 0.854902 1.000000
0.913725 0.878431 1.000000
0.988235 0.917647 1.000000
0.984314 0.862745 0.984314
0.996078 0.956863 1.000000
0.807843 0.858824 0.996078
0.749020 0.870588 0.992157
0.807843 0.890196 1.000000
0.835294 0.898039 1.000000
0.870588 0.890196 1.000000
0.941176 0.909804 1.000000
0.976471 0.878431 0.996078
1.000000 0.890196 1.000000
0.996078 0.968627 0.992157
0.964706 0.984314 1.000000
0.913725 0.972549 1.000000
0.956863 0.988235 0.992157
0.956863 0.988235 1.000000
0.964706 0.984314 1.000000
0.968627 0.972549 1.000000
0.988235 0.964706 1.000000
0.992157 0.964706 0.996078
0.996078 0.988235 1.000000
0.905882 0.972549 1.000000
0.823529 0.968627 1.000000
0.807843 0.956863 1.000000
0.831373 0.964706 1.000000
0.956863 0.992157 1.000000
0.980392 0.992157 0.988235
0.992157 0.984314 1.000000
1.000000 0.992157 0.996078
0.996078 0.992157 1.000000
0.988235 0.996078 1.000000
0.960784 1.000000 0.996078
0.984314 1.000000 1.000000
0.941176 0.988235 0.996078
0.988235 1.000000 0.996078
0.992157 0.988235 1.000000
0.988235 1.000000 0.996078
1.000000 1.000000 1.000000
0.996078 0.996078 0.996078
1.000000 0.996078 1.000000
0.984314 1.000000 1.000000
1.000000 1.000000 0.992157
1.000000 1.000000 1.000000
0.988235 0.996078 1.000000
1.000000 1.000000 1.000000
0.996078 0.996078 0.988235
1.000000 0.996078 1.000000
1.000000 0.992157 1.000000
