blau.cube
#Generated by lutCreator.js
#Coded by SirSerch
#https://github.com/SirSerch/LutCreatorJs
TITLE lutCreatorJs_25
LUT_3D_SIZE 25
0.003922 0.000000 0.000000
0.000000 0.000000 0.000000
0.007843 0.003922 0.000000
0.054902 0.007843 0.007843
0.090196 0.011765 0.000000
0.164706 0.027451 0.000000
0.231373 0.043137 0.003922
0.278431 0.047059 0.000000
0.360784 0.007843 0.007843
0.482353 0.000000 0.000000
0.572549 0.003922 0.000000
0.670588 0.000000 0.000000
0.807843 0.000000 0.007843
0.898039 0.000000 0.003922
1.000000 0.003922 0.003922
0.996078 0.000000 0.000000
1.000000 0.003922 0.003922
0.996078 0.000000 0.000000
0.996078 0.000000 0.000000
0.992157 0.000000 0.000000
1.000000 0.000000 0.015686
0.996078 0.000000 0.070588
0.996078 0.003922 0.125490
1.000000 0.000000 0.125490
1.000000 0.447059 0.380392
0.050980 0.007843 0.000000
0.007843 0.000000 0.011765
0.011765 0.015686 0.000000
0.054902 0.015686 0.007843
0.090196 0.031373 0.003922
0.109804 0.039216 0.000000
0.188235 0.078431 0.000000
0.196078 0.039216 0.000000
0.247059 0.054902 0.000000
0.356863 0.074510 0.000000
0.384314 0.000000 0.000000
0.517647 0.000000 0.000000
0.549020 0.000000 0.003922
0.717647 0.003922 0.000000
0.823529 0.000000 0.000000
0.898039 0.000000 0.003922
0.996078 0.003922 0.000000
0.996078 0.000000 0.000000
0.996078 0.000000 0.000000
0.996078 0.000000 0.000000
0.996078 0.000000 0.007843
0.992157 0.003922 0.011765
0.988235 0.003922 0.000000
0.992157 0.003922 0.062745
0.996078 0.384314 0.286275
0.086275 0.015686 0.007843
0.003922 0.019608 0.000000
0.015686 0.015686 0.007843
0.011765 0.015686 0.000000
0.031373 0.003922 0.000000
0.121569 0.066667 0.015686
0.172549 0.086275 0.003922
0.180392 0.058824 0.000000
0.239216 0.090196 0.000000
0.266667 0.062745 0.000000
0.380392 0.117647 0.003922
0.403922 0.003922 0.015686
0.525490 0.000000 0.000000
0.643137 0.000000 0.000000
0.752941 0.000000 0.000000
0.862745 0.000000 0.000000
0.964706 0.003922 0.000000
0.996078 0.000000 0.000000
1.000000 0.003922 0.011765
0.996078 0.000000 0.000000
0.996078 0.000000 0.007843
0.996078 0.000000 0.000000
0.992157 0.000000 0.039216
1.000000 0.000000 0.086275
1.000000 0.325490 0.258824
0.164706 0.027451 0.003922
0.031373 0.054902 0.007843
0.039216 0.047059 0.000000
0.023529 0.047059 0.000000
0.137255 0.117647 0.000000
0.113725 0.078431 0.003922
0.172549 0.105882 0.000000
0.184314 0.101961 0.000000
0.239216 0.090196 0.000000
0.349020 0.164706 0.000000
0.372549 0.121569 0.011765
0.415686 0.066667 0.000000
0.549020 0.113725 0.000000
0.650980 0.058824 0.000000
0.807843 0.054902 0.011765
0.921569 0.000000 0.000000
1.000000 0.003922 0.003922
0.988235 0.003922 0.000000
0.996078 0.000000 0.000000
1.000000 0.003922 0.011765
0.996078 0.000000 0.007843
0.996078 0.000000 0.062745
1.000000 0.000000 0.086275
0.992157 0.003922 0.156863
0.996078 0.525490 0.380392
0.184314 0.105882 0.007843
0.062745 0.121569 0.000000
0.145098 0.172549 0.000000
0.105882 0.152941 0.000000
0.125490 0.129412 0.000000
0.168627 0.149020 0.000000
0.219608 0.160784 0.000000
0.247059 0.152941 0.000000
0.290196 0.156863 0.007843
0.372549 0.184314 0.000000
0.458824 0.200000 0.000000
0.576471 0.227451 0.007843
0.741176 0.239216 0.000000
0.909804 0.250980 0.003922
1.000000 0.188235 0.000000
1.000000 0.145098 0.007843
1.000000 0.121569 0.011765
0.992157 0.168627 0.023529
1.000000 0.149020 0.070588
1.000000 0.215686 0.164706
0.996078 0.317647 0.258824
0.996078 0.325490 0.309804
0.992157 0.360784 0.356863
0.988235 0.454902 0.415686
1.000000 0.486275 0.470588
0.050980 0.247059 0.007843
0.011765 0.219608 0.000000
0.023529 0.207843 0.003922
0.121569 0.211765 0.000000
0.192157 0.231373 0.000000
0.235294 0.215686 0.000000
0.278431 0.203922 0.000000
0.294118 0.168627 0.007843
0.396078 0.203922 0.000000
0.513725 0.215686 0.011765
0.596078 0.231373 0.000000
0.737255 0.278431 0.003922
0.854902 0.270588 0.000000
0.937255 0.278431 0.000000
0.992157 0.231373 0.000000
1.000000 0.203922 0.003922
1.000000 0.200000 0.003922
1.000000 0.137255 0.000000
0.996078 0.223529 0.015686
1.000000 0.211765 0.000000
1.000000 0.203922 0.000000
0.992157 0.192157 0.000000
0.996078 0.247059 0.082353
1.000000 0.219608 0.152941
0.996078 0.541176 0.341176
0.258824 0.160784 0.000000
0.054902 0.164706 0.003922
0.066667 0.164706 0.000000
0.141176 0.188235 0.000000
0.141176 0.168627 0.000000
0.188235 0.196078 0.000000
0.223529 0.200000 0.000000
0.250980 0.188235 0.000000
0.290196 0.200000 0.000000
0.364706 0.200000 0.003922
0.443137 0.219608 0.000000
0.541176 0.231373 0.007843
0.623529 0.235294 0.007843
0.690196 0.215686 0.000000
0.858824 0.286275 0.000000
0.901961 0.227451 0.000000
1.000000 0.266667 0.003922
0.996078 0.223529 0.007843
0.992157 0.250980 0.000000
1.000000 0.160784 0.015686
1.000000 0.200000 0.000000
0.992157 0.082353 0.003922
1.000000 0.188235 0.000000
1.000000 0.317647 0.121569
1.000000 0.498039 0.203922
0.196078 0.164706 0.003922
0.078431 0.196078 0.000000
0.117647 0.215686 0.000000
0.137255 0.211765 0.000000
0.109804 0.168627 0.007843
0.188235 0.219608 0.000000
0.188235 0.188235 0.000000
0.286275 0.254902 0.000000
0.250980 0.188235 0.000000
0.356863 0.247059 0.000000
0.411765 0.239216 0.000000
0.505882 0.266667 0.003922
0.635294 0.298039 0.003922
0.623529 0.243137 0.000000
0.815686 0.317647 0.007843
0.909804 0.309804 0.011765
1.000000 0.313725 0.003922
1.000000 0.294118 0.003922
1.000000 0.294118 0.000000
1.000000 0.298039 0.003922
0.996078 0.309804 0.000000
1.000000 0.254902 0.000000
0.996078 0.270588 0.007843
0.996078 0.141176 0.000000
1.000000 0.521569 0.227451
0.305882 0.215686 0.003922
0.078431 0.250980 0.007843
0.109804 0.250980 0.007843
0.172549 0.290196 0.007843
0.137255 0.254902 0.003922
0.164706 0.258824 0.000000
0.219608 0.270588 0.000000
0.250980 0.270588 0.007843
0.341176 0.309804 0.000000
0.376471 0.290196 0.000000
0.498039 0.352941 0.007843
0.596078 0.380392 0.007843
0.686275 0.380392 0.000000
0.796078 0.407843 0.000000
0.874510 0.400000 0.011765
0.952941 0.388235 0.000000
0.996078 0.447059 0.000000
1.000000 0.415686 0.003922
0.996078 0.419608 0.003922
1.000000 0.392157 0.000000
1.000000 0.415686 0.000000
1.000000 0.305882 0.000000
1.000000 0.400000 0.137255
1.000000 0.450980 0.219608
1.000000 0.717647 0.384314
0.258824 0.254902 0.000000
0.121569 0.384314 0.003922
0.168627 0.403922 0.000000
0.152941 0.427451 0.007843
0.223529 0.454902 0.000000
0.270588 0.470588 0.007843
0.309804 0.462745 0.011765
0.435294 0.533333 0.000000
0.462745 0.505882 0.003922
0.596078 0.552941 0.000000
0.745098 0.607843 0.000000
0.847059 0.623529 0.000000
0.956863 0.647059 0.007843
1.000000 0.592157 0.000000
1.000000 0.627451 0.003922
1.000000 0.600000 0.007843
0.992157 0.596078 0.000000
0.996078 0.505882 0.000000
1.000000 0.580392 0.145098
1.000000 0.529412 0.203922
1.000000 0.556863 0.282353
1.000000 0.560784 0.345098
1.000000 0.615686 0.439216
1.000000 0.611765 0.470588
1.000000 0.635294 0.537255
0.000000 0.831373 0.000000
0.003922 0.811765 0.000000
0.000000 0.827451 0.003922
0.000000 0.792157 0.007843
0.101961 0.780392 0.000000
0.305882 0.784314 0.011765
0.415686 0.756863 0.000000
0.541176 0.764706 0.000000
0.584314 0.725490 0.000000
0.686275 0.725490 0.007843
0.756863 0.709804 0.003922
0.854902 0.701961 0.000000
0.925490 0.678431 0.000000
0.980392 0.666667 0.000000
1.000000 0.670588 0.000000
1.000000 0.666667 0.007843
1.000000 0.611765 0.003922
0.992157 0.635294 0.000000
0.996078 0.584314 0.000000
0.996078 0.572549 0.003922
1.000000 0.552941 0.000000
1.000000 0.592157 0.164706
0.992157 0.427451 0.000000
1.000000 0.525490 0.176471
1.000000 0.694118 0.400000
0.505882 0.470588 0.000000
0.090196 0.615686 0.000000
0.011765 0.650980 0.000000
0.149020 0.580392 0.003922
0.223529 0.572549 0.007843
0.278431 0.611765 0.000000
0.305882 0.588235 0.007843
0.356863 0.603922 0.003922
0.443137 0.603922 0.000000
0.545098 0.631373 0.003922
0.596078 0.623529 0.003922
0.658824 0.619608 0.000000
0.788235 0.658824 0.000000
0.894118 0.694118 0.000000
0.949020 0.654902 0.003922
0.992157 0.635294 0.003922
1.000000 0.631373 0.000000
1.000000 0.627451 0.011765
0.996078 0.580392 0.000000
0.992157 0.596078 0.000000
0.992157 0.588235 0.000000
1.000000 0.584314 0.003922
1.000000 0.568627 0.003922
1.000000 0.529412 0.000000
1.000000 0.729412 0.266667
0.427451 0.529412 0.000000
0.098039 0.650980 0.000000
0.000000 0.662745 0.000000
0.152941 0.666667 0.007843
0.274510 0.662745 0.000000
0.266667 0.654902 0.000000
0.294118 0.639216 0.000000
0.372549 0.658824 0.000000
0.458824 0.686275 0.000000
0.521569 0.658824 0.011765
0.600000 0.690196 0.000000
0.658824 0.694118 0.000000
0.803922 0.745098 0.003922
0.894118 0.768627 0.000000
0.945098 0.729412 0.000000
0.941176 0.666667 0.000000
1.000000 0.690196 0.000000
0.996078 0.741176 0.003922
0.992157 0.615686 0.000000
1.000000 0.662745 0.003922
0.992157 0.650980 0.000000
1.000000 0.611765 0.003922
1.000000 0.619608 0.000000
1.000000 0.619608 0.047059
0.992157 0.760784 0.313725
0.600000 0.643137 0.000000
0.007843 0.756863 0.003922
0.000000 0.858824 0.000000
0.129412 0.756863 0.000000
0.313725 0.803922 0.000000
0.313725 0.803922 0.000000
0.388235 0.827451 0.007843
0.376471 0.796078 0.003922
0.517647 0.831373 0.011765
0.596078 0.835294 0.000000
0.650980 0.823529 0.000000
0.705882 0.796078 0.000000
0.850980 0.854902 0.007843
0.905882 0.839216 0.000000
0.964706 0.807843 0.000000
0.988235 0.862745 0.003922
1.000000 0.784314 0.000000
1.000000 0.756863 0.000000
1.000000 0.741176 0.007843
0.988235 0.733333 0.000000
0.996078 0.682353 0.000000
1.000000 0.701961 0.160784
1.000000 0.623529 0.125490
1.000000 0.698039 0.180392
1.000000 0.819608 0.403922
0.654902 0.929412 0.000000
0.066667 0.980392 0.003922
0.000000 0.996078 0.000000
0.168627 0.996078 0.011765
0.239216 0.988235 0.000000
0.368627 1.000000 0.003922
0.427451 1.000000 0.000000
0.509804 1.000000 0.000000
0.568627 1.000000 0.000000
0.741176 1.000000 0.000000
0.729412 0.992157 0.000000
0.894118 1.000000 0.007843
0.905882 0.980392 0.000000
0.992157 0.968627 0.003922
0.992157 0.972549 0.000000
1.000000 0.972549 0.007843
1.000000 0.890196 0.003922
1.000000 0.870588 0.003922
0.988235 0.807843 0.129412
0.996078 0.894118 0.364706
0.996078 0.823529 0.403922
1.000000 0.807843 0.447059
0.996078 0.803922 0.533333
0.996078 0.800000 0.592157
1.000000 0.839216 0.674510
0.462745 0.996078 0.219608
0.380392 0.996078 0.160784
0.376471 1.000000 0.149020
0.313725 0.996078 0.066667
0.407843 1.000000 0.133333
0.364706 0.996078 0.000000
0.529412 0.996078 0.007843
0.368627 1.000000 0.000000
0.627451 1.000000 0.000000
0.631373 1.000000 0.000000
0.725490 1.000000 0.003922
0.831373 1.000000 0.000000
0.823529 1.000000 0.015686
0.886275 0.992157 0.007843
0.972549 0.980392 0.000000
1.000000 0.972549 0.003922
1.000000 0.964706 0.000000
1.000000 0.945098 0.000000
1.000000 0.878431 0.007843
1.000000 0.933333 0.007843
0.996078 0.850980 0.015686
1.000000 0.827451 0.156863
0.992157 0.839216 0.301961
1.000000 0.780392 0.341176
1.000000 0.874510 0.450980
0.831373 1.000000 0.000000
0.000000 1.000000 0.011765
0.000000 1.000000 0.000000
0.321569 1.000000 0.000000
0.239216 1.000000 0.000000
0.239216 1.000000 0.000000
0.278431 1.000000 0.000000
0.454902 1.000000 0.011765
0.435294 1.000000 0.000000
0.556863 0.992157 0.000000
0.623529 1.000000 0.003922
0.752941 1.000000 0.000000
0.796078 1.000000 0.000000
0.792157 1.000000 0.003922
0.862745 0.992157 0.000000
0.972549 0.984314 0.000000
0.992157 0.956863 0.003922
1.000000 0.933333 0.000000
0.996078 0.964706 0.000000
1.000000 0.894118 0.000000
1.000000 0.878431 0.000000
1.000000 0.850980 0.007843
0.996078 0.784314 0.011765
0.996078 0.784314 0.164706
1.000000 0.945098 0.333333
0.600000 1.000000 0.003922
0.003922 1.000000 0.003922
0.125490 1.000000 0.000000
0.125490 1.000000 0.000000
0.203922 1.000000 0.003922
0.254902 0.996078 0.003922
0.270588 0.996078 0.000000
0.450980 1.000000 0.000000
0.458824 1.000000 0.000000
0.552941 0.996078 0.000000
0.678431 0.988235 0.000000
0.615686 0.996078 0.003922
0.796078 0.996078 0.003922
0.792157 1.000000 0.011765
0.850980 1.000000 0.000000
0.937255 1.000000 0.000000
1.000000 0.996078 0.011765
1.000000 0.968627 0.000000
1.000000 0.964706 0.011765
0.996078 0.984314 0.000000
1.000000 0.909804 0.007843
1.000000 0.894118 0.000000
1.000000 0.827451 0.054902
0.996078 0.878431 0.290196
1.000000 0.952941 0.435294
0.721569 1.000000 0.003922
0.000000 1.000000 0.003922
0.196078 0.996078 0.000000
0.466667 0.996078 0.003922
0.337255 1.000000 0.003922
0.505882 0.992157 0.000000
0.349020 1.000000 0.000000
0.466667 1.000000 0.000000
0.450980 0.996078 0.011765
0.568627 1.000000 0.000000
0.666667 1.000000 0.000000
0.780392 0.996078 0.007843
0.721569 0.996078 0.000000
0.780392 0.996078 0.015686
0.850980 0.996078 0.003922
0.960784 0.988235 0.000000
0.921569 1.000000 0.007843
1.000000 1.000000 0.003922
0.992157 0.980392 0.000000
1.000000 0.980392 0.101961
1.000000 0.941176 0.141176
1.000000 0.901961 0.196078
1.000000 0.898039 0.301961
0.996078 0.901961 0.384314
1.000000 0.968627 0.470588
0.631373 1.000000 0.003922
0.400000 1.000000 0.384314
0.415686 1.000000 0.294118
0.427451 1.000000 0.258824
0.600000 0.996078 0.376471
0.501961 0.996078 0.329412
0.607843 1.000000 0.400000
0.662745 0.992157 0.454902
0.607843 1.000000 0.380392
0.686275 1.000000 0.423529
0.717647 1.000000 0.419608
0.674510 1.000000 0.364706
0.792157 0.996078 0.427451
0.839216 1.000000 0.450980
0.878431 1.000000 0.458824
0.890196 1.000000 0.427451
0.996078 1.000000 0.537255
0.956863 1.000000 0.450980
1.000000 0.996078 0.552941
1.000000 0.996078 0.490196
0.992157 0.980392 0.560784
0.996078 0.964706 0.580392
0.996078 0.968627 0.662745
1.000000 0.968627 0.721569
1.000000 0.917647 0.725490
0.894118 1.000000 0.905882
0.949020 1.000000 0.933333
0.843137 1.000000 0.866667
0.905882 1.000000 0.898039
0.874510 1.000000 0.894118
0.945098 0.996078 0.929412
0.854902 1.000000 0.850980
0.898039 1.000000 0.862745
0.925490 1.000000 0.874510
0.964706 0.992157 0.882353
0.941176 1.000000 0.847059
0.898039 0.992157 0.803922
0.933333 1.000000 0.792157
0.992157 1.000000 0.815686
0.976471 0.996078 0.772549
0.988235 1.000000 0.780392
1.000000 0.996078 0.780392
1.000000 0.976471 0.780392
1.000000 0.972549 0.796078
1.000000 0.968627 0.784314
1.000000 0.972549 0.819608
1.000000 0.941176 0.815686
0.996078 0.952941 0.843137
0.992157 0.925490 0.847059
0.996078 0.968627 0.890196
0.921569 0.996078 0.674510
0.800000 1.000000 0.819608
0.776471 1.000000 0.784314
0.878431 1.000000 0.843137
0.847059 0.996078 0.803922
0.788235 0.996078 0.776471
0.854902 0.996078 0.800000
0.823529 1.000000 0.776471
0.854902 1.000000 0.796078
0.882353 1.000000 0.800000
0.847059 0.996078 0.760784
0.905882 1.000000 0.768627
0.901961 0.996078 0.752941
0.956863 1.000000 0.776471
0.984314 1.000000 0.776471
1.000000 0.996078 0.772549
1.000000 1.000000 0.745098
0.996078 0.996078 0.811765
0.996078 0.988235 0.756863
1.000000 0.980392 0.792157
0.988235 0.956863 0.764706
0.996078 0.960784 0.807843
1.000000 0.945098 0.823529
0.992157 0.925490 0.854902
1.000000 1.000000 0.929412
0.929412 0.996078 0.788235
0.835294 0.996078 0.827451
0.854902 0.996078 0.839216
0.874510 1.000000 0.854902
0.882353 1.000000 0.850980
0.890196 1.000000 0.870588
0.870588 1.000000 0.843137
0.835294 0.996078 0.827451
0.917647 0.996078 0.858824
0.901961 1.000000 0.839216
0.937255 1.000000 0.854902
0.898039 1.000000 0.823529
0.917647 1.000000 0.827451
0.913725 1.000000 0.815686
0.992157 1.000000 0.850980
0.968627 1.000000 0.847059
0.992157 0.996078 0.831373
1.000000 1.000000 0.839216
0.996078 0.992157 0.839216
0.996078 1.000000 0.843137
1.000000 0.996078 0.878431
1.000000 0.980392 0.886275
0.996078 0.972549 0.870588
1.000000 0.972549 0.921569
0.996078 0.988235 0.929412
0.921569 1.000000 0.811765
0.854902 0.988235 0.882353
0.933333 1.000000 0.913725
0.929412 1.000000 0.913725
0.913725 1.000000 0.909804
0.858824 1.000000 0.882353
0.886275 1.000000 0.894118
0.890196 0.996078 0.898039
0.960784 0.992157 0.933333
0.925490 0.996078 0.909804
0.933333 1.000000 0.917647
0.937255 1.000000 0.909804
0.972549 1.000000 0.937255
0.956863 1.000000 0.901961
0.968627 1.000000 0.913725
0.984314 0.996078 0.913725
0.976471 1.000000 0.901961
0.988235 1.000000 0.917647
1.000000 1.000000 0.972549
1.000000 0.992157 0.886275
0.996078 0.992157 0.921569
0.996078 0.992157 0.921569
0.988235 0.988235 0.941176
1.000000 0.984314 0.972549
1.000000 0.996078 0.980392
0.968627 1.000000 0.941176
0.941176 1.000000 0.949020
0.956863 1.000000 0.968627
0.960784 1.000000 0.964706
0.972549 1.000000 0.968627
0.941176 1.000000 0.949020
0.988235 1.000000 0.988235
0.952941 1.000000 0.952941
0.980392 1.000000 0.976471
0.956863 1.000000 0.964706
0.972549 0.996078 0.956863
0.980392 1.000000 0.976471
0.984314 0.996078 0.976471
0.980392 1.000000 0.956863
0.984314 0.996078 0.976471
0.992157 0.996078 0.964706
0.988235 1.000000 0.980392
1.000000 1.000000 0.972549
1.000000 0.996078 0.980392
0.992157 1.000000 0.980392
1.000000 1.000000 0.984314
1.000000 0.996078 0.980392
1.000000 1.000000 1.000000
0.996078 0.996078 0.988235
1.000000 1.000000 0.992157
0.003922 0.015686 0.000000
0.000000 0.039216 0.003922
0.000000 0.027451 0.000000
0.000000 0.058824 0.007843
0.003922 0.078431 0.003922
0.000000 0.043137 0.000000
0.094118 0.105882 0.000000
0.145098 0.125490 0.007843
0.172549 0.121569 0.000000
0.200000 0.121569 0.015686
0.247059 0.133333 0.000000
0.356863 0.196078 0.007843
0.356863 0.172549 0.000000
0.403922 0.192157 0.007843
0.498039 0.231373 0.000000
0.596078 0.250980 0.000000
0.768627 0.313725 0.003922
0.831373 0.274510 0.000000
0.952941 0.282353 0.011765
0.988235 0.278431 0.000000
1.000000 0.278431 0.007843
0.996078 0.254902 0.003922
1.000000 0.180392 0.003922
0.996078 0.211765 0.007843
0.996078 0.505882 0.000000
0.047059 0.027451 0.000000
0.007843 0.035294 0.003922
0.000000 0.078431 0.000000
0.000000 0.035294 0.000000
0.000000 0.058824 0.007843
0.031373 0.078431 0.000000
0.050980 0.101961 0.000000
0.078431 0.094118 0.000000
0.152941 0.129412 0.000000
0.160784 0.117647 0.000000
0.223529 0.152941 0.003922
0.243137 0.141176 0.011765
0.356863 0.211765 0.000000
0.333333 0.168627 0.003922
0.368627 0.180392 0.000000
0.411765 0.192157 0.000000
0.513725 0.211765 0.007843
0.670588 0.286275 0.000000
0.772549 0.286275 0.003922
0.937255 0.305882 0.000000
0.996078 0.329412 0.000000
1.000000 0.247059 0.000000
0.992157 0.250980 0.000000
1.000000 0.203922 0.003922
0.996078 0.596078 0.000000
0.015686 0.043137 0.011765
0.000000 0.121569 0.000000
0.000000 0.101961 0.000000
0.007843 0.074510 0.003922
0.000000 0.082353 0.000000
0.011765 0.098039 0.000000
0.054902 0.117647 0.003922
0.098039 0.133333 0.003922
0.121569 0.121569 0.011765
0.176471 0.156863 0.007843
0.207843 0.160784 0.000000
0.274510 0.196078 0.000000
0.301961 0.192157 0.000000
0.317647 0.184314 0.003922
0.403922 0.227451 0.011765
0.403922 0.215686 0.000000
0.470588 0.227451 0.003922
0.635294 0.313725 0.000000
0.764706 0.352941 0.000000
0.866667 0.388235 0.000000
0.968627 0.368627 0.003922
0.996078 0.349020 0.000000
0.992157 0.298039 0.000000
1.000000 0.290196 0.000000
1.000000 0.639216 0.000000
0.078431 0.074510 0.000000
0.003922 0.172549 0.003922
0.007843 0.129412 0.000000
0.000000 0.109804 0.011765
0.003922 0.149020 0.007843
0.003922 0.125490 0.000000
0.058824 0.164706 0.003922
0.058824 0.156863 0.000000
0.090196 0.149020 0.000000
0.172549 0.196078 0.000000
0.235294 0.207843 0.000000
0.239216 0.192157 0.000000
0.274510 0.207843 0.003922
0.278431 0.168627 0.011765
0.341176 0.211765 0.003922
0.435294 0.258824 0.000000
0.509804 0.282353 0.000000
0.627451 0.321569 0.000000
0.823529 0.423529 0.000000
0.949020 0.447059 0.015686
0.992157 0.427451 0.000000
0.996078 0.376471 0.000000
1.000000 0.431373 0.000000
1.000000 0.345098 0.000000
1.000000 0.674510 0.000000
0.098039 0.168627 0.011765
0.003922 0.235294 0.007843
0.000000 0.231373 0.000000
0.000000 0.192157 0.000000
0.003922 0.231373 0.000000
0.000000 0.207843 0.003922
0.000000 0.219608 0.003922
0.094118 0.231373 0.000000
0.141176 0.235294 0.000000
0.188235 0.250980 0.000000
0.254902 0.274510 0.011765
0.250980 0.235294 0.000000
0.341176 0.294118 0.000000
0.423529 0.325490 0.000000
0.533333 0.396078 0.003922
0.682353 0.470588 0.000000
0.788235 0.505882 0.023529
0.941176 0.576471 0.000000
1.000000 0.580392 0.003922
0.996078 0.533333 0.000000
0.992157 0.549020 0.000000
0.996078 0.505882 0.000000
1.000000 0.462745 0.003922
1.000000 0.447059 0.000000
0.988235 0.423529 0.003922
0.003922 0.219608 0.000000
0.000000 0.200000 0.000000
0.015686 0.200000 0.000000
0.113725 0.219608 0.019608
0.137255 0.192157 0.000000
0.188235 0.188235 0.007843
0.262745 0.200000 0.007843
0.294118 0.184314 0.000000
0.364706 0.200000 0.000000
0.454902 0.231373 0.011765
0.474510 0.192157 0.000000
0.560784 0.207843 0.003922
0.682353 0.215686 0.007843
0.815686 0.258824 0.000000
0.905882 0.247059 0.003922
0.929412 0.172549 0.000000
0.996078 0.180392 0.000000
1.000000 0.184314 0.003922
1.000000 0.192157 0.000000
1.000000 0.160784 0.000000
0.996078 0.160784 0.000000
1.000000 0.149020 0.011765
0.996078 0.149020 0.160784
1.000000 0.160784 0.172549
1.000000 0.435294 0.341176
0.286275 0.176471 0.000000
0.047059 0.176471 0.007843
0.054902 0.156863 0.003922
0.160784 0.231373 0.000000
0.129412 0.168627 0.000000
0.125490 0.149020 0.007843
0.203922 0.188235 0.000000
0.266667 0.223529 0.003922
0.278431 0.184314 0.000000
0.329412 0.188235 0.000000
0.376471 0.176471 0.000000
0.439216 0.207843 0.000000
0.545098 0.231373 0.000000
0.568627 0.184314 0.000000
0.752941 0.262745 0.000000
0.874510 0.286275 0.000000
0.949020 0.262745 0.007843
0.984314 0.200000 0.000000
0.996078 0.235294 0.000000
0.992157 0.149020 0.000000
1.000000 0.121569 0.000000
1.000000 0.200000 0.000000
0.996078 0.160784 0.000000
0.996078 0.070588 0.070588
1.000000 0.450980 0.239216
0.223529 0.180392 0.000000
0.078431 0.207843 0.000000
0.078431 0.180392 0.000000
0.125490 0.200000 0.011765
0.133333 0.215686 0.007843
0.117647 0.168627 0.000000
0.184314 0.215686 0.000000
0.207843 0.192157 0.003922
0.270588 0.211765 0.000000
0.290196 0.176471 0.003922
0.356863 0.211765 0.003922
0.403922 0.215686 0.000000
0.509804 0.243137 0.003922
0.615686 0.286275 0.000000
0.717647 0.282353 0.003922
0.827451 0.286275 0.003922
0.905882 0.294118 0.000000
0.996078 0.317647 0.007843
1.000000 0.290196 0.000000
0.992157 0.317647 0.000000
0.988235 0.317647 0.003922
0.996078 0.278431 0.003922
0.988235 0.286275 0.117647
0.996078 0.211765 0.109804
1.000000 0.537255 0.388235
0.274510 0.196078 0.000000
0.066667 0.239216 0.000000
0.062745 0.223529 0.000000
0.164706 0.262745 0.007843
0.145098 0.247059 0.000000
0.164706 0.254902 0.000000
0.176471 0.239216 0.000000
0.262745 0.294118 0.000000
0.247059 0.243137 0.000000
0.345098 0.278431 0.003922
0.403922 0.278431 0.000000
0.486275 0.305882 0.007843
0.603922 0.352941 0.000000
0.678431 0.360784 0.000000
0.815686 0.400000 0.007843
0.921569 0.415686 0.007843
1.000000 0.419608 0.015686
0.992157 0.396078 0.000000
1.000000 0.345098 0.000000
1.000000 0.419608 0.000000
1.000000 0.400000 0.000000
1.000000 0.372549 0.003922
0.992157 0.392157 0.125490
1.000000 0.278431 0.168627
1.000000 0.690196 0.482353
0.250980 0.262745 0.003922
0.101961 0.333333 0.003922
0.121569 0.333333 0.003922
0.172549 0.376471 0.000000
0.152941 0.352941 0.000000
0.219608 0.380392 0.003922
0.309804 0.443137 0.000000
0.341176 0.427451 0.000000
0.396078 0.443137 0.003922
0.529412 0.498039 0.007843
0.584314 0.490196 0.000000
0.698039 0.525490 0.000000
0.815686 0.560784 0.003922
0.949020 0.600000 0.003922
0.996078 0.560784 0.007843
1.000000 0.545098 0.000000
0.992157 0.588235 0.000000
1.000000 0.529412 0.000000
0.992157 0.568627 0.094118
1.000000 0.525490 0.160784
1.000000 0.513725 0.223529
0.996078 0.556863 0.317647
1.000000 0.560784 0.372549
1.000000 0.560784 0.415686
1.000000 0.592157 0.478431
0.003922 0.792157 0.007843
0.000000 0.725490 0.000000
0.000000 0.741176 0.003922
0.105882 0.725490 0.007843
0.211765 0.694118 0.000000
0.368627 0.701961 0.000000
0.372549 0.639216 0.007843
0.423529 0.600000 0.000000
0.509804 0.607843 0.003922
