blau.cube
#Generated by lutCreator.js
#Coded by SirSerch
#https://github.com/SirSerch/LutCreatorJs
TITLE lutCreatorJs_25
LUT_3D_SIZE 5
0.003922 0.000000 0.000000
0.231373 0.043137 0.003922
0.807843 0.000000 0.007843
0.996078 0.000000 0.000000
1.000000 0.447059 0.380392
0.258824 0.160784 0.000000
0.223529 0.200000 0.000000
0.623529 0.235294 0.007843
0.992157 0.250980 0.000000
1.000000 0.498039 0.203922
0.427451 0.529412 0.000000
0.294118 0.639216 0.000000
0.803922 0.745098 0.003922
0.992157 0.615686 0.000000
0.992157 0.760784 0.313725
0.721569 1.000000 0.003922
0.349020 1.000000 0.000000
0.721569 0.996078 0.000000
0.992157 0.980392 0.000000
1.000000 0.968627 0.470588
0.968627 1.000000 0.941176
0.988235 1.000000 0.988235
0.984314 0.996078 0.976471
1.000000 0.996078 0.980392
1.000000 1.000000 0.992157
0.000000 0.019608 0.011765
0.152941 0.113725 0.078431
0.384314 0.050980 0.000000
0.866667 0.003922 0.000000
1.000000 0.494118 0.000000
0.274510 0.133333 0.000000
0.160784 0.141176 0.086275
0.482353 0.176471 0.086275
0.996078 0.160784 0.129412
0.992157 0.474510 0.384314
0.407843 0.498039 0.003922
0.309804 0.627451 0.023529
0.701961 0.650980 0.000000
1.000000 0.654902 0.019608
1.000000 0.768627 0.494118
0.725490 0.996078 0.011765
0.372549 1.000000 0.054902
0.725490 1.000000 0.007843
0.996078 0.980392 0.113725
1.000000 0.968627 0.541176
0.972549 0.996078 0.941176
0.933333 1.000000 0.929412
0.952941 1.000000 0.933333
0.992157 1.000000 0.956863
1.000000 0.988235 0.976471
0.003922 0.082353 0.290196
0.117647 0.101961 0.305882
0.431373 0.062745 0.290196
0.827451 0.000000 0.305882
0.996078 0.529412 0.576471
0.329412 0.078431 0.215686
0.207843 0.184314 0.372549
0.525490 0.168627 0.400000
1.000000 0.172549 0.466667
1.000000 0.662745 0.776471
0.427451 0.482353 0.243137
0.290196 0.627451 0.466667
0.768627 0.670588 0.509804
1.000000 0.670588 0.580392
1.000000 0.870588 0.843137
0.729412 1.000000 0.407843
0.596078 1.000000 0.690196
0.788235 1.000000 0.670588
0.996078 0.976471 0.658824
0.996078 0.988235 0.850980
0.980392 1.000000 0.976471
0.964706 1.000000 0.972549
0.976471 0.996078 0.972549
0.996078 0.996078 0.988235
1.000000 0.988235 0.988235
0.000000 0.149020 0.827451
0.007843 0.145098 0.776471
0.415686 0.000000 0.619608
0.925490 0.000000 0.745098
0.992157 0.627451 0.905882
0.388235 0.027451 0.556863
0.094118 0.203922 0.764706
0.623529 0.254902 0.866667
1.000000 0.145098 0.811765
1.000000 0.749020 0.988235
0.529412 0.596078 0.776471
0.392157 0.709804 0.929412
0.717647 0.690196 0.886275
0.992157 0.792157 0.913725
1.000000 0.901961 0.960784
0.874510 0.992157 0.929412
0.717647 0.996078 0.941176
0.866667 0.980392 0.941176
0.956863 0.941176 0.905882
0.996078 0.976471 0.964706
0.984314 0.996078 0.976471
0.972549 0.992157 0.976471
0.980392 1.000000 1.000000
0.996078 0.996078 1.000000
0.992157 1.000000 1.000000
0.364706 0.470588 0.890196
0.407843 0.470588 0.909804
0.600000 0.490196 0.925490
0.850980 0.517647 0.980392
0.992157 0.890196 0.988235
0.447059 0.321569 0.843137
0.458824 0.509804 0.972549
0.654902 0.537255 0.976471
0.866667 0.513725 0.984314
1.000000 0.878431 1.000000
0.807843 0.858824 0.996078
0.807843 0.890196 1.000000
0.870588 0.890196 1.000000
0.976471 0.878431 0.996078
0.996078 0.968627 0.992157
0.905882 0.972549 1.000000
0.807843 0.956863 1.000000
0.956863 0.992157 1.000000
0.992157 0.984314 1.000000
0.996078 0.992157 1.000000
1.000000 0.996078 1.000000
1.000000 1.000000 0.992157
0.988235 0.996078 1.000000
0.996078 0.996078 0.988235
1.000000 0.992157 1.000000
