doc.cube
#Generated by lutCreator.js
#Coded by SirSerch
#https://github.com/SirSerch/LutCreatorJs
TITLE lutCreatorJs_25
LUT_3D_SIZE 9
0.639216 0.196078 0.125490
0.639216 0.219608 0.184314
0.137255 0.047059 0.000000
0.007843 0.066667 0.011765
0.058824 0.082353 0.027451
0.117647 0.101961 0.031373
0.152941 0.094118 0.043137
0.262745 0.125490 0.082353
0.345098 0.129412 0.086275
0.721569 0.254902 0.192157
0.729412 0.282353 0.207843
0.086275 0.101961 0.027451
0.039216 0.152941 0.058824
0.050980 0.133333 0.050980
0.109804 0.133333 0.058824
0.227451 0.176471 0.105882
0.290196 0.176471 0.101961
0.364706 0.192157 0.121569
0.396078 0.160784 0.105882
0.505882 0.207843 0.149020
0.576471 0.215686 0.156863
0.674510 0.250980 0.180392
0.713725 0.243137 0.184314
0.713725 0.262745 0.211765
0.356863 0.149020 0.082353
0.011765 0.152941 0.050980
0.039216 0.145098 0.039216
0.407843 0.211765 0.137255
0.509804 0.235294 0.160784
0.572549 0.231373 0.152941
0.635294 0.239216 0.160784
0.654902 0.250980 0.184314
0.678431 0.305882 0.223529
0.239216 0.152941 0.062745
0.027451 0.172549 0.062745
0.050980 0.200000 0.074510
0.082353 0.219608 0.074510
0.180392 0.227451 0.098039
0.262745 0.235294 0.113725
0.349020 0.243137 0.125490
0.462745 0.278431 0.176471
0.564706 0.266667 0.164706
0.627451 0.298039 0.200000
0.709804 0.321569 0.235294
0.729412 0.305882 0.223529
0.682353 0.305882 0.200000
0.674510 0.329412 0.247059
0.196078 0.192157 0.070588
0.090196 0.254902 0.129412
0.113725 0.266667 0.133333
0.180392 0.274510 0.125490
0.305882 0.298039 0.164706
0.356863 0.266667 0.145098
0.482353 0.317647 0.200000
0.772549 0.415686 0.294118
0.796078 0.466667 0.325490
0.168627 0.356863 0.164706
0.086275 0.364706 0.152941
0.125490 0.364706 0.172549
0.180392 0.345098 0.160784
0.290196 0.368627 0.192157
0.411765 0.376471 0.211765
0.556863 0.447059 0.298039
0.580392 0.454902 0.290196
0.615686 0.427451 0.262745
0.686275 0.454902 0.290196
0.745098 0.482353 0.309804
0.772549 0.466667 0.301961
0.752941 0.482353 0.313725
0.435294 0.427451 0.227451
0.105882 0.450980 0.211765
0.172549 0.498039 0.243137
0.572549 0.521569 0.305882
0.615686 0.494118 0.298039
0.682353 0.509804 0.325490
0.725490 0.501961 0.333333
0.760784 0.521569 0.345098
0.752941 0.549020 0.352941
0.290196 0.392157 0.176471
0.125490 0.470588 0.227451
0.129412 0.490196 0.223529
0.713725 0.423529 0.247059
0.733333 0.494118 0.325490
0.215686 0.337255 0.113725
0.066667 0.396078 0.152941
0.086275 0.419608 0.172549
0.168627 0.458824 0.192157
0.282353 0.462745 0.188235
0.388235 0.450980 0.200000
0.556863 0.521569 0.286275
0.811765 0.603922 0.368627
0.807843 0.623529 0.376471
0.176471 0.486275 0.207843
0.094118 0.517647 0.207843
0.152941 0.541176 0.243137
0.223529 0.541176 0.243137
0.329412 0.545098 0.250980
0.454902 0.549020 0.250980
0.537255 0.545098 0.262745
0.376471 0.211765 0.086275
0.431373 0.200000 0.074510
0.521569 0.235294 0.109804
0.607843 0.266667 0.137255
0.643137 0.266667 0.141176
0.674510 0.333333 0.207843
0.239216 0.160784 0.003922
0.000000 0.219608 0.027451
0.000000 0.211765 0.027451
0.356863 0.231373 0.070588
0.470588 0.266667 0.121569
0.556863 0.305882 0.164706
0.552941 0.258824 0.121569
0.650980 0.309804 0.172549
0.600000 0.313725 0.152941
0.145098 0.156863 0.000000
0.000000 0.250980 0.058824
0.000000 0.235294 0.019608
0.086275 0.266667 0.117647
0.160784 0.235294 0.109804
0.294118 0.282353 0.152941
0.360784 0.266667 0.145098
0.458824 0.290196 0.180392
0.545098 0.266667 0.149020
0.650980 0.333333 0.219608
0.678431 0.309804 0.207843
0.725490 0.333333 0.231373
0.780392 0.372549 0.266667
0.768627 0.419608 0.325490
0.278431 0.258824 0.125490
0.039216 0.258824 0.101961
0.117647 0.294118 0.141176
0.137255 0.282353 0.113725
0.325490 0.345098 0.200000
0.439216 0.356863 0.227451
0.478431 0.317647 0.188235
0.749020 0.439216 0.282353
0.780392 0.482353 0.321569
0.192157 0.396078 0.196078
0.050980 0.388235 0.156863
0.137255 0.411765 0.203922
0.176471 0.396078 0.184314
0.278431 0.396078 0.184314
0.431373 0.423529 0.231373
0.494118 0.400000 0.227451
0.643137 0.501961 0.329412
0.709804 0.505882 0.333333
0.749020 0.498039 0.325490
0.811765 0.537255 0.364706
0.854902 0.541176 0.368627
0.847059 0.568627 0.388235
0.505882 0.486275 0.286275
0.133333 0.466667 0.223529
0.188235 0.545098 0.274510
0.647059 0.552941 0.352941
0.764706 0.603922 0.411765
0.741176 0.552941 0.356863
0.776471 0.549020 0.356863
0.827451 0.576471 0.388235
0.780392 0.584314 0.380392
0.356863 0.450980 0.243137
0.141176 0.490196 0.254902
0.164706 0.537255 0.274510
0.792157 0.490196 0.325490
0.800000 0.552941 0.400000
0.270588 0.356863 0.168627
0.129412 0.462745 0.247059
0.168627 0.458824 0.250980
0.211765 0.478431 0.247059
0.337255 0.498039 0.262745
0.525490 0.552941 0.345098
0.564706 0.490196 0.290196
0.866667 0.619608 0.407843
0.858824 0.619608 0.403922
0.278431 0.552941 0.309804
0.172549 0.592157 0.317647
0.188235 0.560784 0.301961
0.278431 0.611765 0.345098
0.360784 0.600000 0.333333
0.474510 0.560784 0.305882
0.592157 0.584314 0.349020
0.388235 0.235294 0.082353
0.454902 0.235294 0.082353
0.560784 0.290196 0.141176
0.639216 0.321569 0.180392
0.647059 0.301961 0.156863
0.635294 0.329412 0.184314
0.258824 0.215686 0.043137
0.000000 0.231373 0.023529
0.000000 0.250980 0.035294
0.349020 0.250980 0.066667
0.415686 0.250980 0.070588
0.501961 0.298039 0.117647
0.603922 0.352941 0.180392
0.647059 0.360784 0.192157
0.631373 0.407843 0.211765
0.160784 0.231373 0.027451
0.000000 0.290196 0.054902
0.000000 0.301961 0.039216
0.011765 0.250980 0.058824
0.117647 0.258824 0.082353
0.219608 0.254902 0.098039
0.396078 0.317647 0.172549
0.490196 0.313725 0.180392
0.552941 0.313725 0.160784
0.643137 0.345098 0.203922
0.694118 0.376471 0.231373
0.713725 0.356863 0.215686
0.764706 0.376471 0.250980
0.721569 0.376471 0.270588
0.239216 0.227451 0.086275
0.090196 0.301961 0.141176
0.058824 0.290196 0.125490
0.223529 0.345098 0.188235
0.301961 0.317647 0.176471
0.411765 0.333333 0.200000
0.537255 0.360784 0.231373
0.796078 0.450980 0.294118
0.843137 0.529412 0.364706
0.164706 0.364706 0.164706
0.098039 0.431373 0.200000
0.125490 0.435294 0.211765
0.227451 0.435294 0.223529
0.305882 0.407843 0.196078
0.494118 0.462745 0.270588
0.568627 0.458824 0.274510
0.650980 0.513725 0.321569
0.709804 0.529412 0.333333
0.725490 0.521569 0.325490
0.831373 0.572549 0.376471
0.803922 0.556863 0.345098
0.831373 0.607843 0.396078
0.501961 0.521569 0.294118
0.207843 0.564706 0.313725
0.196078 0.596078 0.329412
0.670588 0.607843 0.364706
0.721569 0.596078 0.360784
0.764706 0.611765 0.376471
0.807843 0.631373 0.403922
0.811765 0.588235 0.376471
0.819608 0.643137 0.411765
0.368627 0.498039 0.250980
0.149020 0.541176 0.262745
0.137255 0.564706 0.258824
0.854902 0.545098 0.352941
0.807843 0.592157 0.403922
0.290196 0.423529 0.200000
0.145098 0.447059 0.235294
0.188235 0.521569 0.298039
0.235294 0.517647 0.290196
0.380392 0.560784 0.337255
0.521569 0.572549 0.356863
0.592157 0.521569 0.309804
0.886275 0.666667 0.427451
0.886275 0.701961 0.450980
0.211765 0.552941 0.278431
0.211765 0.627451 0.345098
0.180392 0.600000 0.321569
0.239216 0.627451 0.345098
0.349020 0.615686 0.349020
0.549020 0.647059 0.384314
0.615686 0.623529 0.368627
0.411765 0.239216 0.109804
0.521569 0.270588 0.137255
0.611765 0.305882 0.172549
0.701961 0.325490 0.200000
0.701961 0.341176 0.196078
0.713725 0.376471 0.231373
0.321569 0.219608 0.066667
0.000000 0.243137 0.054902
0.000000 0.243137 0.074510
0.372549 0.262745 0.098039
0.529412 0.325490 0.172549
0.568627 0.309804 0.156863
0.701961 0.396078 0.250980
0.717647 0.388235 0.243137
0.639216 0.376471 0.203922
0.200000 0.243137 0.062745
0.000000 0.286275 0.090196
0.000000 0.298039 0.086275
0.062745 0.266667 0.121569
0.133333 0.286275 0.145098
0.215686 0.282353 0.145098
0.352941 0.294118 0.172549
0.462745 0.301961 0.192157
0.596078 0.356863 0.207843
0.678431 0.380392 0.243137
0.682353 0.356863 0.215686
0.733333 0.368627 0.231373
0.717647 0.345098 0.223529
0.737255 0.443137 0.313725
0.196078 0.235294 0.090196
0.152941 0.368627 0.211765
0.098039 0.356863 0.172549
0.172549 0.376471 0.215686
0.258824 0.372549 0.207843
0.407843 0.396078 0.243137
0.517647 0.384314 0.235294
0.796078 0.509804 0.333333
0.807843 0.541176 0.360784
0.156863 0.431373 0.211765
0.125490 0.474510 0.243137
0.133333 0.486275 0.258824
0.152941 0.478431 0.243137
0.294118 0.494118 0.270588
0.439216 0.478431 0.270588
0.541176 0.486275 0.298039
0.639216 0.509804 0.333333
0.717647 0.533333 0.356863
0.788235 0.584314 0.396078
0.811765 0.556863 0.368627
0.847059 0.592157 0.396078
0.819608 0.603922 0.403922
0.486275 0.501961 0.298039
0.231373 0.564706 0.337255
0.176471 0.568627 0.317647
0.658824 0.615686 0.392157
0.768627 0.647059 0.427451
0.788235 0.623529 0.400000
0.815686 0.627451 0.400000
0.839216 0.627451 0.411765
0.815686 0.666667 0.431373
0.364706 0.513725 0.274510
0.207843 0.580392 0.321569
0.184314 0.588235 0.301961
0.858824 0.556863 0.388235
0.835294 0.611765 0.439216
0.345098 0.439216 0.274510
0.266667 0.545098 0.376471
0.188235 0.505882 0.309804
0.270588 0.529412 0.376471
0.380392 0.568627 0.403922
0.505882 0.568627 0.403922
0.686275 0.623529 0.450980
0.886275 0.666667 0.454902
0.941176 0.741176 0.525490
0.325490 0.615686 0.380392
0.301961 0.654902 0.415686
0.270588 0.631373 0.403922
0.270588 0.627451 0.388235
0.360784 0.639216 0.403922
0.568627 0.670588 0.431373
0.674510 0.678431 0.443137
0.431373 0.286275 0.149020
0.513725 0.301961 0.145098
0.596078 0.349020 0.184314
0.674510 0.356863 0.192157
0.690196 0.380392 0.200000
0.690196 0.400000 0.231373
0.333333 0.262745 0.113725
0.043137 0.282353 0.133333
0.011765 0.274510 0.137255
0.462745 0.380392 0.196078
0.556863 0.388235 0.200000
0.596078 0.380392 0.192157
0.690196 0.443137 0.258824
0.694118 0.403922 0.239216
0.662745 0.431373 0.254902
0.172549 0.243137 0.066667
0.043137 0.325490 0.141176
0.031373 0.321569 0.125490
0.047059 0.227451 0.145098
0.149020 0.305882 0.227451
0.247059 0.321569 0.235294
0.305882 0.254902 0.149020
0.478431 0.329412 0.207843
0.615686 0.352941 0.219608
0.647059 0.349020 0.215686
0.709804 0.372549 0.235294
0.741176 0.400000 0.258824
0.803922 0.396078 0.294118
0.729412 0.407843 0.309804
0.247059 0.247059 0.164706
0.192157 0.352941 0.294118
0.156863 0.352941 0.282353
0.219608 0.364706 0.325490
0.345098 0.415686 0.329412
0.431373 0.388235 0.301961
0.552941 0.400000 0.298039
0.788235 0.478431 0.329412
0.850980 0.560784 0.411765
0.250980 0.415686 0.286275
0.231373 0.458824 0.329412
0.219608 0.443137 0.329412
0.294118 0.521569 0.392157
0.356863 0.509804 0.384314
0.521569 0.537255 0.396078
0.627451 0.549020 0.403922
0.666667 0.592157 0.423529
0.678431 0.537255 0.364706
0.752941 0.580392 0.403922
0.800000 0.588235 0.415686
0.839216 0.603922 0.427451
0.811765 0.623529 0.439216
0.521569 0.552941 0.364706
0.254902 0.564706 0.368627
0.243137 0.600000 0.388235
0.619608 0.611765 0.384314
0.768627 0.674510 0.458824
0.776471 0.635294 0.431373
0.811765 0.631373 0.427451
0.811765 0.627451 0.407843
0.815686 0.674510 0.466667
0.356863 0.521569 0.290196
0.227451 0.572549 0.333333
0.227451 0.603922 0.360784
0.843137 0.564706 0.388235
0.843137 0.670588 0.498039
0.258824 0.403922 0.270588
0.282353 0.545098 0.439216
0.247059 0.564706 0.407843
0.290196 0.588235 0.447059
0.376471 0.623529 0.482353
0.529412 0.643137 0.501961
0.635294 0.607843 0.462745
0.913725 0.709804 0.517647
0.890196 0.733333 0.533333
0.352941 0.650980 0.458824
0.329412 0.686275 0.490196
0.349020 0.698039 0.513725
0.309804 0.666667 0.470588
0.337255 0.654902 0.450980
0.498039 0.658824 0.462745
0.650980 0.694118 0.494118
0.431373 0.262745 0.176471
0.584314 0.345098 0.247059
0.666667 0.392157 0.286275
0.701961 0.392157 0.270588
0.760784 0.427451 0.290196
0.698039 0.419608 0.286275
0.329412 0.270588 0.164706
0.094118 0.298039 0.219608
0.121569 0.345098 0.298039
0.423529 0.364706 0.215686
0.513725 0.360784 0.211765
0.623529 0.415686 0.266667
0.686275 0.427451 0.270588
0.705882 0.435294 0.254902
0.694118 0.466667 0.321569
0.192157 0.274510 0.117647
0.145098 0.388235 0.235294
0.101961 0.368627 0.211765
0.133333 0.309804 0.317647
0.137255 0.305882 0.321569
0.196078 0.313725 0.313725
0.337255 0.325490 0.301961
0.466667 0.321569 0.286275
0.596078 0.368627 0.278431
0.639216 0.341176 0.247059
0.670588 0.364706 0.247059
0.737255 0.396078 0.278431
0.780392 0.356863 0.278431
0.733333 0.415686 0.360784
0.243137 0.247059 0.250980
0.239216 0.368627 0.423529
0.188235 0.372549 0.396078
0.188235 0.352941 0.396078
0.294118 0.388235 0.427451
0.450980 0.431373 0.443137
0.588235 0.443137 0.419608
0.823529 0.509804 0.400000
0.850980 0.584314 0.466667
0.262745 0.435294 0.376471
0.282353 0.509804 0.447059
0.294118 0.505882 0.458824
0.345098 0.564706 0.509804
0.356863 0.545098 0.478431
0.466667 0.517647 0.458824
0.560784 0.513725 0.435294
0.647059 0.529412 0.478431
0.729412 0.556863 0.478431
0.796078 0.588235 0.494118
0.854902 0.592157 0.474510
0.850980 0.560784 0.447059
0.882353 0.639216 0.545098
0.560784 0.533333 0.482353
0.372549 0.596078 0.568627
0.337255 0.568627 0.517647
0.698039 0.650980 0.552941
0.741176 0.619608 0.509804
0.823529 0.674510 0.549020
0.839216 0.650980 0.501961
0.850980 0.627451 0.474510
0.870588 0.674510 0.564706
0.368627 0.474510 0.349020
0.321569 0.580392 0.458824
0.301961 0.584314 0.462745
0.882353 0.584314 0.458824
0.862745 0.627451 0.552941
0.333333 0.443137 0.423529
0.356863 0.572549 0.588235
0.388235 0.619608 0.603922
0.392157 0.631373 0.639216
0.384314 0.584314 0.592157
0.505882 0.600000 0.600000
0.650980 0.623529 0.592157
0.933333 0.725490 0.623529
0.945098 0.745098 0.658824
0.423529 0.666667 0.607843
0.447059 0.705882 0.654902
0.400000 0.670588 0.623529
0.415686 0.682353 0.631373
0.447059 0.698039 0.639216
0.537255 0.705882 0.635294
0.643137 0.701961 0.619608
0.462745 0.345098 0.356863
0.588235 0.372549 0.356863
0.666667 0.403922 0.368627
0.721569 0.431373 0.368627
0.752941 0.427451 0.345098
0.760784 0.450980 0.403922
0.360784 0.321569 0.321569
0.168627 0.392157 0.431373
0.188235 0.427451 0.443137
0.427451 0.392157 0.345098
0.572549 0.443137 0.364706
0.631373 0.458824 0.352941
0.690196 0.482353 0.349020
0.694118 0.462745 0.317647
0.690196 0.494118 0.396078
0.211765 0.305882 0.215686
0.200000 0.423529 0.356863
0.176471 0.415686 0.352941
0.101961 0.349020 0.419608
0.066667 0.294118 0.380392
0.168627 0.333333 0.423529
0.290196 0.298039 0.392157
0.474510 0.305882 0.407843
0.607843 0.349020 0.364706
0.658824 0.376471 0.364706
0.733333 0.419608 0.384314
0.721569 0.396078 0.360784
0.800000 0.407843 0.368627
0.760784 0.447059 0.450980
0.227451 0.262745 0.345098
0.219608 0.384314 0.509804
0.164706 0.356863 0.466667
0.168627 0.372549 0.494118
0.278431 0.415686 0.525490
0.392157 0.419608 0.517647
0.564706 0.443137 0.525490
0.803922 0.501961 0.466667
0.815686 0.525490 0.513725
0.243137 0.450980 0.478431
0.294118 0.517647 0.552941
0.254902 0.486275 0.533333
0.278431 0.505882 0.545098
0.290196 0.501961 0.533333
0.447059 0.517647 0.545098
0.603922 0.549020 0.560784
0.658824 0.580392 0.576471
0.749020 0.596078 0.568627
0.811765 0.611765 0.572549
0.862745 0.635294 0.580392
0.878431 0.643137 0.572549
0.901961 0.682353 0.643137
0.592157 0.600000 0.576471
0.411765 0.643137 0.631373
0.415686 0.658824 0.647059
0.654902 0.647059 0.584314
0.772549 0.666667 0.592157
0.839216 0.694118 0.600000
0.858824 0.682353 0.568627
0.882353 0.686275 0.560784
0.858824 0.705882 0.619608
0.380392 0.521569 0.431373
0.356863 0.627451 0.545098
0.349020 0.639216 0.537255
0.784314 0.443137 0.450980
0.752941 0.482353 0.517647
0.188235 0.254902 0.333333
0.227451 0.407843 0.513725
0.235294 0.435294 0.517647
0.215686 0.431373 0.533333
0.250980 0.447059 0.545098
0.313725 0.411765 0.509804
0.447059 0.400000 0.494118
0.847059 0.623529 0.600000
0.854902 0.635294 0.639216
0.352941 0.549020 0.576471
0.333333 0.549020 0.576471
0.345098 0.572549 0.596078
0.349020 0.568627 0.596078
0.364706 0.564706 0.588235
0.415686 0.568627 0.588235
0.545098 0.596078 0.603922
0.443137 0.305882 0.454902
0.580392 0.313725 0.439216
0.670588 0.345098 0.443137
0.741176 0.360784 0.431373
0.784314 0.396078 0.450980
0.776471 0.431373 0.525490
0.380392 0.298039 0.423529
0.219608 0.388235 0.545098
0.145098 0.356863 0.505882
0.450980 0.392157 0.478431
0.572549 0.392157 0.462745
0.650980 0.403922 0.447059
0.737255 0.439216 0.454902
0.768627 0.439216 0.435294
0.749020 0.482353 0.513725
0.196078 0.254902 0.278431
0.235294 0.423529 0.474510
0.168627 0.400000 0.450980
0.168627 0.376471 0.545098
0.156863 0.376471 0.545098
0.211765 0.407843 0.568627
0.345098 0.407843 0.572549
0.529412 0.431373 0.619608
0.682353 0.380392 0.486275
0.729412 0.400000 0.494118
0.819608 0.462745 0.521569
0.807843 0.443137 0.486275
0.850980 0.407843 0.447059
0.780392 0.439216 0.533333
0.247059 0.305882 0.466667
0.215686 0.435294 0.631373
0.219608 0.466667 0.627451
0.227451 0.478431 0.650980
0.305882 0.494118 0.670588
0.384314 0.466667 0.643137
0.545098 0.458824 0.627451
0.850980 0.537255 0.584314
0.878431 0.576471 0.654902
0.290196 0.498039 0.584314
0.301961 0.521569 0.607843
0.337255 0.560784 0.650980
0.325490 0.545098 0.635294
0.341176 0.549020 0.635294
0.415686 0.541176 0.662745
0.560784 0.564706 0.686275
0.670588 0.576471 0.698039
0.784314 0.572549 0.670588
0.854902 0.588235 0.674510
0.858824 0.584314 0.650980
0.921569 0.627451 0.674510
0.921569 0.658824 0.729412
0.584314 0.564706 0.650980
0.454902 0.670588 0.776471
0.447059 0.682353 0.749020
0.698039 0.694118 0.752941
0.807843 0.701961 0.741176
0.843137 0.678431 0.690196
0.913725 0.713725 0.701961
0.909804 0.709804 0.666667
0.905882 0.752941 0.749020
0.423529 0.560784 0.545098
0.431373 0.658824 0.666667
0.435294 0.662745 0.674510
0.803922 0.368627 0.443137
0.749020 0.435294 0.580392
0.196078 0.294118 0.454902
0.239216 0.462745 0.643137
0.203922 0.423529 0.615686
0.207843 0.443137 0.627451
0.215686 0.435294 0.635294
0.294118 0.447059 0.647059
0.376471 0.384314 0.584314
0.866667 0.525490 0.623529
0.894118 0.600000 0.690196
0.349020 0.564706 0.690196
0.360784 0.596078 0.713725
0.313725 0.556863 0.678431
0.309804 0.549020 0.666667
0.337255 0.560784 0.674510
0.349020 0.509804 0.631373
0.490196 0.552941 0.682353
0.349020 0.274510 0.521569
0.509804 0.274510 0.517647
0.705882 0.388235 0.596078
0.784314 0.384314 0.545098
0.847059 0.407843 0.564706
0.847059 0.443137 0.627451
0.349020 0.282353 0.494118
0.215686 0.450980 0.623529
0.152941 0.372549 0.572549
0.407843 0.419608 0.580392
0.490196 0.360784 0.498039
0.639216 0.403922 0.505882
0.674510 0.360784 0.443137
0.780392 0.435294 0.498039
0.745098 0.466667 0.560784
0.211765 0.305882 0.384314
0.176471 0.415686 0.521569
0.203922 0.411765 0.541176
0.196078 0.439216 0.670588
0.176471 0.419608 0.647059
0.196078 0.419608 0.635294
0.266667 0.392157 0.623529
0.415686 0.415686 0.678431
0.658824 0.407843 0.643137
0.768627 0.427451 0.658824
0.768627 0.400000 0.596078
0.843137 0.419608 0.619608
0.882353 0.423529 0.596078
0.823529 0.482353 0.721569
0.219608 0.298039 0.533333
0.250980 0.478431 0.721569
0.215686 0.466667 0.709804
0.184314 0.450980 0.690196
0.196078 0.415686 0.650980
0.337255 0.466667 0.705882
0.501961 0.466667 0.713725
0.890196 0.501961 0.686275
0.878431 0.529412 0.713725
0.294118 0.517647 0.690196
0.321569 0.556863 0.725490
0.301961 0.545098 0.709804
0.294118 0.533333 0.701961
0.298039 0.529412 0.690196
0.376471 0.537255 0.705882
0.474510 0.529412 0.701961
0.619608 0.572549 0.741176
0.701961 0.525490 0.686275
0.823529 0.580392 0.733333
0.882353 0.568627 0.729412
0.882353 0.576471 0.701961
0.890196 0.627451 0.749020
0.560784 0.572549 0.705882
0.454902 0.698039 0.788235
0.423529 0.666667 0.807843
0.596078 0.650980 0.749020
0.701961 0.627451 0.729412
0.800000 0.631373 0.729412
0.854902 0.643137 0.737255
0.890196 0.654902 0.721569
0.917647 0.705882 0.800000
0.403922 0.498039 0.564706
0.431373 0.654902 0.717647
0.407843 0.639216 0.690196
