doc.cube
#Generated by lutCreator.js
#Coded by SirSerch
#https://github.com/SirSerch/LutCreatorJs
TITLE lutCreatorJs_25
LUT_3D_SIZE 5
0.639216 0.196078 0.125490
0.137255 0.047059 0.000000
0.058824 0.082353 0.027451
0.152941 0.094118 0.043137
0.345098 0.129412 0.086275
0.396078 0.160784 0.105882
0.576471 0.215686 0.156863
0.713725 0.243137 0.184314
0.356863 0.149020 0.082353
0.039216 0.145098 0.039216
0.082353 0.219608 0.074510
0.262745 0.235294 0.113725
0.462745 0.278431 0.176471
0.627451 0.298039 0.200000
0.729412 0.305882 0.223529
0.772549 0.415686 0.294118
0.168627 0.356863 0.164706
0.125490 0.364706 0.172549
0.290196 0.368627 0.192157
0.556863 0.447059 0.298039
0.572549 0.521569 0.305882
0.682353 0.509804 0.325490
0.760784 0.521569 0.345098
0.290196 0.392157 0.176471
0.129412 0.490196 0.223529
0.792157 0.490196 0.325490
0.270588 0.356863 0.168627
0.168627 0.458824 0.250980
0.337255 0.498039 0.262745
0.564706 0.490196 0.290196
0.388235 0.235294 0.082353
0.560784 0.290196 0.141176
0.647059 0.301961 0.156863
0.258824 0.215686 0.043137
0.000000 0.250980 0.035294
0.011765 0.250980 0.058824
0.219608 0.254902 0.098039
0.490196 0.313725 0.180392
0.643137 0.345098 0.203922
0.713725 0.356863 0.215686
0.796078 0.450980 0.294118
0.164706 0.364706 0.164706
0.125490 0.435294 0.211765
0.305882 0.407843 0.196078
0.568627 0.458824 0.274510
0.670588 0.607843 0.364706
0.764706 0.611765 0.376471
0.811765 0.588235 0.376471
0.368627 0.498039 0.250980
0.137255 0.564706 0.258824
0.858824 0.556863 0.388235
0.345098 0.439216 0.274510
0.188235 0.505882 0.309804
0.380392 0.568627 0.403922
0.686275 0.623529 0.450980
0.431373 0.286275 0.149020
0.596078 0.349020 0.184314
0.690196 0.380392 0.200000
0.333333 0.262745 0.113725
0.011765 0.274510 0.137255
0.047059 0.227451 0.145098
0.247059 0.321569 0.235294
0.478431 0.329412 0.207843
0.647059 0.349020 0.215686
0.741176 0.400000 0.258824
0.788235 0.478431 0.329412
0.250980 0.415686 0.286275
0.219608 0.443137 0.329412
0.356863 0.509804 0.384314
0.627451 0.549020 0.403922
0.619608 0.611765 0.384314
0.776471 0.635294 0.431373
0.811765 0.627451 0.407843
0.356863 0.521569 0.290196
0.227451 0.603922 0.360784
0.882353 0.584314 0.458824
0.333333 0.443137 0.423529
0.388235 0.619608 0.603922
0.384314 0.584314 0.592157
0.650980 0.623529 0.592157
0.462745 0.345098 0.356863
0.666667 0.403922 0.368627
0.752941 0.427451 0.345098
0.360784 0.321569 0.321569
0.188235 0.427451 0.443137
0.101961 0.349020 0.419608
0.168627 0.333333 0.423529
0.474510 0.305882 0.407843
0.658824 0.376471 0.364706
0.721569 0.396078 0.360784
0.803922 0.501961 0.466667
0.243137 0.450980 0.478431
0.254902 0.486275 0.533333
0.290196 0.501961 0.533333
0.603922 0.549020 0.560784
0.654902 0.647059 0.584314
0.839216 0.694118 0.600000
0.882353 0.686275 0.560784
0.380392 0.521569 0.431373
0.349020 0.639216 0.537255
0.803922 0.368627 0.443137
0.196078 0.294118 0.454902
0.203922 0.423529 0.615686
0.215686 0.435294 0.635294
0.376471 0.384314 0.584314
0.349020 0.274510 0.521569
0.705882 0.388235 0.596078
0.847059 0.407843 0.564706
0.349020 0.282353 0.494118
0.152941 0.372549 0.572549
0.196078 0.439216 0.670588
0.196078 0.419608 0.635294
0.415686 0.415686 0.678431
0.768627 0.427451 0.658824
0.843137 0.419608 0.619608
0.890196 0.501961 0.686275
0.294118 0.517647 0.690196
0.301961 0.545098 0.709804
0.298039 0.529412 0.690196
0.474510 0.529412 0.701961
0.596078 0.650980 0.749020
0.800000 0.631373 0.729412
0.890196 0.654902 0.721569
0.403922 0.498039 0.564706
0.407843 0.639216 0.690196
