doc.cube
#Generated by lutCreator.js
#Coded by SirSerch
#https://github.com/SirSerch/LutCreatorJs
TITLE lutCreatorJs_25
LUT_3D_SIZE 25
0.639216 0.196078 0.125490
0.662745 0.211765 0.152941
0.666667 0.207843 0.168627
0.639216 0.219608 0.184314
0.556863 0.223529 0.180392
0.360784 0.133333 0.082353
0.137255 0.047059 0.000000
0.058824 0.054902 0.000000
0.011765 0.054902 0.000000
0.007843 0.066667 0.011765
0.015686 0.066667 0.015686
0.035294 0.074510 0.027451
0.058824 0.082353 0.027451
0.066667 0.078431 0.011765
0.086275 0.082353 0.011765
0.117647 0.101961 0.031373
0.113725 0.090196 0.031373
0.137255 0.094118 0.043137
0.152941 0.094118 0.043137
0.203922 0.121569 0.074510
0.211765 0.101961 0.054902
0.262745 0.125490 0.082353
0.286275 0.117647 0.078431
0.349020 0.152941 0.113725
0.345098 0.129412 0.086275
0.419608 0.180392 0.137255
0.415686 0.152941 0.109804
0.462745 0.180392 0.133333
0.466667 0.160784 0.117647
0.505882 0.184314 0.141176
0.549020 0.207843 0.168627
0.552941 0.188235 0.137255
0.584314 0.180392 0.117647
0.615686 0.192157 0.121569
0.658824 0.227451 0.160784
0.717647 0.266667 0.207843
0.674510 0.200000 0.149020
0.721569 0.235294 0.188235
0.721569 0.243137 0.192157
0.690196 0.215686 0.168627
0.705882 0.239216 0.196078
0.721569 0.298039 0.254902
0.572549 0.227451 0.184314
0.356863 0.129412 0.074510
0.101961 0.043137 0.000000
0.011765 0.066667 0.000000
0.007843 0.129412 0.039216
0.000000 0.109804 0.019608
0.011765 0.121569 0.035294
0.027451 0.105882 0.023529
0.054902 0.113725 0.031373
0.086275 0.113725 0.039216
0.121569 0.121569 0.050980
0.160784 0.137255 0.070588
0.180392 0.133333 0.066667
0.192157 0.125490 0.058824
0.231373 0.141176 0.078431
0.243137 0.133333 0.074510
0.282353 0.152941 0.090196
0.301961 0.149020 0.090196
0.329412 0.149020 0.094118
0.376471 0.172549 0.121569
0.407843 0.180392 0.133333
0.462745 0.207843 0.152941
0.458824 0.168627 0.090196
0.509804 0.200000 0.109804
0.549020 0.231373 0.145098
0.560784 0.227451 0.141176
0.584314 0.231373 0.149020
0.611765 0.239216 0.156863
0.623529 0.227451 0.149020
0.654902 0.235294 0.164706
0.666667 0.223529 0.160784
0.686275 0.231373 0.172549
0.709804 0.243137 0.184314
0.721569 0.254902 0.192157
0.717647 0.258824 0.188235
0.729412 0.274510 0.203922
0.729412 0.282353 0.207843
0.592157 0.258824 0.184314
0.262745 0.149020 0.078431
0.086275 0.101961 0.027451
0.039216 0.098039 0.007843
0.043137 0.133333 0.035294
0.039216 0.152941 0.058824
0.035294 0.152941 0.058824
0.031373 0.129412 0.043137
0.050980 0.133333 0.050980
0.074510 0.137255 0.062745
0.129412 0.168627 0.098039
0.109804 0.133333 0.058824
0.156863 0.156863 0.082353
0.164706 0.141176 0.066667
0.227451 0.176471 0.105882
0.227451 0.149020 0.078431
0.262745 0.164706 0.090196
0.290196 0.176471 0.101961
0.309804 0.176471 0.101961
0.325490 0.176471 0.101961
0.364706 0.192157 0.121569
0.411765 0.211765 0.141176
0.411765 0.180392 0.113725
0.454902 0.196078 0.129412
0.513725 0.227451 0.160784
0.529412 0.215686 0.149020
0.576471 0.239216 0.168627
0.596078 0.231373 0.160784
0.615686 0.231373 0.160784
0.662745 0.258824 0.188235
0.674510 0.254902 0.184314
0.682353 0.247059 0.176471
0.705882 0.270588 0.203922
0.639216 0.215686 0.156863
0.690196 0.274510 0.215686
0.694118 0.274510 0.207843
0.631373 0.247059 0.172549
0.615686 0.298039 0.219608
0.478431 0.250980 0.168627
0.215686 0.113725 0.031373
0.098039 0.098039 0.015686
0.047059 0.129412 0.035294
0.015686 0.145098 0.043137
0.011765 0.145098 0.039216
0.015686 0.145098 0.035294
0.023529 0.149020 0.035294
0.639216 0.203922 0.129412
0.666667 0.223529 0.160784
0.686275 0.235294 0.188235
0.631373 0.219608 0.180392
0.537255 0.215686 0.168627
0.376471 0.160784 0.105882
0.152941 0.074510 0.000000
0.043137 0.054902 0.000000
0.027451 0.082353 0.011765
0.003922 0.082353 0.015686
0.023529 0.094118 0.035294
0.039216 0.098039 0.039216
0.047059 0.090196 0.023529
0.074510 0.101961 0.027451
0.105882 0.125490 0.043137
0.121569 0.121569 0.043137
0.145098 0.129412 0.054902
0.180392 0.145098 0.078431
0.188235 0.129412 0.066667
0.207843 0.129412 0.066667
0.239216 0.129412 0.074510
0.282353 0.145098 0.090196
0.333333 0.168627 0.113725
0.325490 0.137255 0.086275
0.388235 0.176471 0.125490
0.396078 0.160784 0.105882
0.423529 0.164706 0.105882
0.474510 0.192157 0.133333
0.505882 0.207843 0.149020
0.513725 0.196078 0.141176
0.541176 0.207843 0.152941
0.576471 0.215686 0.156863
0.631373 0.239216 0.168627
0.650980 0.235294 0.164706
0.674510 0.250980 0.180392
0.686275 0.243137 0.180392
0.717647 0.250980 0.192157
0.713725 0.243137 0.184314
0.721569 0.254902 0.196078
0.725490 0.262745 0.207843
0.713725 0.262745 0.211765
0.674510 0.262745 0.215686
0.584314 0.254902 0.203922
0.356863 0.149020 0.082353
0.094118 0.050980 0.000000
0.047059 0.121569 0.015686
0.011765 0.152941 0.050980
0.000000 0.152941 0.050980
0.015686 0.149020 0.043137
0.039216 0.145098 0.039216
0.062745 0.145098 0.043137
0.101961 0.156863 0.062745
0.125490 0.152941 0.058824
0.133333 0.129412 0.043137
0.160784 0.133333 0.050980
0.200000 0.152941 0.066667
0.231373 0.160784 0.078431
0.250980 0.160784 0.082353
0.321569 0.211765 0.129412
0.294118 0.156863 0.078431
0.337255 0.168627 0.098039
0.411765 0.219608 0.152941
0.372549 0.160784 0.094118
0.407843 0.168627 0.094118
0.494118 0.211765 0.125490
0.556863 0.250980 0.156863
0.564706 0.250980 0.156863
0.556863 0.231373 0.141176
0.607843 0.262745 0.176471
0.635294 0.266667 0.184314
0.635294 0.247059 0.164706
0.705882 0.298039 0.223529
0.698039 0.266667 0.200000
0.670588 0.227451 0.160784
0.737255 0.282353 0.215686
0.725490 0.274510 0.200000
0.729412 0.282353 0.207843
0.713725 0.274510 0.192157
0.760784 0.333333 0.247059
0.580392 0.270588 0.180392
0.298039 0.211765 0.121569
0.082353 0.125490 0.027451
0.043137 0.129412 0.019608
0.050980 0.168627 0.054902
0.015686 0.156863 0.039216
0.015686 0.156863 0.043137
0.047059 0.176471 0.066667
0.082353 0.188235 0.086275
0.086275 0.172549 0.078431
0.117647 0.180392 0.090196
0.149020 0.192157 0.098039
0.180392 0.200000 0.105882
0.176471 0.176471 0.082353
0.184314 0.156863 0.062745
0.274510 0.215686 0.125490
0.258824 0.176471 0.090196
0.313725 0.207843 0.121569
0.380392 0.254902 0.168627
0.313725 0.168627 0.086275
0.400000 0.231373 0.152941
0.407843 0.211765 0.137255
0.411765 0.188235 0.113725
0.494118 0.247059 0.172549
0.509804 0.235294 0.160784
0.529412 0.235294 0.156863
0.572549 0.254902 0.176471
0.572549 0.231373 0.152941
0.619608 0.258824 0.180392
0.650980 0.270588 0.192157
0.635294 0.239216 0.160784
0.666667 0.258824 0.184314
0.686275 0.274510 0.200000
0.654902 0.250980 0.184314
0.670588 0.266667 0.200000
0.694118 0.290196 0.215686
0.678431 0.305882 0.223529
0.627451 0.321569 0.235294
0.490196 0.282353 0.192157
0.239216 0.152941 0.062745
0.105882 0.125490 0.031373
0.070588 0.172549 0.066667
0.027451 0.172549 0.062745
0.019608 0.172549 0.054902
0.031373 0.184314 0.062745
0.050980 0.200000 0.074510
0.705882 0.286275 0.207843
0.698039 0.274510 0.203922
0.717647 0.282353 0.231373
0.686275 0.290196 0.243137
0.603922 0.305882 0.247059
0.407843 0.223529 0.152941
0.160784 0.105882 0.019608
0.105882 0.141176 0.047059
0.074510 0.160784 0.070588
0.043137 0.152941 0.066667
0.062745 0.168627 0.090196
0.078431 0.176471 0.094118
0.070588 0.156863 0.066667
0.105882 0.176471 0.082353
0.141176 0.203922 0.098039
0.149020 0.184314 0.078431
0.203922 0.203922 0.101961
0.211765 0.184314 0.086275
0.239216 0.192157 0.098039
0.290196 0.219608 0.129412
0.278431 0.180392 0.094118
0.356863 0.227451 0.145098
0.345098 0.188235 0.109804
0.388235 0.207843 0.129412
0.435294 0.231373 0.149020
0.470588 0.243137 0.160784
0.466667 0.215686 0.133333
0.552941 0.278431 0.200000
0.560784 0.266667 0.184314
0.603922 0.298039 0.215686
0.592157 0.270588 0.188235
0.619608 0.274510 0.192157
0.658824 0.278431 0.200000
0.682353 0.286275 0.207843
0.682353 0.274510 0.196078
0.725490 0.301961 0.223529
0.745098 0.298039 0.227451
0.749020 0.294118 0.223529
0.717647 0.270588 0.196078
0.733333 0.298039 0.223529
0.737255 0.305882 0.239216
0.717647 0.337255 0.270588
0.631373 0.333333 0.262745
0.380392 0.207843 0.121569
0.145098 0.137255 0.027451
0.094118 0.203922 0.078431
0.023529 0.200000 0.078431
0.047059 0.247059 0.117647
0.058824 0.239216 0.094118
0.086275 0.250980 0.098039
0.082353 0.219608 0.074510
0.125490 0.235294 0.098039
0.176471 0.254902 0.117647
0.180392 0.227451 0.098039
0.219608 0.239216 0.113725
0.243137 0.235294 0.113725
0.262745 0.235294 0.113725
0.301961 0.254902 0.129412
0.317647 0.243137 0.121569
0.349020 0.243137 0.125490
0.403922 0.270588 0.156863
0.435294 0.274510 0.168627
0.462745 0.278431 0.176471
0.498039 0.278431 0.176471
0.568627 0.298039 0.196078
0.564706 0.266667 0.164706
0.588235 0.286275 0.184314
0.607843 0.294118 0.196078
0.627451 0.298039 0.200000
0.666667 0.317647 0.223529
0.686275 0.317647 0.227451
0.709804 0.321569 0.235294
0.709804 0.301961 0.223529
0.741176 0.321569 0.243137
0.729412 0.305882 0.223529
0.752941 0.329412 0.247059
0.749020 0.337255 0.247059
0.756863 0.352941 0.254902
0.741176 0.345098 0.243137
0.643137 0.368627 0.258824
0.290196 0.254902 0.129412
0.117647 0.219608 0.078431
0.098039 0.239216 0.090196
0.086275 0.262745 0.105882
0.047059 0.239216 0.082353
0.058824 0.254902 0.101961
0.082353 0.262745 0.117647
0.086275 0.243137 0.105882
0.121569 0.254902 0.121569
0.152941 0.262745 0.133333
0.184314 0.270588 0.141176
0.211765 0.278431 0.145098
0.211765 0.250980 0.121569
0.266667 0.278431 0.149020
0.290196 0.270588 0.145098
0.345098 0.290196 0.168627
0.376471 0.286275 0.172549
0.376471 0.258824 0.152941
0.454902 0.321569 0.215686
0.450980 0.294118 0.196078
0.470588 0.290196 0.196078
0.525490 0.321569 0.227451
0.509804 0.282353 0.188235
0.556863 0.309804 0.215686
0.568627 0.301961 0.211765
0.600000 0.317647 0.223529
0.596078 0.294118 0.200000
0.631373 0.313725 0.223529
0.650980 0.317647 0.227451
0.643137 0.298039 0.207843
0.698039 0.341176 0.254902
0.705882 0.337255 0.254902
0.721569 0.349020 0.266667
0.721569 0.349020 0.262745
0.721569 0.345098 0.250980
0.705882 0.364706 0.266667
0.635294 0.364706 0.262745
0.509804 0.329412 0.223529
0.250980 0.200000 0.094118
0.133333 0.184314 0.070588
0.082353 0.223529 0.101961
0.066667 0.254902 0.121569
0.070588 0.270588 0.125490
0.062745 0.266667 0.113725
0.054902 0.247059 0.094118
0.682353 0.305882 0.200000
0.701961 0.321569 0.219608
0.729412 0.341176 0.254902
0.674510 0.329412 0.247059
0.623529 0.372549 0.282353
0.462745 0.325490 0.223529
0.196078 0.192157 0.070588
0.133333 0.227451 0.094118
0.109804 0.250980 0.121569
0.090196 0.254902 0.129412
0.105882 0.274510 0.152941
0.113725 0.278431 0.152941
0.113725 0.266667 0.133333
0.145098 0.286275 0.145098
0.172549 0.301961 0.152941
0.180392 0.274510 0.125490
0.223529 0.270588 0.125490
0.258824 0.270588 0.129412
0.305882 0.298039 0.164706
0.356863 0.321569 0.192157
0.380392 0.321569 0.196078
0.356863 0.266667 0.145098
0.443137 0.325490 0.207843
0.454902 0.309804 0.192157
0.482353 0.317647 0.200000
0.521569 0.333333 0.215686
0.533333 0.321569 0.203922
0.556863 0.321569 0.203922
0.603922 0.349020 0.231373
0.615686 0.345098 0.227451
0.670588 0.388235 0.270588
0.662745 0.360784 0.247059
0.705882 0.376471 0.262745
0.682353 0.337255 0.223529
0.733333 0.376471 0.266667
0.709804 0.341176 0.231373
0.772549 0.380392 0.274510
0.741176 0.345098 0.235294
0.784314 0.400000 0.286275
0.760784 0.384314 0.274510
0.760784 0.392157 0.286275
0.737255 0.419608 0.309804
0.670588 0.439216 0.321569
0.454902 0.349020 0.215686
0.164706 0.223529 0.070588
0.105882 0.282353 0.117647
0.101961 0.345098 0.176471
0.062745 0.329412 0.152941
0.082353 0.337255 0.141176
0.117647 0.352941 0.149020
0.168627 0.376471 0.184314
0.145098 0.325490 0.137255
0.184314 0.329412 0.145098
0.250980 0.368627 0.188235
0.250980 0.333333 0.160784
0.305882 0.360784 0.192157
0.301961 0.337255 0.164706
0.349020 0.356863 0.188235
0.419608 0.400000 0.231373
0.400000 0.352941 0.188235
0.423529 0.341176 0.184314
0.509804 0.396078 0.243137
0.525490 0.388235 0.239216
0.541176 0.368627 0.223529
0.603922 0.380392 0.243137
0.639216 0.388235 0.250980
0.654902 0.396078 0.262745
0.666667 0.396078 0.266667
0.698039 0.415686 0.286275
0.705882 0.407843 0.278431
0.698039 0.380392 0.254902
0.745098 0.411765 0.290196
0.752941 0.403922 0.286275
0.741176 0.384314 0.266667
0.776471 0.415686 0.298039
0.772549 0.415686 0.294118
0.776471 0.427451 0.298039
0.749020 0.411765 0.274510
0.796078 0.466667 0.325490
0.674510 0.474510 0.321569
0.309804 0.352941 0.180392
0.168627 0.356863 0.164706
0.125490 0.352941 0.149020
0.098039 0.356863 0.145098
0.086275 0.364706 0.152941
0.098039 0.376471 0.168627
0.101961 0.364706 0.164706
0.125490 0.364706 0.172549
0.192157 0.400000 0.215686
0.200000 0.384314 0.203922
0.180392 0.345098 0.160784
0.266667 0.407843 0.227451
0.239216 0.349020 0.168627
0.290196 0.368627 0.192157
0.372549 0.415686 0.243137
0.349020 0.352941 0.184314
0.411765 0.376471 0.211765
0.447059 0.376471 0.219608
0.478431 0.392157 0.239216
0.556863 0.447059 0.298039
0.509804 0.376471 0.235294
0.584314 0.427451 0.290196
0.541176 0.360784 0.223529
0.576471 0.380392 0.243137
0.596078 0.380392 0.250980
0.596078 0.364706 0.235294
0.666667 0.423529 0.294118
0.658824 0.400000 0.274510
0.682353 0.407843 0.282353
0.749020 0.458824 0.341176
0.729412 0.427451 0.313725
0.733333 0.427451 0.309804
0.741176 0.423529 0.305882
0.768627 0.447059 0.325490
0.737255 0.415686 0.286275
0.713725 0.427451 0.290196
0.666667 0.454902 0.309804
0.549020 0.431373 0.286275
0.274510 0.286275 0.137255
0.172549 0.290196 0.133333
0.117647 0.321569 0.156863
0.086275 0.345098 0.164706
0.082353 0.352941 0.160784
0.086275 0.356863 0.160784
0.094118 0.360784 0.160784
0.749020 0.439216 0.278431
0.717647 0.407843 0.250980
0.772549 0.454902 0.313725
0.733333 0.458824 0.321569
0.639216 0.458824 0.313725
0.486275 0.423529 0.262745
0.235294 0.309804 0.129412
0.125490 0.294118 0.105882
0.105882 0.333333 0.141176
0.098039 0.352941 0.160784
0.105882 0.360784 0.172549
0.105882 0.360784 0.168627
0.125490 0.368627 0.168627
0.156863 0.392157 0.184314
0.180392 0.400000 0.184314
0.203922 0.388235 0.176471
0.250980 0.372549 0.172549
0.305882 0.388235 0.192157
0.368627 0.431373 0.239216
0.388235 0.427451 0.243137
0.368627 0.376471 0.196078
0.450980 0.427451 0.254902
0.458824 0.407843 0.239216
0.509804 0.435294 0.266667
0.537255 0.435294 0.266667
0.580392 0.454902 0.290196
0.584314 0.443137 0.274510
0.650980 0.486275 0.317647
0.615686 0.427451 0.262745
0.650980 0.447059 0.282353
0.639216 0.423529 0.262745
0.686275 0.454902 0.290196
0.705882 0.458824 0.290196
0.725490 0.466667 0.294118
0.745098 0.482353 0.309804
0.768627 0.486275 0.321569
0.764706 0.462745 0.298039
0.772549 0.466667 0.301961
0.760784 0.470588 0.294118
0.741176 0.462745 0.286275
0.752941 0.482353 0.313725
0.772549 0.549020 0.376471
0.666667 0.533333 0.349020
0.435294 0.427451 0.227451
0.200000 0.360784 0.133333
0.141176 0.419608 0.180392
0.105882 0.450980 0.211765
0.101961 0.470588 0.223529
0.125490 0.474510 0.219608
0.172549 0.498039 0.243137
0.160784 0.462745 0.211765
0.176471 0.450980 0.203922
0.231373 0.466667 0.223529
0.270588 0.474510 0.239216
0.305882 0.482353 0.250980
0.309804 0.458824 0.227451
0.396078 0.513725 0.286275
0.356863 0.443137 0.215686
0.447059 0.505882 0.282353
0.501961 0.525490 0.309804
0.482353 0.470588 0.258824
0.541176 0.498039 0.290196
0.603922 0.533333 0.333333
0.635294 0.529412 0.333333
0.631373 0.482353 0.290196
0.674510 0.501961 0.309804
0.705882 0.529412 0.337255
0.709804 0.521569 0.333333
0.717647 0.517647 0.329412
0.713725 0.501961 0.313725
0.721569 0.494118 0.305882
0.784314 0.541176 0.356863
0.772549 0.513725 0.337255
0.772549 0.509804 0.329412
0.800000 0.537255 0.356863
0.792157 0.533333 0.345098
0.788235 0.537255 0.345098
0.760784 0.517647 0.317647
0.803922 0.572549 0.368627
0.701961 0.603922 0.384314
0.364706 0.517647 0.278431
0.176471 0.474510 0.219608
0.125490 0.466667 0.196078
0.137255 0.509804 0.235294
0.141176 0.533333 0.254902
0.113725 0.505882 0.231373
0.105882 0.478431 0.215686
0.168627 0.513725 0.262745
0.203922 0.521569 0.274510
0.211765 0.501961 0.258824
0.239216 0.505882 0.262745
0.227451 0.466667 0.223529
0.333333 0.537255 0.298039
0.349020 0.525490 0.290196
0.356863 0.501961 0.266667
0.403922 0.505882 0.270588
0.443137 0.494118 0.254902
0.478431 0.494118 0.254902
0.478431 0.482353 0.247059
0.545098 0.525490 0.298039
0.572549 0.521569 0.305882
0.549020 0.470588 0.262745
0.623529 0.525490 0.321569
0.615686 0.494118 0.298039
0.694118 0.552941 0.360784
0.733333 0.576471 0.388235
0.682353 0.509804 0.325490
0.721569 0.529412 0.352941
0.733333 0.521569 0.349020
0.725490 0.501961 0.333333
0.788235 0.556863 0.388235
0.709804 0.474510 0.305882
0.760784 0.521569 0.345098
0.772549 0.533333 0.352941
0.760784 0.521569 0.333333
0.752941 0.549020 0.352941
0.709804 0.580392 0.376471
0.568627 0.541176 0.329412
0.290196 0.392157 0.176471
0.188235 0.396078 0.176471
0.152941 0.450980 0.219608
0.125490 0.470588 0.227451
0.121569 0.482353 0.227451
0.121569 0.490196 0.223529
0.129412 0.490196 0.223529
0.745098 0.474510 0.282353
0.768627 0.494118 0.313725
0.760784 0.478431 0.309804
0.741176 0.505882 0.337255
0.749020 0.607843 0.431373
0.545098 0.521569 0.329412
0.250980 0.368627 0.156863
0.235294 0.450980 0.227451
0.160784 0.431373 0.203922
0.156863 0.454902 0.227451
0.152941 0.458824 0.231373
0.156863 0.462745 0.231373
0.196078 0.490196 0.254902
0.223529 0.509804 0.262745
0.247059 0.521569 0.270588
0.298039 0.529412 0.278431
0.325490 0.494118 0.250980
0.372549 0.494118 0.258824
0.396078 0.501961 0.266667
0.403922 0.478431 0.250980
0.462745 0.505882 0.286275
0.454902 0.466667 0.254902
0.545098 0.529412 0.321569
0.549020 0.501961 0.298039
0.564706 0.498039 0.294118
0.588235 0.498039 0.294118
0.678431 0.572549 0.368627
0.670588 0.541176 0.337255
0.690196 0.537255 0.337255
0.721569 0.552941 0.356863
0.709804 0.529412 0.333333
0.741176 0.549020 0.352941
0.752941 0.556863 0.352941
0.768627 0.564706 0.360784
0.788235 0.580392 0.376471
0.752941 0.529412 0.325490
0.819608 0.572549 0.372549
0.811765 0.564706 0.360784
0.847059 0.611765 0.400000
0.847059 0.623529 0.411765
0.843137 0.631373 0.419608
0.776471 0.611765 0.396078
0.721569 0.643137 0.419608
0.505882 0.556863 0.313725
0.231373 0.450980 0.184314
0.207843 0.545098 0.262745
0.168627 0.572549 0.290196
0.141176 0.560784 0.274510
0.164706 0.556863 0.266667
0.200000 0.564706 0.274510
0.188235 0.529412 0.243137
0.247059 0.560784 0.274510
0.290196 0.568627 0.290196
0.301961 0.545098 0.270588
0.360784 0.576471 0.305882
0.372549 0.556863 0.286275
0.403922 0.560784 0.290196
0.509804 0.635294 0.368627
0.454902 0.545098 0.286275
0.450980 0.505882 0.250980
0.549020 0.572549 0.321569
0.572549 0.560784 0.313725
0.596078 0.556863 0.317647
0.662745 0.592157 0.360784
0.717647 0.615686 0.384314
0.701961 0.584314 0.352941
0.725490 0.603922 0.376471
0.741176 0.611765 0.384314
0.737255 0.596078 0.368627
0.768627 0.615686 0.388235
0.800000 0.627451 0.403922
0.811765 0.623529 0.403922
0.811765 0.611765 0.396078
0.854902 0.647059 0.431373
0.823529 0.619608 0.396078
0.823529 0.623529 0.396078
0.827451 0.635294 0.400000
0.811765 0.631373 0.392157
0.800000 0.631373 0.388235
0.752941 0.709804 0.454902
0.407843 0.607843 0.329412
0.196078 0.541176 0.243137
0.149020 0.533333 0.227451
0.168627 0.584314 0.270588
0.152941 0.588235 0.274510
0.145098 0.580392 0.266667
0.156863 0.568627 0.266667
0.188235 0.576471 0.282353
0.215686 0.576471 0.286275
0.239216 0.576471 0.290196
0.262745 0.572549 0.286275
0.321569 0.600000 0.317647
0.376471 0.623529 0.341176
0.372549 0.588235 0.309804
0.450980 0.635294 0.360784
0.443137 0.584314 0.305882
0.498039 0.576471 0.294118
0.505882 0.549020 0.262745
0.521569 0.549020 0.266667
0.584314 0.588235 0.313725
0.584314 0.564706 0.301961
0.623529 0.576471 0.317647
0.627451 0.560784 0.313725
0.682353 0.592157 0.349020
0.741176 0.631373 0.396078
0.713725 0.588235 0.356863
0.725490 0.584314 0.356863
0.745098 0.588235 0.368627
0.764706 0.592157 0.376471
0.788235 0.603922 0.392157
0.796078 0.600000 0.392157
0.792157 0.596078 0.388235
0.835294 0.639216 0.427451
0.792157 0.596078 0.380392
0.811765 0.619608 0.392157
0.803922 0.650980 0.415686
0.749020 0.670588 0.427451
0.592157 0.615686 0.364706
0.360784 0.513725 0.258824
0.247059 0.505882 0.247059
0.168627 0.517647 0.247059
0.149020 0.552941 0.266667
0.152941 0.568627 0.270588
0.149020 0.568627 0.262745
0.137255 0.549020 0.243137
0.815686 0.545098 0.352941
0.803922 0.533333 0.349020
0.831373 0.552941 0.380392
0.815686 0.580392 0.407843
0.749020 0.611765 0.427451
0.603922 0.584314 0.384314
0.384314 0.509804 0.286275
0.258824 0.482353 0.247059
0.231373 0.509804 0.274510
0.211765 0.521569 0.286275
0.227451 0.537255 0.305882
0.254902 0.560784 0.321569
0.270588 0.576471 0.329412
0.298039 0.596078 0.341176
0.325490 0.607843 0.349020
0.364706 0.603922 0.341176
0.439216 0.611765 0.345098
0.454902 0.580392 0.317647
0.474510 0.580392 0.325490
0.509804 0.588235 0.337255
0.568627 0.615686 0.368627
0.600000 0.615686 0.376471
0.611765 0.600000 0.368627
0.678431 0.635294 0.407843
0.698039 0.631373 0.403922
0.737255 0.650980 0.423529
0.733333 0.623529 0.396078
0.749020 0.623529 0.396078
0.737255 0.588235 0.368627
0.803922 0.635294 0.419608
0.796078 0.619608 0.400000
0.803922 0.619608 0.403922
0.823529 0.647059 0.427451
0.839216 0.662745 0.447059
0.823529 0.639216 0.423529
0.854902 0.654902 0.439216
0.843137 0.619608 0.407843
0.870588 0.639216 0.427451
0.839216 0.623529 0.400000
0.839216 0.635294 0.411765
0.858824 0.666667 0.443137
0.815686 0.674510 0.443137
0.745098 0.686275 0.450980
0.564706 0.631373 0.376471
0.317647 0.552941 0.274510
0.223529 0.576471 0.286275
0.168627 0.584314 0.290196
0.188235 0.615686 0.317647
0.219608 0.603922 0.294118
0.227451 0.580392 0.266667
0.349020 0.678431 0.368627
0.360784 0.658824 0.356863
0.356863 0.623529 0.325490
0.403922 0.639216 0.345098
0.419608 0.623529 0.329412
0.509804 0.686275 0.392157
0.509804 0.654902 0.364706
0.521569 0.635294 0.349020
0.588235 0.666667 0.384314
0.619608 0.662745 0.384314
0.658824 0.666667 0.392157
0.709804 0.686275 0.415686
0.721569 0.666667 0.403922
0.760784 0.690196 0.431373
0.768627 0.682353 0.439216
0.764706 0.674510 0.431373
0.745098 0.647059 0.407843
0.745098 0.639216 0.400000
0.803922 0.686275 0.447059
0.835294 0.705882 0.466667
0.819608 0.666667 0.431373
0.835294 0.670588 0.439216
0.858824 0.678431 0.450980
0.839216 0.650980 0.423529
0.858824 0.674510 0.439216
0.827451 0.647059 0.411765
0.854902 0.682353 0.439216
0.819608 0.658824 0.407843
0.866667 0.717647 0.462745
0.752941 0.717647 0.450980
0.505882 0.686275 0.392157
0.313725 0.627451 0.313725
0.239216 0.592157 0.270588
0.203922 0.592157 0.262745
0.192157 0.603922 0.270588
0.227451 0.639216 0.309804
0.262745 0.654902 0.333333
0.286275 0.654902 0.341176
0.321569 0.662745 0.352941
0.352941 0.670588 0.360784
0.376471 0.666667 0.360784
0.415686 0.682353 0.376471
0.443137 0.674510 0.372549
0.478431 0.678431 0.376471
0.478431 0.647059 0.352941
0.537255 0.658824 0.360784
0.615686 0.662745 0.360784
0.619608 0.627451 0.325490
0.678431 0.670588 0.372549
0.662745 0.635294 0.345098
0.729412 0.678431 0.396078
0.701961 0.627451 0.352941
0.729412 0.639216 0.368627
0.752941 0.643137 0.380392
0.776471 0.654902 0.392157
0.776471 0.639216 0.380392
0.800000 0.654902 0.400000
0.843137 0.686275 0.435294
0.858824 0.690196 0.443137
0.854902 0.678431 0.431373
0.843137 0.662745 0.419608
0.843137 0.658824 0.419608
0.847059 0.658824 0.431373
0.815686 0.627451 0.400000
0.847059 0.666667 0.431373
0.796078 0.654902 0.407843
0.776471 0.705882 0.450980
0.635294 0.666667 0.403922
0.447059 0.611765 0.345098
0.317647 0.592157 0.317647
0.239216 0.600000 0.313725
0.192157 0.603922 0.305882
0.180392 0.603922 0.294118
0.188235 0.619608 0.298039
0.215686 0.635294 0.313725
0.815686 0.521569 0.360784
0.831373 0.533333 0.376471
0.803922 0.498039 0.352941
0.800000 0.537255 0.392157
0.792157 0.627451 0.470588
0.600000 0.556863 0.380392
0.364706 0.458824 0.258824
0.309804 0.501961 0.290196
0.223529 0.474510 0.262745
