fuji_bw.cube
#Generated by lutCreator.js
#Coded by SirSerch
#https://github.com/SirSerch/LutCreatorJs
TITLE lutCreatorJs_25
LUT_3D_SIZE 25
0.000000 0.000000 0.000000
0.000000 0.000000 0.000000
0.000000 0.000000 0.000000
0.000000 0.000000 0.000000
0.003922 0.003922 0.003922
0.007843 0.007843 0.007843
0.011765 0.011765 0.011765
0.015686 0.015686 0.015686
0.019608 0.019608 0.019608
0.039216 0.039216 0.039216
0.054902 0.054902 0.054902
0.058824 0.058824 0.058824
0.066667 0.066667 0.066667
0.062745 0.062745 0.062745
0.094118 0.094118 0.094118
0.164706 0.164706 0.164706
0.121569 0.121569 0.121569
0.160784 0.160784 0.160784
0.156863 0.156863 0.156863
0.196078 0.196078 0.196078
0.211765 0.211765 0.211765
0.231373 0.231373 0.231373
0.270588 0.270588 0.270588
0.262745 0.262745 0.262745
0.384314 0.384314 0.384314
0.000000 0.000000 0.000000
0.000000 0.000000 0.000000
0.003922 0.003922 0.003922
0.003922 0.003922 0.003922
0.011765 0.011765 0.011765
0.011765 0.011765 0.011765
0.023529 0.023529 0.023529
0.011765 0.011765 0.011765
0.019608 0.019608 0.019608
0.043137 0.043137 0.043137
0.035294 0.035294 0.035294
0.074510 0.074510 0.074510
0.054902 0.054902 0.054902
0.109804 0.109804 0.109804
0.121569 0.121569 0.121569
0.105882 0.105882 0.105882
0.137255 0.137255 0.137255
0.145098 0.145098 0.145098
0.156863 0.156863 0.156863
0.219608 0.219608 0.219608
0.219608 0.219608 0.219608
0.250980 0.250980 0.250980
0.258824 0.258824 0.258824
0.282353 0.282353 0.282353
0.372549 0.372549 0.372549
0.007843 0.007843 0.007843
0.003922 0.003922 0.003922
0.003922 0.003922 0.003922
0.000000 0.000000 0.000000
0.003922 0.003922 0.003922
0.015686 0.015686 0.015686
0.027451 0.027451 0.027451
0.015686 0.015686 0.015686
0.035294 0.035294 0.035294
0.023529 0.023529 0.023529
0.078431 0.078431 0.078431
0.039216 0.039216 0.039216
0.078431 0.078431 0.078431
0.109804 0.109804 0.109804
0.113725 0.113725 0.113725
0.137255 0.137255 0.137255
0.152941 0.152941 0.152941
0.160784 0.160784 0.160784
0.180392 0.180392 0.180392
0.176471 0.176471 0.176471
0.215686 0.215686 0.215686
0.258824 0.258824 0.258824
0.298039 0.298039 0.298039
0.298039 0.298039 0.298039
0.372549 0.372549 0.372549
0.015686 0.015686 0.015686
0.007843 0.007843 0.007843
0.007843 0.007843 0.007843
0.003922 0.003922 0.003922
0.027451 0.027451 0.027451
0.019608 0.019608 0.019608
0.035294 0.035294 0.035294
0.031373 0.031373 0.031373
0.031373 0.031373 0.031373
0.098039 0.098039 0.098039
0.062745 0.062745 0.062745
0.043137 0.043137 0.043137
0.105882 0.105882 0.105882
0.101961 0.101961 0.101961
0.137255 0.137255 0.137255
0.152941 0.152941 0.152941
0.164706 0.164706 0.164706
0.192157 0.192157 0.192157
0.160784 0.160784 0.160784
0.219608 0.219608 0.219608
0.215686 0.215686 0.215686
0.258824 0.258824 0.258824
0.282353 0.282353 0.282353
0.298039 0.298039 0.298039
0.384314 0.384314 0.384314
0.023529 0.023529 0.023529
0.019608 0.019608 0.019608
0.035294 0.035294 0.035294
0.027451 0.027451 0.027451
0.019608 0.019608 0.019608
0.035294 0.035294 0.035294
0.043137 0.043137 0.043137
0.047059 0.047059 0.047059
0.047059 0.047059 0.047059
0.066667 0.066667 0.066667
0.086275 0.086275 0.086275
0.094118 0.094118 0.094118
0.113725 0.113725 0.113725
0.133333 0.133333 0.133333
0.129412 0.129412 0.129412
0.145098 0.145098 0.145098
0.160784 0.160784 0.160784
0.196078 0.196078 0.196078
0.188235 0.188235 0.188235
0.215686 0.215686 0.215686
0.258824 0.258824 0.258824
0.258824 0.258824 0.258824
0.266667 0.266667 0.266667
0.321569 0.321569 0.321569
0.321569 0.321569 0.321569
0.047059 0.047059 0.047059
0.027451 0.027451 0.027451
0.027451 0.027451 0.027451
0.039216 0.039216 0.039216
0.058824 0.058824 0.058824
0.054902 0.054902 0.054902
0.054902 0.054902 0.054902
0.023529 0.023529 0.023529
0.074510 0.074510 0.074510
0.090196 0.090196 0.090196
0.101961 0.101961 0.101961
0.145098 0.145098 0.145098
0.149020 0.149020 0.149020
0.160784 0.160784 0.160784
0.145098 0.145098 0.145098
0.149020 0.149020 0.149020
0.172549 0.172549 0.172549
0.156863 0.156863 0.156863
0.219608 0.219608 0.219608
0.227451 0.227451 0.227451
0.243137 0.243137 0.243137
0.254902 0.254902 0.254902
0.298039 0.298039 0.298039
0.313725 0.313725 0.313725
0.407843 0.407843 0.407843
0.047059 0.047059 0.047059
0.035294 0.035294 0.035294
0.039216 0.039216 0.039216
0.062745 0.062745 0.062745
0.050980 0.050980 0.050980
0.074510 0.074510 0.074510
0.078431 0.078431 0.078431
0.078431 0.078431 0.078431
0.086275 0.086275 0.086275
0.105882 0.105882 0.105882
0.121569 0.121569 0.121569
0.137255 0.137255 0.137255
0.137255 0.137255 0.137255
0.133333 0.133333 0.133333
0.192157 0.192157 0.192157
0.156863 0.156863 0.156863
0.207843 0.207843 0.207843
0.203922 0.203922 0.203922
0.247059 0.247059 0.247059
0.223529 0.223529 0.223529
0.266667 0.266667 0.266667
0.243137 0.243137 0.243137
0.305882 0.305882 0.305882
0.376471 0.376471 0.376471
0.388235 0.388235 0.388235
0.050980 0.050980 0.050980
0.070588 0.070588 0.070588
0.082353 0.082353 0.082353
0.086275 0.086275 0.086275
0.043137 0.043137 0.043137
0.098039 0.098039 0.098039
0.070588 0.070588 0.070588
0.129412 0.129412 0.129412
0.070588 0.070588 0.070588
0.129412 0.129412 0.129412
0.129412 0.129412 0.129412
0.145098 0.145098 0.145098
0.180392 0.180392 0.180392
0.117647 0.117647 0.117647
0.196078 0.196078 0.196078
0.200000 0.200000 0.200000
0.215686 0.215686 0.215686
0.215686 0.215686 0.215686
0.239216 0.239216 0.239216
0.258824 0.258824 0.258824
0.286275 0.286275 0.286275
0.282353 0.282353 0.282353
0.329412 0.329412 0.329412
0.313725 0.313725 0.313725
0.431373 0.431373 0.431373
0.105882 0.105882 0.105882
0.098039 0.098039 0.098039
0.094118 0.094118 0.094118
0.137255 0.137255 0.137255
0.090196 0.090196 0.090196
0.098039 0.098039 0.098039
0.109804 0.109804 0.109804
0.109804 0.109804 0.109804
0.133333 0.133333 0.133333
0.113725 0.113725 0.113725
0.156863 0.156863 0.156863
0.188235 0.188235 0.188235
0.176471 0.176471 0.176471
0.196078 0.196078 0.196078
0.196078 0.196078 0.196078
0.188235 0.188235 0.188235
0.266667 0.266667 0.266667
0.258824 0.258824 0.258824
0.282353 0.282353 0.282353
0.290196 0.290196 0.290196
0.329412 0.329412 0.329412
0.286275 0.286275 0.286275
0.360784 0.360784 0.360784
0.407843 0.407843 0.407843
0.490196 0.490196 0.490196
0.086275 0.086275 0.086275
0.113725 0.113725 0.113725
0.113725 0.113725 0.113725
0.113725 0.113725 0.113725
0.129412 0.129412 0.129412
0.129412 0.129412 0.129412
0.117647 0.117647 0.117647
0.164706 0.164706 0.164706
0.121569 0.121569 0.121569
0.156863 0.156863 0.156863
0.192157 0.192157 0.192157
0.188235 0.188235 0.188235
0.215686 0.215686 0.215686
0.184314 0.184314 0.184314
0.250980 0.250980 0.250980
0.258824 0.258824 0.258824
0.270588 0.270588 0.270588
0.231373 0.231373 0.231373
0.309804 0.309804 0.309804
0.286275 0.286275 0.286275
0.317647 0.317647 0.317647
0.345098 0.345098 0.345098
0.376471 0.376471 0.376471
0.388235 0.388235 0.388235
0.419608 0.419608 0.419608
0.125490 0.125490 0.125490
0.133333 0.133333 0.133333
0.156863 0.156863 0.156863
0.137255 0.137255 0.137255
0.141176 0.141176 0.141176
0.156863 0.156863 0.156863
0.156863 0.156863 0.156863
0.188235 0.188235 0.188235
0.156863 0.156863 0.156863
0.172549 0.172549 0.172549
0.168627 0.168627 0.168627
0.184314 0.184314 0.184314
0.200000 0.200000 0.200000
0.211765 0.211765 0.211765
0.247059 0.247059 0.247059
0.282353 0.282353 0.282353
0.266667 0.266667 0.266667
0.325490 0.325490 0.325490
0.301961 0.301961 0.301961
0.325490 0.325490 0.325490
0.341176 0.341176 0.341176
0.403922 0.403922 0.403922
0.329412 0.329412 0.329412
0.431373 0.431373 0.431373
0.505882 0.505882 0.505882
0.141176 0.141176 0.141176
0.176471 0.176471 0.176471
0.188235 0.188235 0.188235
0.149020 0.149020 0.149020
0.152941 0.152941 0.152941
0.192157 0.192157 0.192157
0.176471 0.176471 0.176471
0.188235 0.188235 0.188235
0.192157 0.192157 0.192157
0.215686 0.215686 0.215686
0.211765 0.211765 0.211765
0.196078 0.196078 0.196078
0.239216 0.239216 0.239216
0.286275 0.286275 0.286275
0.270588 0.270588 0.270588
0.274510 0.274510 0.274510
0.309804 0.309804 0.309804
0.341176 0.341176 0.341176
0.313725 0.313725 0.313725
0.372549 0.372549 0.372549
0.396078 0.396078 0.396078
0.423529 0.423529 0.423529
0.447059 0.447059 0.447059
0.447059 0.447059 0.447059
0.513725 0.513725 0.513725
0.176471 0.176471 0.176471
0.203922 0.203922 0.203922
0.188235 0.188235 0.188235
0.215686 0.215686 0.215686
0.223529 0.223529 0.223529
0.211765 0.211765 0.211765
0.192157 0.192157 0.192157
0.215686 0.215686 0.215686
0.239216 0.239216 0.239216
0.211765 0.211765 0.211765
0.231373 0.231373 0.231373
0.227451 0.227451 0.227451
0.270588 0.270588 0.270588
0.309804 0.309804 0.309804
0.301961 0.301961 0.301961
0.258824 0.258824 0.258824
0.321569 0.321569 0.321569
0.392157 0.392157 0.392157
0.321569 0.321569 0.321569
0.396078 0.396078 0.396078
0.415686 0.415686 0.415686
0.435294 0.435294 0.435294
0.478431 0.478431 0.478431
0.521569 0.521569 0.521569
0.588235 0.588235 0.588235
0.207843 0.207843 0.207843
0.211765 0.211765 0.211765
0.274510 0.274510 0.274510
0.196078 0.196078 0.196078
0.258824 0.258824 0.258824
0.247059 0.247059 0.247059
0.270588 0.270588 0.270588
0.227451 0.227451 0.227451
0.258824 0.258824 0.258824
0.258824 0.258824 0.258824
0.254902 0.254902 0.254902
0.227451 0.227451 0.227451
0.286275 0.286275 0.286275
0.282353 0.282353 0.282353
0.282353 0.282353 0.282353
0.372549 0.372549 0.372549
0.341176 0.341176 0.341176
0.364706 0.364706 0.364706
0.396078 0.396078 0.396078
0.415686 0.415686 0.415686
0.439216 0.439216 0.439216
0.501961 0.501961 0.501961
0.470588 0.470588 0.470588
0.556863 0.556863 0.556863
0.580392 0.580392 0.580392
0.231373 0.231373 0.231373
0.247059 0.247059 0.247059
0.286275 0.286275 0.286275
0.262745 0.262745 0.262745
0.250980 0.250980 0.250980
0.286275 0.286275 0.286275
0.266667 0.266667 0.266667
0.278431 0.278431 0.278431
0.258824 0.258824 0.258824
0.298039 0.298039 0.298039
0.247059 0.247059 0.247059
0.313725 0.313725 0.313725
0.290196 0.290196 0.290196
0.309804 0.309804 0.309804
0.341176 0.341176 0.341176
0.380392 0.380392 0.380392
0.360784 0.360784 0.360784
0.388235 0.388235 0.388235
0.388235 0.388235 0.388235
0.501961 0.501961 0.501961
0.494118 0.494118 0.494118
0.505882 0.505882 0.505882
0.533333 0.533333 0.533333
0.560784 0.560784 0.560784
0.611765 0.611765 0.611765
0.309804 0.309804 0.309804
0.298039 0.298039 0.298039
0.305882 0.305882 0.305882
0.298039 0.298039 0.298039
0.317647 0.317647 0.317647
0.298039 0.298039 0.298039
0.321569 0.321569 0.321569
0.262745 0.262745 0.262745
0.333333 0.333333 0.333333
0.305882 0.305882 0.305882
0.329412 0.329412 0.329412
0.356863 0.356863 0.356863
0.321569 0.321569 0.321569
0.325490 0.325490 0.325490
0.352941 0.352941 0.352941
0.384314 0.384314 0.384314
0.407843 0.407843 0.407843
0.439216 0.439216 0.439216
0.431373 0.431373 0.431373
0.517647 0.517647 0.517647
0.498039 0.498039 0.498039
0.549020 0.549020 0.549020
0.607843 0.607843 0.607843
0.631373 0.631373 0.631373
0.678431 0.678431 0.678431
0.270588 0.270588 0.270588
0.337255 0.337255 0.337255
0.337255 0.337255 0.337255
0.352941 0.352941 0.352941
0.333333 0.333333 0.333333
0.341176 0.341176 0.341176
0.345098 0.345098 0.345098
0.376471 0.376471 0.376471
0.345098 0.345098 0.345098
0.360784 0.360784 0.360784
0.356863 0.356863 0.356863
0.400000 0.400000 0.400000
0.384314 0.384314 0.384314
0.360784 0.360784 0.360784
0.380392 0.380392 0.380392
0.415686 0.415686 0.415686
0.411765 0.411765 0.411765
0.439216 0.439216 0.439216
0.517647 0.517647 0.517647
0.513725 0.513725 0.513725
0.568627 0.568627 0.568627
0.584314 0.584314 0.584314
0.596078 0.596078 0.596078
0.654902 0.654902 0.654902
0.721569 0.721569 0.721569
0.290196 0.290196 0.290196
0.384314 0.384314 0.384314
0.423529 0.423529 0.423529
0.372549 0.372549 0.372549
0.380392 0.380392 0.380392
0.380392 0.380392 0.380392
0.380392 0.380392 0.380392
0.415686 0.415686 0.415686
0.396078 0.396078 0.396078
0.411765 0.411765 0.411765
0.439216 0.439216 0.439216
0.388235 0.388235 0.388235
0.462745 0.462745 0.462745
0.435294 0.435294 0.435294
0.443137 0.443137 0.443137
0.466667 0.466667 0.466667
0.490196 0.490196 0.490196
0.490196 0.490196 0.490196
0.525490 0.525490 0.525490
0.584314 0.584314 0.584314
0.564706 0.564706 0.564706
0.619608 0.619608 0.619608
0.635294 0.635294 0.635294
0.729412 0.729412 0.729412
0.772549 0.772549 0.772549
0.333333 0.333333 0.333333
0.439216 0.439216 0.439216
0.435294 0.435294 0.435294
0.470588 0.470588 0.470588
0.427451 0.427451 0.427451
0.478431 0.478431 0.478431
0.439216 0.439216 0.439216
0.458824 0.458824 0.458824
0.447059 0.447059 0.447059
0.466667 0.466667 0.466667
0.486275 0.486275 0.486275
0.521569 0.521569 0.521569
0.470588 0.470588 0.470588
0.482353 0.482353 0.482353
0.498039 0.498039 0.498039
0.541176 0.541176 0.541176
0.505882 0.505882 0.505882
0.568627 0.568627 0.568627
0.549020 0.549020 0.549020
0.615686 0.615686 0.615686
0.623529 0.623529 0.623529
0.643137 0.643137 0.643137
0.690196 0.690196 0.690196
0.760784 0.760784 0.760784
0.713725 0.713725 0.713725
0.419608 0.419608 0.419608
0.537255 0.537255 0.537255
0.501961 0.501961 0.501961
0.482353 0.482353 0.482353
0.529412 0.529412 0.529412
0.501961 0.501961 0.501961
0.533333 0.533333 0.533333
0.549020 0.549020 0.549020
0.513725 0.513725 0.513725
0.541176 0.541176 0.541176
0.541176 0.541176 0.541176
0.513725 0.513725 0.513725
0.552941 0.552941 0.552941
0.560784 0.560784 0.560784
0.580392 0.580392 0.580392
0.572549 0.572549 0.572549
0.635294 0.635294 0.635294
0.588235 0.588235 0.588235
0.654902 0.654902 0.654902
0.623529 0.623529 0.623529
0.666667 0.666667 0.666667
0.674510 0.674510 0.674510
0.729412 0.729412 0.729412
0.776471 0.776471 0.776471
0.760784 0.760784 0.760784
0.674510 0.674510 0.674510
0.701961 0.701961 0.701961
0.647059 0.647059 0.647059
0.678431 0.678431 0.678431
0.670588 0.670588 0.670588
0.705882 0.705882 0.705882
0.666667 0.666667 0.666667
0.686275 0.686275 0.686275
0.698039 0.698039 0.698039
0.725490 0.725490 0.725490
0.709804 0.709804 0.709804
0.682353 0.682353 0.682353
0.705882 0.705882 0.705882
0.733333 0.733333 0.733333
0.705882 0.705882 0.705882
0.733333 0.733333 0.733333
0.741176 0.741176 0.741176
0.749020 0.749020 0.749020
0.772549 0.772549 0.772549
0.788235 0.788235 0.788235
0.831373 0.831373 0.831373
0.823529 0.823529 0.823529
0.843137 0.843137 0.843137
0.839216 0.839216 0.839216
0.886275 0.886275 0.886275
0.713725 0.713725 0.713725
0.733333 0.733333 0.733333
0.713725 0.713725 0.713725
0.760784 0.760784 0.760784
0.749020 0.749020 0.749020
0.725490 0.725490 0.725490
0.752941 0.752941 0.752941
0.749020 0.749020 0.749020
0.752941 0.752941 0.752941
0.760784 0.760784 0.760784
0.749020 0.749020 0.749020
0.760784 0.760784 0.760784
0.756863 0.756863 0.756863
0.792157 0.792157 0.792157
0.792157 0.792157 0.792157
0.800000 0.800000 0.800000
0.776471 0.776471 0.776471
0.854902 0.854902 0.854902
0.823529 0.823529 0.823529
0.850980 0.850980 0.850980
0.835294 0.835294 0.835294
0.870588 0.870588 0.870588
0.870588 0.870588 0.870588
0.886275 0.886275 0.886275
0.945098 0.945098 0.945098
0.815686 0.815686 0.815686
0.803922 0.803922 0.803922
0.807843 0.807843 0.807843
0.823529 0.823529 0.823529
0.819608 0.819608 0.819608
0.827451 0.827451 0.827451
0.815686 0.815686 0.815686
0.796078 0.796078 0.796078
0.847059 0.847059 0.847059
0.827451 0.827451 0.827451
0.843137 0.843137 0.843137
0.811765 0.811765 0.811765
0.819608 0.819608 0.819608
0.819608 0.819608 0.819608
0.862745 0.862745 0.862745
0.850980 0.850980 0.850980
0.850980 0.850980 0.850980
0.866667 0.866667 0.866667
0.870588 0.870588 0.870588
0.878431 0.878431 0.878431
0.925490 0.925490 0.925490
0.921569 0.921569 0.921569
0.909804 0.909804 0.909804
0.933333 0.933333 0.933333
0.937255 0.937255 0.937255
0.854902 0.854902 0.854902
0.839216 0.839216 0.839216
0.874510 0.874510 0.874510
0.882353 0.882353 0.882353
0.870588 0.870588 0.870588
0.839216 0.839216 0.839216
0.850980 0.850980 0.850980
0.862745 0.862745 0.862745
0.886275 0.886275 0.886275
0.866667 0.866667 0.866667
0.882353 0.882353 0.882353
0.870588 0.870588 0.870588
0.901961 0.901961 0.901961
0.886275 0.886275 0.886275
0.894118 0.894118 0.894118
0.894118 0.894118 0.894118
0.886275 0.886275 0.886275
0.905882 0.905882 0.905882
0.933333 0.933333 0.933333
0.882353 0.882353 0.882353
0.917647 0.917647 0.917647
0.921569 0.921569 0.921569
0.941176 0.941176 0.941176
0.941176 0.941176 0.941176
0.980392 0.980392 0.980392
0.933333 0.933333 0.933333
0.890196 0.890196 0.890196
0.913725 0.913725 0.913725
0.905882 0.905882 0.905882
0.925490 0.925490 0.925490
0.894118 0.894118 0.894118
0.952941 0.952941 0.952941
0.901961 0.901961 0.901961
0.921569 0.921569 0.921569
0.898039 0.898039 0.898039
0.905882 0.905882 0.905882
0.925490 0.925490 0.925490
0.937255 0.937255 0.937255
0.905882 0.905882 0.905882
0.929412 0.929412 0.929412
0.878431 0.878431 0.878431
0.964706 0.964706 0.964706
0.917647 0.917647 0.917647
0.952941 0.952941 0.952941
0.913725 0.913725 0.913725
0.952941 0.952941 0.952941
0.913725 0.913725 0.913725
0.956863 0.956863 0.956863
0.952941 0.952941 0.952941
0.956863 0.956863 0.956863
0.003922 0.003922 0.003922
0.003922 0.003922 0.003922
0.000000 0.000000 0.000000
0.003922 0.003922 0.003922
0.007843 0.007843 0.007843
0.003922 0.003922 0.003922
0.011765 0.011765 0.011765
0.019608 0.019608 0.019608
0.015686 0.015686 0.015686
0.003922 0.003922 0.003922
0.011765 0.011765 0.011765
0.070588 0.070588 0.070588
0.054902 0.054902 0.054902
0.078431 0.078431 0.078431
0.101961 0.101961 0.101961
0.098039 0.098039 0.098039
0.149020 0.149020 0.149020
0.113725 0.113725 0.113725
0.145098 0.145098 0.145098
0.149020 0.149020 0.149020
0.180392 0.180392 0.180392
0.196078 0.196078 0.196078
0.200000 0.200000 0.200000
0.254902 0.254902 0.254902
0.227451 0.227451 0.227451
0.007843 0.007843 0.007843
0.003922 0.003922 0.003922
0.011765 0.011765 0.011765
0.007843 0.007843 0.007843
0.003922 0.003922 0.003922
0.007843 0.007843 0.007843
0.015686 0.015686 0.015686
0.015686 0.015686 0.015686
0.031373 0.031373 0.031373
0.023529 0.023529 0.023529
0.035294 0.035294 0.035294
0.031373 0.031373 0.031373
0.101961 0.101961 0.101961
0.070588 0.070588 0.070588
0.090196 0.090196 0.090196
0.094118 0.094118 0.094118
0.109804 0.109804 0.109804
0.129412 0.129412 0.129412
0.129412 0.129412 0.129412
0.160784 0.160784 0.160784
0.211765 0.211765 0.211765
0.168627 0.168627 0.168627
0.215686 0.215686 0.215686
0.211765 0.211765 0.211765
0.294118 0.294118 0.294118
0.007843 0.007843 0.007843
0.019608 0.019608 0.019608
0.015686 0.015686 0.015686
0.011765 0.011765 0.011765
0.011765 0.011765 0.011765
0.015686 0.015686 0.015686
0.027451 0.027451 0.027451
0.031373 0.031373 0.031373
0.027451 0.027451 0.027451
0.039216 0.039216 0.039216
0.039216 0.039216 0.039216
0.082353 0.082353 0.082353
0.082353 0.082353 0.082353
0.082353 0.082353 0.082353
0.129412 0.129412 0.129412
0.121569 0.121569 0.121569
0.101961 0.101961 0.101961
0.149020 0.149020 0.149020
0.164706 0.164706 0.164706
0.176471 0.176471 0.176471
0.168627 0.168627 0.168627
0.188235 0.188235 0.188235
0.196078 0.196078 0.196078
0.243137 0.243137 0.243137
0.258824 0.258824 0.258824
0.011765 0.011765 0.011765
0.019608 0.019608 0.019608
0.019608 0.019608 0.019608
0.007843 0.007843 0.007843
0.023529 0.023529 0.023529
0.019608 0.019608 0.019608
0.031373 0.031373 0.031373
0.023529 0.023529 0.023529
0.011765 0.011765 0.011765
0.047059 0.047059 0.047059
0.066667 0.066667 0.066667
0.050980 0.050980 0.050980
0.070588 0.070588 0.070588
0.050980 0.050980 0.050980
0.098039 0.098039 0.098039
0.113725 0.113725 0.113725
0.098039 0.098039 0.098039
0.094118 0.094118 0.094118
0.172549 0.172549 0.172549
0.164706 0.164706 0.164706
0.176471 0.176471 0.176471
0.164706 0.164706 0.164706
0.243137 0.243137 0.243137
0.215686 0.215686 0.215686
0.243137 0.243137 0.243137
0.035294 0.035294 0.035294
0.031373 0.031373 0.031373
0.031373 0.031373 0.031373
0.019608 0.019608 0.019608
0.039216 0.039216 0.039216
0.023529 0.023529 0.023529
0.019608 0.019608 0.019608
0.039216 0.039216 0.039216
0.047059 0.047059 0.047059
0.062745 0.062745 0.062745
0.082353 0.082353 0.082353
0.054902 0.054902 0.054902
0.098039 0.098039 0.098039
0.098039 0.098039 0.098039
0.117647 0.117647 0.117647
0.141176 0.141176 0.141176
0.117647 0.117647 0.117647
0.160784 0.160784 0.160784
0.168627 0.168627 0.168627
0.152941 0.152941 0.152941
0.196078 0.196078 0.196078
0.211765 0.211765 0.211765
0.219608 0.219608 0.219608
0.239216 0.239216 0.239216
0.250980 0.250980 0.250980
0.050980 0.050980 0.050980
0.039216 0.039216 0.039216
0.043137 0.043137 0.043137
0.066667 0.066667 0.066667
0.047059 0.047059 0.047059
0.058824 0.058824 0.058824
0.082353 0.082353 0.082353
0.078431 0.078431 0.078431
0.101961 0.101961 0.101961
0.145098 0.145098 0.145098
0.101961 0.101961 0.101961
0.109804 0.109804 0.109804
0.133333 0.133333 0.133333
0.164706 0.164706 0.164706
0.168627 0.168627 0.168627
0.141176 0.141176 0.141176
0.168627 0.168627 0.168627
0.200000 0.200000 0.200000
0.215686 0.215686 0.215686
0.223529 0.223529 0.223529
0.235294 0.235294 0.235294
0.250980 0.250980 0.250980
0.321569 0.321569 0.321569
0.313725 0.313725 0.313725
0.380392 0.380392 0.380392
0.074510 0.074510 0.074510
0.058824 0.058824 0.058824
0.043137 0.043137 0.043137
0.109804 0.109804 0.109804
0.070588 0.070588 0.070588
0.047059 0.047059 0.047059
0.086275 0.086275 0.086275
0.129412 0.129412 0.129412
0.101961 0.101961 0.101961
0.113725 0.113725 0.113725
0.117647 0.117647 0.117647
0.129412 0.129412 0.129412
0.152941 0.152941 0.152941
0.109804 0.109804 0.109804
0.188235 0.188235 0.188235
0.211765 0.211765 0.211765
0.207843 0.207843 0.207843
0.188235 0.188235 0.188235
0.231373 0.231373 0.231373
0.215686 0.215686 0.215686
0.227451 0.227451 0.227451
0.294118 0.294118 0.294118
0.298039 0.298039 0.298039
0.321569 0.321569 0.321569
0.392157 0.392157 0.392157
0.074510 0.074510 0.074510
0.086275 0.086275 0.086275
0.070588 0.070588 0.070588
0.094118 0.094118 0.094118
0.101961 0.101961 0.101961
0.058824 0.058824 0.058824
0.101961 0.101961 0.101961
0.090196 0.090196 0.090196
0.113725 0.113725 0.113725
0.094118 0.094118 0.094118
0.133333 0.133333 0.133333
0.121569 0.121569 0.121569
0.145098 0.145098 0.145098
0.184314 0.184314 0.184314
0.176471 0.176471 0.176471
0.188235 0.188235 0.188235
0.203922 0.203922 0.203922
0.235294 0.235294 0.235294
0.239216 0.239216 0.239216
0.266667 0.266667 0.266667
0.290196 0.290196 0.290196
0.298039 0.298039 0.298039
0.360784 0.360784 0.360784
0.352941 0.352941 0.352941
0.478431 0.478431 0.478431
0.094118 0.094118 0.094118
0.117647 0.117647 0.117647
0.082353 0.082353 0.082353
0.137255 0.137255 0.137255
0.117647 0.117647 0.117647
0.117647 0.117647 0.117647
0.109804 0.109804 0.109804
0.156863 0.156863 0.156863
0.105882 0.105882 0.105882
0.141176 0.141176 0.141176
0.133333 0.133333 0.133333
0.149020 0.149020 0.149020
0.184314 0.184314 0.184314
0.184314 0.184314 0.184314
0.207843 0.207843 0.207843
0.231373 0.231373 0.231373
0.247059 0.247059 0.247059
0.243137 0.243137 0.243137
0.227451 0.227451 0.227451
0.321569 0.321569 0.321569
0.325490 0.325490 0.325490
0.317647 0.317647 0.317647
0.360784 0.360784 0.360784
0.345098 0.345098 0.345098
0.509804 0.509804 0.509804
0.125490 0.125490 0.125490
0.141176 0.141176 0.141176
0.117647 0.117647 0.117647
0.149020 0.149020 0.149020
0.117647 0.117647 0.117647
0.137255 0.137255 0.137255
0.180392 0.180392 0.180392
0.149020 0.149020 0.149020
0.145098 0.145098 0.145098
0.176471 0.176471 0.176471
0.149020 0.149020 0.149020
0.156863 0.156863 0.156863
0.188235 0.188235 0.188235
0.219608 0.219608 0.219608
0.196078 0.196078 0.196078
0.200000 0.200000 0.200000
0.274510 0.274510 0.274510
0.247059 0.247059 0.247059
0.313725 0.313725 0.313725
0.298039 0.298039 0.298039
0.298039 0.298039 0.298039
0.356863 0.356863 0.356863
0.364706 0.364706 0.364706
0.376471 0.376471 0.376471
0.396078 0.396078 0.396078
0.180392 0.180392 0.180392
0.129412 0.129412 0.129412
0.168627 0.168627 0.168627
0.172549 0.172549 0.172549
0.156863 0.156863 0.156863
0.200000 0.200000 0.200000
0.137255 0.137255 0.137255
0.121569 0.121569 0.121569
0.137255 0.137255 0.137255
