fuji_bw.cube
#Generated by lutCreator.js
#Coded by SirSerch
#https://github.com/SirSerch/LutCreatorJs
TITLE lutCreatorJs_25
LUT_3D_SIZE 9
0.000000 0.000000 0.000000
0.000000 0.000000 0.000000
0.011765 0.011765 0.011765
0.039216 0.039216 0.039216
0.066667 0.066667 0.066667
0.164706 0.164706 0.164706
0.156863 0.156863 0.156863
0.231373 0.231373 0.231373
0.384314 0.384314 0.384314
0.015686 0.015686 0.015686
0.003922 0.003922 0.003922
0.035294 0.035294 0.035294
0.098039 0.098039 0.098039
0.105882 0.105882 0.105882
0.152941 0.152941 0.152941
0.160784 0.160784 0.160784
0.258824 0.258824 0.258824
0.384314 0.384314 0.384314
0.047059 0.047059 0.047059
0.062745 0.062745 0.062745
0.078431 0.078431 0.078431
0.105882 0.105882 0.105882
0.137255 0.137255 0.137255
0.156863 0.156863 0.156863
0.247059 0.247059 0.247059
0.243137 0.243137 0.243137
0.388235 0.388235 0.388235
0.086275 0.086275 0.086275
0.113725 0.113725 0.113725
0.117647 0.117647 0.117647
0.156863 0.156863 0.156863
0.215686 0.215686 0.215686
0.258824 0.258824 0.258824
0.309804 0.309804 0.309804
0.345098 0.345098 0.345098
0.419608 0.419608 0.419608
0.176471 0.176471 0.176471
0.215686 0.215686 0.215686
0.192157 0.192157 0.192157
0.211765 0.211765 0.211765
0.270588 0.270588 0.270588
0.258824 0.258824 0.258824
0.321569 0.321569 0.321569
0.435294 0.435294 0.435294
0.588235 0.588235 0.588235
0.309804 0.309804 0.309804
0.298039 0.298039 0.298039
0.321569 0.321569 0.321569
0.305882 0.305882 0.305882
0.321569 0.321569 0.321569
0.384314 0.384314 0.384314
0.431373 0.431373 0.431373
0.549020 0.549020 0.549020
0.678431 0.678431 0.678431
0.333333 0.333333 0.333333
0.470588 0.470588 0.470588
0.439216 0.439216 0.439216
0.466667 0.466667 0.466667
0.470588 0.470588 0.470588
0.541176 0.541176 0.541176
0.549020 0.549020 0.549020
0.643137 0.643137 0.643137
0.713725 0.713725 0.713725
0.713725 0.713725 0.713725
0.760784 0.760784 0.760784
0.752941 0.752941 0.752941
0.760784 0.760784 0.760784
0.756863 0.756863 0.756863
0.800000 0.800000 0.800000
0.823529 0.823529 0.823529
0.870588 0.870588 0.870588
0.945098 0.945098 0.945098
0.933333 0.933333 0.933333
0.905882 0.905882 0.905882
0.952941 0.952941 0.952941
0.898039 0.898039 0.898039
0.937255 0.937255 0.937255
0.878431 0.878431 0.878431
0.952941 0.952941 0.952941
0.913725 0.913725 0.913725
0.956863 0.956863 0.956863
0.007843 0.007843 0.007843
0.007843 0.007843 0.007843
0.019608 0.019608 0.019608
0.054902 0.054902 0.054902
0.062745 0.062745 0.062745
0.145098 0.145098 0.145098
0.172549 0.172549 0.172549
0.180392 0.180392 0.180392
0.274510 0.274510 0.274510
0.027451 0.027451 0.027451
0.027451 0.027451 0.027451
0.027451 0.027451 0.027451
0.035294 0.035294 0.035294
0.101961 0.101961 0.101961
0.149020 0.149020 0.149020
0.168627 0.168627 0.168627
0.180392 0.180392 0.180392
0.278431 0.278431 0.278431
0.074510 0.074510 0.074510
0.058824 0.058824 0.058824
0.117647 0.117647 0.117647
0.141176 0.141176 0.141176
0.149020 0.149020 0.149020
0.164706 0.164706 0.164706
0.247059 0.247059 0.247059
0.294118 0.294118 0.294118
0.443137 0.443137 0.443137
0.105882 0.105882 0.105882
0.129412 0.129412 0.129412
0.152941 0.152941 0.152941
0.200000 0.200000 0.200000
0.231373 0.231373 0.231373
0.231373 0.231373 0.231373
0.290196 0.290196 0.290196
0.305882 0.305882 0.305882
0.435294 0.435294 0.435294
0.160784 0.160784 0.160784
0.200000 0.200000 0.200000
0.247059 0.247059 0.247059
0.207843 0.207843 0.207843
0.286275 0.286275 0.286275
0.349020 0.349020 0.349020
0.415686 0.415686 0.415686
0.474510 0.474510 0.474510
0.619608 0.619608 0.619608
0.345098 0.345098 0.345098
0.364706 0.364706 0.364706
0.352941 0.352941 0.352941
0.321569 0.321569 0.321569
0.349020 0.349020 0.349020
0.356863 0.356863 0.356863
0.439216 0.439216 0.439216
0.560784 0.560784 0.560784
0.662745 0.662745 0.662745
0.356863 0.356863 0.356863
0.470588 0.470588 0.470588
0.435294 0.435294 0.435294
0.478431 0.478431 0.478431
0.501961 0.501961 0.501961
0.521569 0.521569 0.521569
0.580392 0.580392 0.580392
0.674510 0.674510 0.674510
0.721569 0.721569 0.721569
0.749020 0.749020 0.749020
0.764706 0.764706 0.764706
0.749020 0.749020 0.749020
0.784314 0.784314 0.784314
0.811765 0.811765 0.811765
0.819608 0.819608 0.819608
0.839216 0.839216 0.839216
0.913725 0.913725 0.913725
0.952941 0.952941 0.952941
0.968627 0.968627 0.968627
0.968627 0.968627 0.968627
0.980392 0.980392 0.980392
0.921569 0.921569 0.921569
0.956863 0.956863 0.956863
0.952941 0.952941 0.952941
0.972549 0.972549 0.972549
0.972549 0.972549 0.972549
0.960784 0.960784 0.960784
0.011765 0.011765 0.011765
0.011765 0.011765 0.011765
0.105882 0.105882 0.105882
0.070588 0.070588 0.070588
0.101961 0.101961 0.101961
0.152941 0.152941 0.152941
0.180392 0.180392 0.180392
0.258824 0.258824 0.258824
0.317647 0.317647 0.317647
0.023529 0.023529 0.023529
0.066667 0.066667 0.066667
0.066667 0.066667 0.066667
0.117647 0.117647 0.117647
0.109804 0.109804 0.109804
0.176471 0.176471 0.176471
0.184314 0.184314 0.184314
0.250980 0.250980 0.250980
0.349020 0.349020 0.349020
0.098039 0.098039 0.098039
0.109804 0.109804 0.109804
0.133333 0.133333 0.133333
0.164706 0.164706 0.164706
0.196078 0.196078 0.196078
0.207843 0.207843 0.207843
0.274510 0.274510 0.274510
0.345098 0.345098 0.345098
0.462745 0.462745 0.462745
0.152941 0.152941 0.152941
0.184314 0.184314 0.184314
0.200000 0.200000 0.200000
0.211765 0.211765 0.211765
0.266667 0.266667 0.266667
0.286275 0.286275 0.286275
0.317647 0.317647 0.317647
0.356863 0.356863 0.356863
0.478431 0.478431 0.478431
0.215686 0.215686 0.215686
0.278431 0.278431 0.278431
0.305882 0.305882 0.305882
0.262745 0.262745 0.262745
0.313725 0.313725 0.313725
0.384314 0.384314 0.384314
0.431373 0.431373 0.431373
0.494118 0.494118 0.494118
0.639216 0.639216 0.639216
0.341176 0.341176 0.341176
0.380392 0.380392 0.380392
0.380392 0.380392 0.380392
0.388235 0.388235 0.388235
0.419608 0.419608 0.419608
0.419608 0.419608 0.419608
0.529412 0.529412 0.529412
0.603922 0.603922 0.603922
0.713725 0.713725 0.713725
0.411765 0.411765 0.411765
0.521569 0.521569 0.521569
0.509804 0.509804 0.509804
0.517647 0.517647 0.517647
0.545098 0.545098 0.545098
0.560784 0.560784 0.560784
0.603922 0.603922 0.603922
0.666667 0.666667 0.666667
0.772549 0.772549 0.772549
0.780392 0.780392 0.780392
0.792157 0.792157 0.792157
0.796078 0.796078 0.796078
0.792157 0.792157 0.792157
0.768627 0.768627 0.768627
0.819608 0.819608 0.819608
0.843137 0.843137 0.843137
0.882353 0.882353 0.882353
0.949020 0.949020 0.949020
0.952941 0.952941 0.952941
0.929412 0.929412 0.929412
0.917647 0.917647 0.917647
0.941176 0.941176 0.941176
0.913725 0.913725 0.913725
0.945098 0.945098 0.945098
0.921569 0.921569 0.921569
0.952941 0.952941 0.952941
0.972549 0.972549 0.972549
0.054902 0.054902 0.054902
0.070588 0.070588 0.070588
0.082353 0.082353 0.082353
0.109804 0.109804 0.109804
0.168627 0.168627 0.168627
0.156863 0.156863 0.156863
0.223529 0.223529 0.223529
0.270588 0.270588 0.270588
0.400000 0.400000 0.400000
0.043137 0.043137 0.043137
0.070588 0.070588 0.070588
0.082353 0.082353 0.082353
0.113725 0.113725 0.113725
0.156863 0.156863 0.156863
0.207843 0.207843 0.207843
0.200000 0.200000 0.200000
0.262745 0.262745 0.262745
0.376471 0.376471 0.376471
0.160784 0.160784 0.160784
0.145098 0.145098 0.145098
0.227451 0.227451 0.227451
0.219608 0.219608 0.219608
0.294118 0.294118 0.294118
0.278431 0.278431 0.278431
0.349020 0.349020 0.349020
0.407843 0.407843 0.407843
0.588235 0.588235 0.588235
0.247059 0.247059 0.247059
0.235294 0.235294 0.235294
0.282353 0.282353 0.282353
0.282353 0.282353 0.282353
0.305882 0.305882 0.305882
0.380392 0.380392 0.380392
0.411765 0.411765 0.411765
0.447059 0.447059 0.447059
0.584314 0.584314 0.584314
0.250980 0.250980 0.250980
0.352941 0.352941 0.352941
0.368627 0.368627 0.368627
0.360784 0.360784 0.360784
0.400000 0.400000 0.400000
0.462745 0.462745 0.462745
0.533333 0.533333 0.533333
0.533333 0.533333 0.533333
0.690196 0.690196 0.690196
0.431373 0.431373 0.431373
0.450980 0.450980 0.450980
0.458824 0.458824 0.458824
0.458824 0.458824 0.458824
0.482353 0.482353 0.482353
0.494118 0.494118 0.494118
0.584314 0.584314 0.584314
0.682353 0.682353 0.682353
0.776471 0.776471 0.776471
0.450980 0.450980 0.450980
0.545098 0.545098 0.545098
0.549020 0.549020 0.549020
0.568627 0.568627 0.568627
0.592157 0.592157 0.592157
0.607843 0.607843 0.607843
0.615686 0.615686 0.615686
0.701961 0.701961 0.701961
0.803922 0.803922 0.803922
0.796078 0.796078 0.796078
0.803922 0.803922 0.803922
0.823529 0.823529 0.823529
0.866667 0.866667 0.866667
0.862745 0.862745 0.862745
0.874510 0.874510 0.874510
0.901961 0.901961 0.901961
0.929412 0.929412 0.929412
0.945098 0.945098 0.945098
0.949020 0.949020 0.949020
0.913725 0.913725 0.913725
0.945098 0.945098 0.945098
0.952941 0.952941 0.952941
0.968627 0.968627 0.968627
0.909804 0.909804 0.909804
0.952941 0.952941 0.952941
0.949020 0.949020 0.949020
0.992157 0.992157 0.992157
0.113725 0.113725 0.113725
0.168627 0.168627 0.168627
0.149020 0.149020 0.149020
0.145098 0.145098 0.145098
0.207843 0.207843 0.207843
0.223529 0.223529 0.223529
0.258824 0.258824 0.258824
0.368627 0.368627 0.368627
0.498039 0.498039 0.498039
0.129412 0.129412 0.129412
0.164706 0.164706 0.164706
0.200000 0.200000 0.200000
0.196078 0.196078 0.196078
0.215686 0.215686 0.215686
0.168627 0.168627 0.168627
0.266667 0.266667 0.266667
0.356863 0.356863 0.356863
0.517647 0.517647 0.517647
0.160784 0.160784 0.160784
0.188235 0.188235 0.188235
0.250980 0.250980 0.250980
0.305882 0.305882 0.305882
0.301961 0.301961 0.301961
0.341176 0.341176 0.341176
0.388235 0.388235 0.388235
0.498039 0.498039 0.498039
0.596078 0.596078 0.596078
0.219608 0.219608 0.219608
0.298039 0.298039 0.298039
0.270588 0.270588 0.270588
0.376471 0.376471 0.376471
0.419608 0.419608 0.419608
0.423529 0.423529 0.423529
0.478431 0.478431 0.478431
0.501961 0.501961 0.501961
0.623529 0.623529 0.623529
0.364706 0.364706 0.364706
0.364706 0.364706 0.364706
0.392157 0.392157 0.392157
0.454902 0.454902 0.454902
0.517647 0.517647 0.517647
0.513725 0.513725 0.513725
0.556863 0.556863 0.556863
0.615686 0.615686 0.615686
0.733333 0.733333 0.733333
0.490196 0.490196 0.490196
0.498039 0.498039 0.498039
0.494118 0.494118 0.494118
0.537255 0.537255 0.537255
0.545098 0.545098 0.545098
0.603922 0.603922 0.603922
0.643137 0.643137 0.643137
0.701961 0.701961 0.701961
0.807843 0.807843 0.807843
0.576471 0.576471 0.576471
0.662745 0.662745 0.662745
0.662745 0.662745 0.662745
0.650980 0.650980 0.650980
0.690196 0.690196 0.690196
0.674510 0.674510 0.674510
0.733333 0.733333 0.733333
0.741176 0.741176 0.741176
0.862745 0.862745 0.862745
0.858824 0.858824 0.858824
0.839216 0.839216 0.839216
0.866667 0.866667 0.866667
0.858824 0.858824 0.858824
0.886275 0.886275 0.886275
0.913725 0.913725 0.913725
0.882353 0.882353 0.882353
0.956863 0.956863 0.956863
0.984314 0.984314 0.984314
0.964706 0.964706 0.964706
0.952941 0.952941 0.952941
0.945098 0.945098 0.945098
0.972549 0.972549 0.972549
0.933333 0.933333 0.933333
0.937255 0.937255 0.937255
0.956863 0.956863 0.956863
0.960784 0.960784 0.960784
0.941176 0.941176 0.941176
0.141176 0.141176 0.141176
0.180392 0.180392 0.180392
0.160784 0.160784 0.160784
0.207843 0.207843 0.207843
0.223529 0.223529 0.223529
0.274510 0.274510 0.274510
0.329412 0.329412 0.329412
0.415686 0.415686 0.415686
0.552941 0.552941 0.552941
0.188235 0.188235 0.188235
0.145098 0.145098 0.145098
0.156863 0.156863 0.156863
0.160784 0.160784 0.160784
0.223529 0.223529 0.223529
0.254902 0.254902 0.254902
0.345098 0.345098 0.345098
0.380392 0.380392 0.380392
0.529412 0.529412 0.529412
0.235294 0.235294 0.235294
0.286275 0.286275 0.286275
0.333333 0.333333 0.333333
0.341176 0.341176 0.341176
0.372549 0.372549 0.372549
0.384314 0.384314 0.384314
0.470588 0.470588 0.470588
0.537255 0.537255 0.537255
0.686275 0.686275 0.686275
0.286275 0.286275 0.286275
0.384314 0.384314 0.384314
0.376471 0.376471 0.376471
0.419608 0.419608 0.419608
0.450980 0.450980 0.450980
0.450980 0.450980 0.450980
0.486275 0.486275 0.486275
0.619608 0.619608 0.619608
0.654902 0.654902 0.654902
0.403922 0.403922 0.403922
0.419608 0.419608 0.419608
0.466667 0.466667 0.466667
0.478431 0.478431 0.478431
0.533333 0.533333 0.533333
0.576471 0.576471 0.576471
0.635294 0.635294 0.635294
0.662745 0.662745 0.662745
0.792157 0.792157 0.792157
0.533333 0.533333 0.533333
0.505882 0.505882 0.505882
0.545098 0.545098 0.545098
0.588235 0.588235 0.588235
0.631373 0.631373 0.631373
0.686275 0.686275 0.686275
0.752941 0.752941 0.752941
0.737255 0.737255 0.737255
0.831373 0.831373 0.831373
0.670588 0.670588 0.670588
0.694118 0.694118 0.694118
0.670588 0.670588 0.670588
0.682353 0.682353 0.682353
0.733333 0.733333 0.733333
0.768627 0.768627 0.768627
0.776471 0.776471 0.776471
0.803922 0.803922 0.803922
0.898039 0.898039 0.898039
0.937255 0.937255 0.937255
0.890196 0.890196 0.890196
0.870588 0.870588 0.870588
0.909804 0.909804 0.909804
0.901961 0.901961 0.901961
0.937255 0.937255 0.937255
0.898039 0.898039 0.898039
0.968627 0.968627 0.968627
0.960784 0.960784 0.960784
0.949020 0.949020 0.949020
0.952941 0.952941 0.952941
0.945098 0.945098 0.945098
0.976471 0.976471 0.976471
0.988235 0.988235 0.988235
0.980392 0.980392 0.980392
0.945098 0.945098 0.945098
0.976471 0.976471 0.976471
0.980392 0.980392 0.980392
0.278431 0.278431 0.278431
0.227451 0.227451 0.227451
0.317647 0.317647 0.317647
0.333333 0.333333 0.333333
0.341176 0.341176 0.341176
0.384314 0.384314 0.384314
0.443137 0.443137 0.443137
0.494118 0.494118 0.494118
0.643137 0.643137 0.643137
0.207843 0.207843 0.207843
0.290196 0.290196 0.290196
0.274510 0.274510 0.274510
0.345098 0.345098 0.345098
0.360784 0.360784 0.360784
0.368627 0.368627 0.368627
0.462745 0.462745 0.462745
0.470588 0.470588 0.470588
0.596078 0.596078 0.596078
0.321569 0.321569 0.321569
0.407843 0.407843 0.407843
0.411765 0.411765 0.411765
0.450980 0.450980 0.450980
0.509804 0.509804 0.509804
0.501961 0.501961 0.501961
0.521569 0.521569 0.521569
0.623529 0.623529 0.623529
0.737255 0.737255 0.737255
0.423529 0.423529 0.423529
0.474510 0.474510 0.474510
0.513725 0.513725 0.513725
0.556863 0.556863 0.556863
0.560784 0.560784 0.560784
0.572549 0.572549 0.572549
0.627451 0.627451 0.627451
0.623529 0.623529 0.623529
0.717647 0.717647 0.717647
0.560784 0.560784 0.560784
0.560784 0.560784 0.560784
0.576471 0.576471 0.576471
0.639216 0.639216 0.639216
0.611765 0.611765 0.611765
0.650980 0.650980 0.650980
0.698039 0.698039 0.698039
0.717647 0.717647 0.717647
0.796078 0.796078 0.796078
0.658824 0.658824 0.658824
0.615686 0.615686 0.615686
0.650980 0.650980 0.650980
0.682353 0.682353 0.682353
0.705882 0.705882 0.705882
0.760784 0.760784 0.760784
0.776471 0.776471 0.776471
0.807843 0.807843 0.807843
0.862745 0.862745 0.862745
0.745098 0.745098 0.745098
0.717647 0.717647 0.717647
0.733333 0.733333 0.733333
0.721569 0.721569 0.721569
0.764706 0.764706 0.764706
0.807843 0.807843 0.807843
0.807843 0.807843 0.807843
0.850980 0.850980 0.850980
0.901961 0.901961 0.901961
0.941176 0.941176 0.941176
0.905882 0.905882 0.905882
0.894118 0.894118 0.894118
0.890196 0.890196 0.890196
0.929412 0.929412 0.929412
0.937255 0.937255 0.937255
0.952941 0.952941 0.952941
0.960784 0.960784 0.960784
0.949020 0.949020 0.949020
0.952941 0.952941 0.952941
0.945098 0.945098 0.945098
0.937255 0.937255 0.937255
0.992157 0.992157 0.992157
0.929412 0.929412 0.929412
0.941176 0.941176 0.941176
0.976471 0.976471 0.976471
0.976471 0.976471 0.976471
0.980392 0.980392 0.980392
0.439216 0.439216 0.439216
0.403922 0.403922 0.403922
0.462745 0.462745 0.462745
0.435294 0.435294 0.435294
0.509804 0.509804 0.509804
0.533333 0.533333 0.533333
0.564706 0.564706 0.564706
0.623529 0.623529 0.623529
0.698039 0.698039 0.698039
0.384314 0.384314 0.384314
0.380392 0.380392 0.380392
0.431373 0.431373 0.431373
0.419608 0.419608 0.419608
0.505882 0.505882 0.505882
0.509804 0.509804 0.509804
0.564706 0.564706 0.564706
0.592157 0.592157 0.592157
0.737255 0.737255 0.737255
0.509804 0.509804 0.509804
0.588235 0.588235 0.588235
0.596078 0.596078 0.596078
0.627451 0.627451 0.627451
0.647059 0.647059 0.647059
0.658824 0.658824 0.658824
0.658824 0.658824 0.658824
0.698039 0.698039 0.698039
0.811765 0.811765 0.811765
0.607843 0.607843 0.607843
0.635294 0.635294 0.635294
0.631373 0.631373 0.631373
0.686275 0.686275 0.686275
0.709804 0.709804 0.709804
0.686275 0.686275 0.686275
0.729412 0.729412 0.729412
0.741176 0.741176 0.741176
0.780392 0.780392 0.780392
0.678431 0.678431 0.678431
0.658824 0.658824 0.658824
0.721569 0.721569 0.721569
0.717647 0.717647 0.717647
0.756863 0.756863 0.756863
0.729412 0.729412 0.729412
0.749020 0.749020 0.749020
0.800000 0.800000 0.800000
0.819608 0.819608 0.819608
0.741176 0.741176 0.741176
0.717647 0.717647 0.717647
0.749020 0.749020 0.749020
0.752941 0.752941 0.752941
0.807843 0.807843 0.807843
0.807843 0.807843 0.807843
0.835294 0.835294 0.835294
0.858824 0.858824 0.858824
0.909804 0.909804 0.909804
0.780392 0.780392 0.780392
0.800000 0.800000 0.800000
0.780392 0.780392 0.780392
0.800000 0.800000 0.800000
0.850980 0.850980 0.850980
0.823529 0.823529 0.823529
0.866667 0.866667 0.866667
0.913725 0.913725 0.913725
0.937255 0.937255 0.937255
0.968627 0.968627 0.968627
0.913725 0.913725 0.913725
0.925490 0.925490 0.925490
0.925490 0.925490 0.925490
0.901961 0.901961 0.901961
0.921569 0.921569 0.921569
0.952941 0.952941 0.952941
0.968627 0.968627 0.968627
0.968627 0.968627 0.968627
0.976471 0.976471 0.976471
0.976471 0.976471 0.976471
0.996078 0.996078 0.996078
0.956863 0.956863 0.956863
0.984314 0.984314 0.984314
0.960784 0.960784 0.960784
0.984314 0.984314 0.984314
0.992157 0.992157 0.992157
0.996078 0.996078 0.996078
0.694118 0.694118 0.694118
0.729412 0.729412 0.729412
0.721569 0.721569 0.721569
0.752941 0.752941 0.752941
0.741176 0.741176 0.741176
0.780392 0.780392 0.780392
0.788235 0.788235 0.788235
0.796078 0.796078 0.796078
0.850980 0.850980 0.850980
0.623529 0.623529 0.623529
0.666667 0.666667 0.666667
0.701961 0.701961 0.701961
0.729412 0.729412 0.729412
0.745098 0.745098 0.745098
0.737255 0.737255 0.737255
0.760784 0.760784 0.760784
0.788235 0.788235 0.788235
0.843137 0.843137 0.843137
0.725490 0.725490 0.725490
0.815686 0.815686 0.815686
0.784314 0.784314 0.784314
0.749020 0.749020 0.749020
0.800000 0.800000 0.800000
0.796078 0.796078 0.796078
0.800000 0.800000 0.800000
0.796078 0.796078 0.796078
0.882353 0.882353 0.882353
0.760784 0.760784 0.760784
0.788235 0.788235 0.788235
0.780392 0.780392 0.780392
0.815686 0.815686 0.815686
0.815686 0.815686 0.815686
0.811765 0.811765 0.811765
0.847059 0.847059 0.847059
0.792157 0.792157 0.792157
0.870588 0.870588 0.870588
0.843137 0.843137 0.843137
0.827451 0.827451 0.827451
0.839216 0.839216 0.839216
0.843137 0.843137 0.843137
0.847059 0.847059 0.847059
0.874510 0.874510 0.874510
0.854902 0.854902 0.854902
0.890196 0.890196 0.890196
0.929412 0.929412 0.929412
0.843137 0.843137 0.843137
0.827451 0.827451 0.827451
0.866667 0.866667 0.866667
0.878431 0.878431 0.878431
0.882353 0.882353 0.882353
0.890196 0.890196 0.890196
0.882353 0.882353 0.882353
0.894118 0.894118 0.894118
0.937255 0.937255 0.937255
0.858824 0.858824 0.858824
0.847059 0.847059 0.847059
0.839216 0.839216 0.839216
0.835294 0.835294 0.835294
0.913725 0.913725 0.913725
0.941176 0.941176 0.941176
0.917647 0.917647 0.917647
0.964706 0.964706 0.964706
0.960784 0.960784 0.960784
0.933333 0.933333 0.933333
0.937255 0.937255 0.937255
0.960784 0.960784 0.960784
0.917647 0.917647 0.917647
0.964706 0.964706 0.964706
0.933333 0.933333 0.933333
0.937255 0.937255 0.937255
0.945098 0.945098 0.945098
0.980392 0.980392 0.980392
0.984314 0.984314 0.984314
0.956863 0.956863 0.956863
0.992157 0.992157 0.992157
0.976471 0.976471 0.976471
0.952941 0.952941 0.952941
0.988235 0.988235 0.988235
0.984314 0.984314 0.984314
0.992157 0.992157 0.992157
1.000000 1.000000 1.000000
