fuji_bw.cube
#Generated by lutCreator.js
#Coded by SirSerch
#https://github.com/SirSerch/LutCreatorJs
TITLE lutCreatorJs_25
LUT_3D_SIZE 5
0.000000 0.000000 0.000000
0.011765 0.011765 0.011765
0.066667 0.066667 0.066667
0.156863 0.156863 0.156863
0.384314 0.384314 0.384314
0.047059 0.047059 0.047059
0.078431 0.078431 0.078431
0.137255 0.137255 0.137255
0.247059 0.247059 0.247059
0.388235 0.388235 0.388235
0.176471 0.176471 0.176471
0.192157 0.192157 0.192157
0.270588 0.270588 0.270588
0.321569 0.321569 0.321569
0.588235 0.588235 0.588235
0.333333 0.333333 0.333333
0.439216 0.439216 0.439216
0.470588 0.470588 0.470588
0.549020 0.549020 0.549020
0.713725 0.713725 0.713725
0.933333 0.933333 0.933333
0.952941 0.952941 0.952941
0.937255 0.937255 0.937255
0.952941 0.952941 0.952941
0.956863 0.956863 0.956863
0.011765 0.011765 0.011765
0.105882 0.105882 0.105882
0.101961 0.101961 0.101961
0.180392 0.180392 0.180392
0.317647 0.317647 0.317647
0.098039 0.098039 0.098039
0.133333 0.133333 0.133333
0.196078 0.196078 0.196078
0.274510 0.274510 0.274510
0.462745 0.462745 0.462745
0.215686 0.215686 0.215686
0.305882 0.305882 0.305882
0.313725 0.313725 0.313725
0.431373 0.431373 0.431373
0.639216 0.639216 0.639216
0.411765 0.411765 0.411765
0.509804 0.509804 0.509804
0.545098 0.545098 0.545098
0.603922 0.603922 0.603922
0.772549 0.772549 0.772549
0.952941 0.952941 0.952941
0.917647 0.917647 0.917647
0.913725 0.913725 0.913725
0.921569 0.921569 0.921569
0.972549 0.972549 0.972549
0.113725 0.113725 0.113725
0.149020 0.149020 0.149020
0.207843 0.207843 0.207843
0.258824 0.258824 0.258824
0.498039 0.498039 0.498039
0.160784 0.160784 0.160784
0.250980 0.250980 0.250980
0.301961 0.301961 0.301961
0.388235 0.388235 0.388235
0.596078 0.596078 0.596078
0.364706 0.364706 0.364706
0.392157 0.392157 0.392157
0.517647 0.517647 0.517647
0.556863 0.556863 0.556863
0.733333 0.733333 0.733333
0.576471 0.576471 0.576471
0.662745 0.662745 0.662745
0.690196 0.690196 0.690196
0.733333 0.733333 0.733333
0.862745 0.862745 0.862745
0.964706 0.964706 0.964706
0.945098 0.945098 0.945098
0.933333 0.933333 0.933333
0.956863 0.956863 0.956863
0.941176 0.941176 0.941176
0.278431 0.278431 0.278431
0.317647 0.317647 0.317647
0.341176 0.341176 0.341176
0.443137 0.443137 0.443137
0.643137 0.643137 0.643137
0.321569 0.321569 0.321569
0.411765 0.411765 0.411765
0.509804 0.509804 0.509804
0.521569 0.521569 0.521569
0.737255 0.737255 0.737255
0.560784 0.560784 0.560784
0.576471 0.576471 0.576471
0.611765 0.611765 0.611765
0.698039 0.698039 0.698039
0.796078 0.796078 0.796078
0.745098 0.745098 0.745098
0.733333 0.733333 0.733333
0.764706 0.764706 0.764706
0.807843 0.807843 0.807843
0.901961 0.901961 0.901961
0.952941 0.952941 0.952941
0.937255 0.937255 0.937255
0.929412 0.929412 0.929412
0.976471 0.976471 0.976471
0.980392 0.980392 0.980392
0.694118 0.694118 0.694118
0.721569 0.721569 0.721569
0.741176 0.741176 0.741176
0.788235 0.788235 0.788235
0.850980 0.850980 0.850980
0.725490 0.725490 0.725490
0.784314 0.784314 0.784314
0.800000 0.800000 0.800000
0.800000 0.800000 0.800000
0.882353 0.882353 0.882353
0.843137 0.843137 0.843137
0.839216 0.839216 0.839216
0.847059 0.847059 0.847059
0.854902 0.854902 0.854902
0.929412 0.929412 0.929412
0.858824 0.858824 0.858824
0.839216 0.839216 0.839216
0.913725 0.913725 0.913725
0.917647 0.917647 0.917647
0.960784 0.960784 0.960784
0.984314 0.984314 0.984314
0.992157 0.992157 0.992157
0.952941 0.952941 0.952941
0.984314 0.984314 0.984314
1.000000 1.000000 1.000000
