gru.cube
#Generated by lutCreator.js
#Coded by SirSerch
#https://github.com/SirSerch/LutCreatorJs
TITLE lutCreatorJs_25
LUT_3D_SIZE 25
0.000000 0.054902 0.007843
0.000000 0.058824 0.007843
0.000000 0.058824 0.003922
0.011765 0.054902 0.000000
0.019608 0.054902 0.000000
0.039216 0.050980 0.000000
0.078431 0.054902 0.000000
0.125490 0.050980 0.000000
0.196078 0.043137 0.000000
0.270588 0.043137 0.000000
0.337255 0.035294 0.000000
0.407843 0.039216 0.000000
0.482353 0.054902 0.000000
0.541176 0.058824 0.000000
0.592157 0.054902 0.000000
0.635294 0.070588 0.000000
0.662745 0.098039 0.000000
0.682353 0.094118 0.000000
0.733333 0.098039 0.000000
0.768627 0.098039 0.000000
0.792157 0.098039 0.000000
0.819608 0.121569 0.011765
0.823529 0.137255 0.027451
0.725490 0.149020 0.043137
0.537255 0.168627 0.066667
0.180392 0.000000 0.000000
0.058824 0.047059 0.000000
0.000000 0.054902 0.000000
0.019608 0.078431 0.000000
0.039216 0.074510 0.000000
0.043137 0.043137 0.000000
0.090196 0.058824 0.000000
0.129412 0.078431 0.000000
0.180392 0.074510 0.000000
0.258824 0.066667 0.000000
0.341176 0.066667 0.000000
0.411765 0.062745 0.000000
0.482353 0.070588 0.000000
0.541176 0.086275 0.000000
0.588235 0.090196 0.000000
0.639216 0.098039 0.000000
0.678431 0.105882 0.000000
0.717647 0.121569 0.000000
0.741176 0.125490 0.000000
0.760784 0.129412 0.000000
0.788235 0.133333 0.000000
0.823529 0.145098 0.003922
0.823529 0.168627 0.027451
0.764706 0.180392 0.043137
0.521569 0.129412 0.000000
0.109804 0.027451 0.000000
0.000000 0.082353 0.000000
0.000000 0.105882 0.000000
0.000000 0.105882 0.000000
0.000000 0.090196 0.000000
0.043137 0.094118 0.000000
0.086275 0.082353 0.000000
0.145098 0.090196 0.000000
0.207843 0.101961 0.000000
0.286275 0.113725 0.000000
0.372549 0.121569 0.000000
0.435294 0.117647 0.000000
0.490196 0.117647 0.000000
0.541176 0.129412 0.000000
0.584314 0.145098 0.000000
0.623529 0.149020 0.000000
0.674510 0.149020 0.003922
0.709804 0.149020 0.000000
0.737255 0.152941 0.000000
0.760784 0.156863 0.000000
0.788235 0.168627 0.000000
0.800000 0.196078 0.000000
0.780392 0.223529 0.031373
0.686275 0.254902 0.078431
0.352941 0.137255 0.000000
0.109804 0.058824 0.000000
0.007843 0.082353 0.000000
0.000000 0.117647 0.007843
0.000000 0.121569 0.011765
0.000000 0.117647 0.000000
0.043137 0.117647 0.000000
0.098039 0.129412 0.000000
0.156863 0.145098 0.000000
0.223529 0.156863 0.000000
0.301961 0.164706 0.000000
0.384314 0.172549 0.000000
0.458824 0.180392 0.000000
0.525490 0.180392 0.000000
0.572549 0.176471 0.000000
0.627451 0.188235 0.000000
0.674510 0.196078 0.011765
0.705882 0.200000 0.011765
0.729412 0.200000 0.015686
0.745098 0.200000 0.011765
0.764706 0.211765 0.019608
0.796078 0.235294 0.039216
0.823529 0.254902 0.058824
0.780392 0.286275 0.086275
0.670588 0.329412 0.129412
0.262745 0.105882 0.000000
0.054902 0.113725 0.000000
0.000000 0.152941 0.000000
0.000000 0.180392 0.011765
0.000000 0.168627 0.000000
0.000000 0.176471 0.000000
0.027451 0.176471 0.000000
0.094118 0.180392 0.000000
0.168627 0.196078 0.000000
0.239216 0.215686 0.000000
0.321569 0.227451 0.000000
0.419608 0.243137 0.000000
0.505882 0.254902 0.011765
0.572549 0.258824 0.023529
0.600000 0.243137 0.015686
0.623529 0.250980 0.019608
0.662745 0.258824 0.027451
0.705882 0.250980 0.023529
0.737255 0.250980 0.023529
0.764706 0.266667 0.031373
0.788235 0.278431 0.043137
0.819608 0.286275 0.058824
0.839216 0.294118 0.066667
0.847059 0.305882 0.066667
0.756863 0.337255 0.156863
0.164706 0.000000 0.000000
0.000000 0.141176 0.015686
0.000000 0.145098 0.019608
0.011765 0.149020 0.023529
0.027451 0.149020 0.019608
0.050980 0.156863 0.015686
0.086275 0.172549 0.019608
0.141176 0.188235 0.031373
0.196078 0.192157 0.031373
0.301961 0.219608 0.062745
0.388235 0.235294 0.078431
0.458824 0.239216 0.078431
0.521569 0.235294 0.074510
0.576471 0.239216 0.078431
0.627451 0.235294 0.074510
0.666667 0.223529 0.062745
0.698039 0.227451 0.058824
0.717647 0.239216 0.050980
0.752941 0.247059 0.058824
0.800000 0.258824 0.082353
0.835294 0.262745 0.098039
0.854902 0.262745 0.098039
0.882353 0.282353 0.117647
0.898039 0.309804 0.141176
0.819608 0.337255 0.168627
0.647059 0.368627 0.200000
0.200000 0.101961 0.000000
0.074510 0.141176 0.000000
0.035294 0.180392 0.039216
0.035294 0.176471 0.019608
0.070588 0.192157 0.027451
0.129412 0.215686 0.058824
0.176471 0.231373 0.062745
0.215686 0.239216 0.050980
0.298039 0.262745 0.066667
0.407843 0.286275 0.105882
0.490196 0.294118 0.121569
0.549020 0.286275 0.113725
0.596078 0.278431 0.105882
0.647059 0.286275 0.105882
0.690196 0.290196 0.105882
0.721569 0.282353 0.098039
0.752941 0.286275 0.098039
0.784314 0.294118 0.101961
0.811765 0.301961 0.105882
0.835294 0.301961 0.105882
0.866667 0.313725 0.113725
0.901961 0.325490 0.129412
0.898039 0.341176 0.149020
0.843137 0.364706 0.172549
0.643137 0.349020 0.156863
0.160784 0.160784 0.000000
0.047059 0.211765 0.027451
0.043137 0.235294 0.050980
0.043137 0.235294 0.054902
0.086275 0.247059 0.074510
0.133333 0.250980 0.074510
0.188235 0.250980 0.066667
0.254902 0.262745 0.066667
0.333333 0.290196 0.078431
0.427451 0.317647 0.094118
0.517647 0.337255 0.101961
0.580392 0.345098 0.105882
0.627451 0.345098 0.117647
0.674510 0.352941 0.133333
0.690196 0.337255 0.125490
0.729412 0.341176 0.133333
0.768627 0.337255 0.129412
0.803922 0.341176 0.129412
0.831373 0.345098 0.125490
0.858824 0.352941 0.125490
0.882353 0.360784 0.121569
0.890196 0.380392 0.137255
0.878431 0.411765 0.176471
0.831373 0.490196 0.258824
0.501961 0.376471 0.152941
0.160784 0.196078 0.000000
0.086275 0.235294 0.039216
0.070588 0.274510 0.086275
0.070588 0.274510 0.086275
0.101961 0.282353 0.078431
0.176471 0.313725 0.082353
0.215686 0.313725 0.062745
0.266667 0.321569 0.074510
0.349020 0.345098 0.098039
0.447059 0.376471 0.125490
0.545098 0.407843 0.152941
0.615686 0.415686 0.160784
0.666667 0.411765 0.156863
0.713725 0.407843 0.156863
0.745098 0.400000 0.152941
0.764706 0.388235 0.145098
0.792157 0.388235 0.145098
0.823529 0.396078 0.156863
0.850980 0.403922 0.164706
0.866667 0.407843 0.164706
0.882353 0.419608 0.172549
0.921569 0.447059 0.200000
0.862745 0.454902 0.207843
0.823529 0.568627 0.313725
0.341176 0.266667 0.011765
0.141176 0.274510 0.027451
0.066667 0.313725 0.070588
0.070588 0.325490 0.090196
0.070588 0.321569 0.082353
0.121569 0.352941 0.101961
0.160784 0.352941 0.098039
0.215686 0.352941 0.101961
0.278431 0.360784 0.094118
0.352941 0.384314 0.090196
0.447059 0.419608 0.109804
0.556863 0.443137 0.141176
0.631373 0.454902 0.160784
0.690196 0.466667 0.180392
0.717647 0.462745 0.176471
0.752941 0.470588 0.184314
0.792157 0.474510 0.196078
0.827451 0.466667 0.196078
0.850980 0.462745 0.192157
0.874510 0.474510 0.192157
0.894118 0.478431 0.203922
0.921569 0.482353 0.215686
0.929412 0.478431 0.215686
0.941176 0.498039 0.227451
0.890196 0.549020 0.341176
0.137255 0.000000 0.000000
0.047059 0.364706 0.094118
0.054902 0.368627 0.098039
0.074510 0.368627 0.101961
0.094118 0.368627 0.101961
0.113725 0.372549 0.098039
0.152941 0.384314 0.098039
0.203922 0.400000 0.098039
0.266667 0.407843 0.098039
0.333333 0.400000 0.086275
0.427451 0.427451 0.109804
0.509804 0.443137 0.125490
0.564706 0.443137 0.125490
0.631373 0.462745 0.152941
0.694118 0.482353 0.176471
0.745098 0.490196 0.196078
0.780392 0.498039 0.203922
0.811765 0.501961 0.203922
0.831373 0.494118 0.200000
0.866667 0.501961 0.223529
0.894118 0.513725 0.239216
0.909804 0.517647 0.243137
0.929412 0.533333 0.254902
0.941176 0.552941 0.262745
0.870588 0.584314 0.286275
0.686275 0.584314 0.282353
0.227451 0.301961 0.003922
0.137255 0.368627 0.078431
0.125490 0.431373 0.137255
0.117647 0.419608 0.113725
0.133333 0.423529 0.109804
0.184314 0.447059 0.133333
0.223529 0.443137 0.121569
0.282353 0.450980 0.098039
0.360784 0.462745 0.105882
0.450980 0.478431 0.133333
0.529412 0.490196 0.152941
0.592157 0.490196 0.156863
0.639216 0.498039 0.164706
0.682353 0.513725 0.176471
0.717647 0.517647 0.184314
0.768627 0.537255 0.207843
0.796078 0.541176 0.215686
0.831373 0.549020 0.227451
0.858824 0.552941 0.235294
0.890196 0.560784 0.247059
0.921569 0.568627 0.262745
0.952941 0.568627 0.270588
0.937255 0.584314 0.286275
0.890196 0.619608 0.313725
0.627451 0.533333 0.223529
0.196078 0.364706 0.054902
0.172549 0.478431 0.168627
0.160784 0.482353 0.160784
0.164706 0.486275 0.156863
0.211765 0.509804 0.176471
0.223529 0.478431 0.141176
0.282353 0.478431 0.133333
0.345098 0.478431 0.133333
0.411765 0.490196 0.137255
0.482353 0.505882 0.145098
0.552941 0.521569 0.152941
0.603922 0.525490 0.156863
0.635294 0.525490 0.168627
0.666667 0.525490 0.180392
0.729412 0.549020 0.215686
0.764706 0.552941 0.223529
0.803922 0.560784 0.227451
0.839216 0.568627 0.235294
0.866667 0.584314 0.247059
0.898039 0.596078 0.258824
0.925490 0.600000 0.266667
0.933333 0.611765 0.282353
0.901961 0.619608 0.294118
0.815686 0.650980 0.317647
0.517647 0.564706 0.215686
0.219608 0.415686 0.062745
0.215686 0.513725 0.160784
0.192157 0.533333 0.184314
0.196078 0.521569 0.172549
0.235294 0.533333 0.176471
0.258824 0.525490 0.145098
0.294118 0.525490 0.133333
0.341176 0.529412 0.137255
0.403922 0.537255 0.149020
0.486275 0.552941 0.164706
0.552941 0.564706 0.176471
0.611765 0.568627 0.180392
0.650980 0.560784 0.180392
0.678431 0.560784 0.180392
0.725490 0.580392 0.203922
0.772549 0.600000 0.235294
0.803922 0.607843 0.250980
0.831373 0.607843 0.258824
0.847059 0.607843 0.258824
0.870588 0.611765 0.270588
0.905882 0.627451 0.290196
0.925490 0.627451 0.290196
0.898039 0.666667 0.325490
0.788235 0.705882 0.349020
0.392157 0.486275 0.117647
0.247059 0.537255 0.160784
0.203922 0.588235 0.207843
0.196078 0.572549 0.192157
0.231373 0.588235 0.207843
0.250980 0.576471 0.188235
0.290196 0.576471 0.184314
0.341176 0.576471 0.192157
0.380392 0.572549 0.180392
0.435294 0.588235 0.172549
0.505882 0.600000 0.184314
0.584314 0.603922 0.200000
0.627451 0.603922 0.203922
0.647059 0.611765 0.211765
0.670588 0.607843 0.211765
0.717647 0.607843 0.223529
0.760784 0.615686 0.239216
0.792157 0.623529 0.250980
0.815686 0.627451 0.258824
0.839216 0.635294 0.266667
0.870588 0.643137 0.282353
0.905882 0.654902 0.309804
0.917647 0.658824 0.321569
0.929412 0.682353 0.337255
0.882353 0.694118 0.435294
0.105882 0.023529 0.000000
0.192157 0.549020 0.235294
0.207843 0.552941 0.243137
0.239216 0.556863 0.254902
0.258824 0.552941 0.250980
0.282353 0.556863 0.250980
0.309804 0.556863 0.243137
0.349020 0.564706 0.239216
0.392157 0.564706 0.231373
0.474510 0.584314 0.247059
0.545098 0.607843 0.262745
0.600000 0.611765 0.262745
0.635294 0.603922 0.250980
0.682353 0.603922 0.258824
0.717647 0.600000 0.262745
0.752941 0.592157 0.266667
0.796078 0.596078 0.274510
0.854902 0.619608 0.305882
0.878431 0.615686 0.305882
0.905882 0.623529 0.325490
0.933333 0.639216 0.345098
0.952941 0.647059 0.352941
0.964706 0.654902 0.352941
0.980392 0.674510 0.356863
0.929412 0.709804 0.380392
0.745098 0.701961 0.372549
0.372549 0.490196 0.156863
0.286275 0.549020 0.227451
0.258824 0.592157 0.266667
0.274510 0.603922 0.262745
0.294118 0.611765 0.262745
0.325490 0.619608 0.270588
0.372549 0.627451 0.270588
0.419608 0.623529 0.247059
0.482353 0.627451 0.247059
0.549020 0.631373 0.258824
0.611765 0.639216 0.270588
0.650980 0.635294 0.270588
0.690196 0.639216 0.270588
0.717647 0.643137 0.270588
0.745098 0.643137 0.274510
0.780392 0.643137 0.282353
0.819608 0.647059 0.294118
0.862745 0.662745 0.317647
0.894118 0.670588 0.333333
0.917647 0.674510 0.341176
0.945098 0.678431 0.352941
0.964706 0.674510 0.356863
0.945098 0.682353 0.360784
0.905882 0.729412 0.392157
0.701961 0.686275 0.345098
0.360784 0.572549 0.235294
0.290196 0.623529 0.282353
0.286275 0.623529 0.270588
0.317647 0.650980 0.286275
0.321569 0.643137 0.274510
0.368627 0.658824 0.282353
0.423529 0.662745 0.286275
0.474510 0.662745 0.286275
0.525490 0.666667 0.286275
0.576471 0.670588 0.286275
0.631373 0.678431 0.286275
0.666667 0.678431 0.286275
0.694118 0.678431 0.290196
0.725490 0.678431 0.298039
0.764706 0.674510 0.301961
0.807843 0.682353 0.313725
0.847059 0.690196 0.325490
0.874510 0.694118 0.329412
0.898039 0.705882 0.341176
0.925490 0.709804 0.352941
0.949020 0.709804 0.356863
0.952941 0.717647 0.368627
0.949020 0.741176 0.396078
0.874510 0.780392 0.427451
0.603922 0.701961 0.333333
0.341176 0.580392 0.203922
0.309804 0.639216 0.262745
0.298039 0.662745 0.282353
0.337255 0.678431 0.294118
0.368627 0.690196 0.298039
0.407843 0.709804 0.305882
0.439216 0.713725 0.301961
0.490196 0.725490 0.313725
0.541176 0.733333 0.317647
0.592157 0.733333 0.317647
0.635294 0.725490 0.309804
0.678431 0.721569 0.305882
0.713725 0.717647 0.305882
0.737255 0.713725 0.301961
0.764706 0.713725 0.309804
0.796078 0.713725 0.321569
0.831373 0.721569 0.337255
0.870588 0.729412 0.352941
0.894118 0.733333 0.364706
0.917647 0.737255 0.368627
0.945098 0.745098 0.384314
0.992157 0.776471 0.419608
0.894118 0.733333 0.372549
0.858824 0.835294 0.458824
0.533333 0.674510 0.286275
0.356863 0.678431 0.282353
0.305882 0.713725 0.309804
0.329412 0.717647 0.317647
0.352941 0.721569 0.317647
0.396078 0.741176 0.329412
0.439216 0.749020 0.333333
0.486275 0.752941 0.345098
0.525490 0.760784 0.345098
0.560784 0.768627 0.341176
0.607843 0.772549 0.341176
0.662745 0.764706 0.345098
0.694118 0.756863 0.341176
0.721569 0.772549 0.356863
0.745098 0.768627 0.352941
0.792157 0.756863 0.356863
0.827451 0.756863 0.364706
0.850980 0.764706 0.376471
0.874510 0.768627 0.380392
0.901961 0.772549 0.388235
0.929412 0.776471 0.400000
0.941176 0.764706 0.403922
0.945098 0.756863 0.403922
0.952941 0.776471 0.415686
0.901961 0.768627 0.494118
0.082353 0.031373 0.000000
0.360784 0.635294 0.384314
0.384314 0.639216 0.396078
0.427451 0.643137 0.407843
0.474510 0.658824 0.427451
0.509804 0.670588 0.439216
0.545098 0.682353 0.450980
0.580392 0.698039 0.462745
0.603922 0.698039 0.462745
0.639216 0.698039 0.462745
0.678431 0.705882 0.466667
0.698039 0.698039 0.450980
0.729412 0.698039 0.443137
0.780392 0.705882 0.447059
0.823529 0.709804 0.447059
0.870588 0.713725 0.447059
0.929412 0.725490 0.462745
0.960784 0.709804 0.458824
1.000000 0.713725 0.474510
1.000000 0.725490 0.490196
1.000000 0.725490 0.494118
1.000000 0.709804 0.478431
1.000000 0.698039 0.462745
1.000000 0.713725 0.462745
1.000000 0.764706 0.505882
0.909804 0.800000 0.537255
0.572549 0.607843 0.352941
0.494118 0.662745 0.415686
0.458824 0.690196 0.439216
0.490196 0.713725 0.447059
0.525490 0.733333 0.458824
0.545098 0.729412 0.458824
0.580392 0.741176 0.470588
0.623529 0.756863 0.486275
0.662745 0.756863 0.490196
0.709804 0.756863 0.494118
0.737255 0.752941 0.486275
0.760784 0.745098 0.470588
0.788235 0.745098 0.462745
0.823529 0.752941 0.466667
0.870588 0.760784 0.474510
0.909804 0.749020 0.470588
0.952941 0.749020 0.478431
0.996078 0.752941 0.490196
1.000000 0.749020 0.490196
1.000000 0.741176 0.478431
1.000000 0.733333 0.470588
1.000000 0.729412 0.470588
1.000000 0.741176 0.470588
0.988235 0.788235 0.501961
0.815686 0.756863 0.466667
0.545098 0.690196 0.415686
0.486275 0.725490 0.454902
0.505882 0.741176 0.458824
0.545098 0.776471 0.490196
0.537255 0.772549 0.486275
0.580392 0.800000 0.509804
0.600000 0.792157 0.501961
0.635294 0.800000 0.505882
0.670588 0.803922 0.509804
0.701961 0.800000 0.498039
0.741176 0.796078 0.482353
0.768627 0.792157 0.474510
0.792157 0.792157 0.474510
0.831373 0.796078 0.474510
0.874510 0.788235 0.458824
0.929412 0.796078 0.474510
0.968627 0.792157 0.490196
0.992157 0.788235 0.494118
1.000000 0.780392 0.490196
1.000000 0.776471 0.482353
1.000000 0.772549 0.470588
1.000000 0.780392 0.474510
1.000000 0.792157 0.498039
1.000000 0.870588 0.580392
0.745098 0.780392 0.498039
0.568627 0.729412 0.450980
0.533333 0.772549 0.498039
0.517647 0.788235 0.505882
0.541176 0.796078 0.494118
0.564706 0.803922 0.498039
0.592157 0.823529 0.529412
0.607843 0.827451 0.533333
0.635294 0.835294 0.533333
0.670588 0.843137 0.529412
0.705882 0.843137 0.513725
0.741176 0.839216 0.501961
0.776471 0.839216 0.490196
0.811765 0.835294 0.486275
0.862745 0.839216 0.494118
0.901961 0.839216 0.498039
0.937255 0.835294 0.501961
0.972549 0.831373 0.505882
1.000000 0.823529 0.501961
1.000000 0.811765 0.494118
1.000000 0.803922 0.486275
1.000000 0.803922 0.490196
1.000000 0.796078 0.490196
1.000000 0.823529 0.517647
0.956863 0.878431 0.572549
0.725490 0.788235 0.478431
0.545098 0.772549 0.462745
0.521569 0.831373 0.517647
0.552941 0.854902 0.545098
0.560784 0.850980 0.541176
0.588235 0.870588 0.549020
0.607843 0.866667 0.545098
0.639216 0.862745 0.549020
0.666667 0.870588 0.545098
0.686275 0.882353 0.537255
0.713725 0.882353 0.529412
0.760784 0.886275 0.537255
0.803922 0.886275 0.545098
0.823529 0.870588 0.525490
0.866667 0.866667 0.529412
0.921569 0.854902 0.533333
0.956863 0.854902 0.541176
0.972549 0.858824 0.537255
0.992157 0.854902 0.529412
1.000000 0.843137 0.517647
1.000000 0.839216 0.517647
1.000000 0.843137 0.533333
1.000000 0.827451 0.513725
1.000000 0.819608 0.501961
1.000000 0.839216 0.603922
0.078431 0.011765 0.000000
0.000000 0.152941 0.000000
0.000000 0.149020 0.000000
0.000000 0.137255 0.000000
0.000000 0.121569 0.000000
0.000000 0.113725 0.000000
0.000000 0.113725 0.000000
0.015686 0.113725 0.000000
0.035294 0.113725 0.000000
0.062745 0.105882 0.000000
0.094118 0.105882 0.000000
0.121569 0.105882 0.000000
0.176471 0.121569 0.000000
0.243137 0.145098 0.000000
0.298039 0.149020 0.000000
0.356863 0.160784 0.000000
0.423529 0.180392 0.000000
0.470588 0.188235 0.000000
0.517647 0.200000 0.000000
0.552941 0.211765 0.000000
0.580392 0.223529 0.007843
0.600000 0.231373 0.015686
0.615686 0.239216 0.015686
0.639216 0.250980 0.023529
0.615686 0.301961 0.070588
0.458824 0.305882 0.078431
0.062745 0.066667 0.000000
0.000000 0.125490 0.000000
0.000000 0.168627 0.000000
0.000000 0.172549 0.000000
0.000000 0.180392 0.000000
0.003922 0.172549 0.000000
0.015686 0.160784 0.000000
0.023529 0.145098 0.000000
0.058824 0.149020 0.000000
0.105882 0.149020 0.000000
0.152941 0.156863 0.000000
0.200000 0.172549 0.000000
0.254902 0.196078 0.000000
0.313725 0.215686 0.000000
0.368627 0.223529 0.000000
0.462745 0.258824 0.011765
0.509804 0.258824 0.015686
0.556863 0.266667 0.031373
0.580392 0.266667 0.031373
0.596078 0.270588 0.031373
0.619608 0.282353 0.043137
0.643137 0.298039 0.054902
0.631373 0.313725 0.066667
0.588235 0.341176 0.078431
0.356863 0.254902 0.000000
0.031373 0.156863 0.000000
0.000000 0.223529 0.000000
0.000000 0.227451 0.000000
0.000000 0.219608 0.000000
0.000000 0.227451 0.000000
0.000000 0.207843 0.000000
0.007843 0.200000 0.000000
0.039216 0.211765 0.000000
0.070588 0.207843 0.000000
0.101961 0.200000 0.000000
0.156863 0.207843 0.000000
0.211765 0.227451 0.000000
0.258824 0.250980 0.000000
0.313725 0.262745 0.000000
0.403922 0.290196 0.000000
0.470588 0.305882 0.007843
0.521569 0.313725 0.035294
0.552941 0.317647 0.047059
0.580392 0.321569 0.054902
0.607843 0.333333 0.062745
0.627451 0.337255 0.054902
0.631373 0.345098 0.062745
0.635294 0.372549 0.098039
0.588235 0.419608 0.152941
0.211765 0.223529 0.000000
0.015686 0.160784 0.000000
0.007843 0.239216 0.000000
0.000000 0.250980 0.000000
0.000000 0.243137 0.000000
0.027451 0.266667 0.000000
0.011765 0.250980 0.000000
0.023529 0.250980 0.000000
0.047059 0.254902 0.000000
0.078431 0.254902 0.000000
0.117647 0.250980 0.000000
0.160784 0.254902 0.000000
0.223529 0.270588 0.000000
0.282353 0.282353 0.000000
0.356863 0.309804 0.000000
0.427451 0.333333 0.015686
0.501961 0.364706 0.050980
0.556863 0.380392 0.074510
0.592157 0.384314 0.082353
0.607843 0.372549 0.070588
0.623529 0.376471 0.070588
0.647059 0.388235 0.090196
0.662745 0.392157 0.101961
0.639216 0.419608 0.137255
0.603922 0.498039 0.215686
0.160784 0.200000 0.000000
0.066667 0.282353 0.000000
0.015686 0.317647 0.027451
0.000000 0.278431 0.000000
0.011765 0.305882 0.015686
0.007843 0.294118 0.000000
0.019608 0.286275 0.000000
0.050980 0.282353 0.000000
0.078431 0.290196 0.000000
0.098039 0.298039 0.000000
0.125490 0.298039 0.000000
0.176471 0.301961 0.000000
0.235294 0.309804 0.000000
0.305882 0.337255 0.007843
0.372549 0.349020 0.023529
0.454902 0.376471 0.062745
0.525490 0.407843 0.101961
0.568627 0.435294 0.125490
0.607843 0.447059 0.133333
0.647059 0.447059 0.133333
0.670588 0.439216 0.133333
0.682353 0.435294 0.137255
0.713725 0.447059 0.152941
0.733333 0.450980 0.149020
0.666667 0.447059 0.223529
0.101961 0.023529 0.000000
0.000000 0.243137 0.043137
0.000000 0.239216 0.043137
0.000000 0.231373 0.035294
0.000000 0.223529 0.023529
0.000000 0.215686 0.011765
0.027451 0.219608 0.003922
0.066667 0.231373 0.003922
0.105882 0.231373 0.000000
0.160784 0.231373 0.000000
0.239216 0.254902 0.007843
0.321569 0.278431 0.023529
0.407843 0.309804 0.054902
0.490196 0.333333 0.082353
0.541176 0.329412 0.078431
0.580392 0.309804 0.070588
0.623529 0.313725 0.074510
0.635294 0.305882 0.062745
0.670588 0.313725 0.070588
0.701961 0.309804 0.066667
0.741176 0.321569 0.074510
0.780392 0.345098 0.090196
0.800000 0.352941 0.098039
0.807843 0.356863 0.105882
0.749020 0.396078 0.149020
0.603922 0.447059 0.211765
0.137255 0.160784 0.000000
0.023529 0.207843 0.000000
0.000000 0.266667 0.047059
0.000000 0.266667 0.019608
0.000000 0.270588 0.003922
0.031373 0.282353 0.003922
0.054902 0.274510 0.000000
0.117647 0.290196 0.000000
0.176471 0.298039 0.000000
0.258824 0.317647 0.023529
0.345098 0.341176 0.054902
0.427451 0.368627 0.082353
0.498039 0.388235 0.101961
0.549020 0.400000 0.109804
0.596078 0.392157 0.105882
0.639216 0.376471 0.101961
0.682353 0.372549 0.105882
0.717647 0.372549 0.109804
0.741176 0.376471 0.109804
0.752941 0.376471 0.109804
0.772549 0.384314 0.113725
0.796078 0.396078 0.125490
0.792157 0.415686 0.149020
0.768627 0.447059 0.184314
0.564706 0.423529 0.156863
0.098039 0.254902 0.000000
0.000000 0.298039 0.015686
0.000000 0.321569 0.031373
0.000000 0.309804 0.019608
0.019608 0.309804 0.031373
0.050980 0.313725 0.039216
0.082353 0.317647 0.039216
0.125490 0.329412 0.043137
0.180392 0.333333 0.043137
0.247059 0.341176 0.043137
0.341176 0.364706 0.054902
0.423529 0.400000 0.086275
0.482353 0.439216 0.117647
0.552941 0.458824 0.141176
0.611765 0.443137 0.137255
0.674510 0.450980 0.152941
0.709804 0.454902 0.160784
0.721569 0.443137 0.152941
0.745098 0.443137 0.152941
0.772549 0.447059 0.156863
0.792157 0.443137 0.152941
0.788235 0.443137 0.156863
0.796078 0.490196 0.203922
0.749020 0.564706 0.278431
0.360784 0.392157 0.098039
0.066667 0.254902 0.000000
0.035294 0.333333 0.043137
0.019608 0.360784 0.070588
0.023529 0.349020 0.054902
0.031373 0.349020 0.039216
0.054902 0.368627 0.043137
0.086275 0.380392 0.043137
0.137255 0.388235 0.050980
0.200000 0.396078 0.058824
0.262745 0.396078 0.058824
0.337255 0.403922 0.066667
0.427451 0.431373 0.090196
0.505882 0.454902 0.113725
0.588235 0.490196 0.152941
0.631373 0.490196 0.156863
0.670588 0.490196 0.156863
0.709804 0.498039 0.168627
0.752941 0.513725 0.184314
0.776471 0.517647 0.188235
0.792157 0.513725 0.188235
0.819608 0.521569 0.200000
0.835294 0.505882 0.203922
0.811765 0.549020 0.250980
0.717647 0.611765 0.301961
0.258824 0.337255 0.015686
0.066667 0.356863 0.019608
0.015686 0.407843 0.066667
0.035294 0.419608 0.082353
0.050980 0.423529 0.086275
0.062745 0.419608 0.074510
0.094118 0.419608 0.070588
0.141176 0.427451 0.078431
0.188235 0.435294 0.078431
0.235294 0.454902 0.074510
0.298039 0.466667 0.082353
0.376471 0.474510 0.105882
0.443137 0.482353 0.113725
0.498039 0.498039 0.117647
0.549020 0.509804 0.129412
0.611765 0.533333 0.160784
0.662745 0.549020 0.184314
0.701961 0.552941 0.196078
0.733333 0.560784 0.207843
0.756863 0.568627 0.215686
0.788235 0.564706 0.223529
0.843137 0.572549 0.250980
0.874510 0.576471 0.266667
0.890196 0.576471 0.266667
0.835294 0.588235 0.356863
0.109804 0.015686 0.000000
0.019608 0.356863 0.113725
0.035294 0.360784 0.117647
0.058824 0.364706 0.125490
0.074510 0.364706 0.117647
0.094118 0.372549 0.113725
0.129412 0.384314 0.117647
0.180392 0.403922 0.121569
0.239216 0.415686 0.121569
0.309804 0.419608 0.121569
