gru.cube
#Generated by lutCreator.js
#Coded by SirSerch
#https://github.com/SirSerch/LutCreatorJs
TITLE lutCreatorJs_25
LUT_3D_SIZE 5
0.000000 0.054902 0.007843
0.078431 0.054902 0.000000
0.482353 0.054902 0.000000
0.733333 0.098039 0.000000
0.537255 0.168627 0.066667
0.200000 0.101961 0.000000
0.176471 0.231373 0.062745
0.596078 0.278431 0.105882
0.811765 0.301961 0.105882
0.643137 0.349020 0.156863
0.196078 0.364706 0.054902
0.282353 0.478431 0.133333
0.635294 0.525490 0.168627
0.866667 0.584314 0.247059
0.517647 0.564706 0.215686
0.341176 0.580392 0.203922
0.439216 0.713725 0.301961
0.713725 0.717647 0.305882
0.894118 0.733333 0.364706
0.533333 0.674510 0.286275
0.545098 0.772549 0.462745
0.639216 0.862745 0.549020
0.823529 0.870588 0.525490
1.000000 0.843137 0.517647
0.078431 0.011765 0.000000
0.000000 0.105882 0.054902
0.023529 0.086275 0.019608
0.337255 0.082353 0.000000
0.615686 0.137255 0.015686
0.478431 0.239216 0.133333
0.172549 0.082353 0.011765
0.129412 0.207843 0.160784
0.521569 0.274510 0.176471
0.752941 0.262745 0.137255
0.572549 0.313725 0.211765
0.196078 0.368627 0.188235
0.250980 0.498039 0.286275
0.611765 0.537255 0.337255
0.866667 0.592157 0.396078
0.498039 0.549020 0.341176
0.372549 0.588235 0.360784
0.470588 0.713725 0.466667
0.729412 0.737255 0.482353
0.917647 0.756863 0.537255
0.560784 0.686275 0.443137
0.556863 0.796078 0.592157
0.654902 0.870588 0.674510
0.839216 0.882353 0.662745
0.992157 0.850980 0.623529
0.094118 0.043137 0.000000
0.000000 0.129412 0.305882
0.003922 0.129412 0.286275
0.243137 0.082353 0.247059
0.596078 0.105882 0.223529
0.403922 0.203922 0.321569
0.176471 0.129412 0.301961
0.152941 0.282353 0.454902
0.435294 0.266667 0.435294
0.764706 0.254902 0.364706
0.541176 0.301961 0.435294
0.211765 0.376471 0.419608
0.243137 0.482353 0.513725
0.572549 0.521569 0.545098
0.839216 0.549020 0.545098
0.466667 0.513725 0.521569
0.372549 0.588235 0.564706
0.454902 0.698039 0.678431
0.690196 0.721569 0.674510
0.929412 0.764706 0.709804
0.537255 0.662745 0.619608
0.521569 0.772549 0.733333
0.592157 0.847059 0.800000
0.831373 0.878431 0.839216
1.000000 0.862745 0.776471
0.094118 0.023529 0.007843
0.031373 0.196078 0.537255
0.019608 0.188235 0.498039
0.207843 0.196078 0.498039
0.560784 0.200000 0.521569
0.360784 0.266667 0.545098
0.184314 0.223529 0.537255
0.192157 0.341176 0.662745
0.349020 0.329412 0.654902
0.674510 0.309804 0.623529
0.486275 0.341176 0.639216
0.278431 0.431373 0.650980
0.282353 0.509804 0.713725
0.517647 0.549020 0.729412
0.749020 0.521569 0.709804
0.470588 0.529412 0.737255
0.384314 0.588235 0.768627
0.407843 0.690196 0.835294
0.666667 0.713725 0.835294
0.862745 0.725490 0.839216
0.533333 0.650980 0.788235
0.525490 0.768627 0.913725
0.600000 0.850980 0.992157
0.803922 0.874510 0.988235
0.976471 0.839216 0.964706
0.082353 0.023529 0.050980
0.066667 0.270588 0.678431
0.133333 0.266667 0.682353
0.235294 0.258824 0.666667
0.427451 0.231373 0.647059
0.352941 0.305882 0.694118
0.223529 0.294118 0.709804
0.227451 0.396078 0.807843
0.345098 0.372549 0.792157
0.592157 0.396078 0.803922
0.447059 0.388235 0.780392
0.274510 0.498039 0.803922
0.294118 0.552941 0.847059
0.490196 0.568627 0.854902
0.717647 0.596078 0.862745
0.450980 0.552941 0.839216
0.376471 0.662745 0.858824
0.419608 0.745098 0.913725
0.643137 0.768627 0.929412
0.847059 0.796078 0.933333
0.513725 0.713725 0.862745
0.470588 0.862745 0.929412
0.568627 0.894118 0.984314
0.764706 0.925490 0.968627
0.913725 0.937255 0.968627
0.050980 0.027451 0.039216
