gru.cube
#Generated by lutCreator.js
#Coded by SirSerch
#https://github.com/SirSerch/LutCreatorJs
TITLE lutCreatorJs_25
LUT_3D_SIZE 9
0.000000 0.054902 0.007843
0.011765 0.054902 0.000000
0.078431 0.054902 0.000000
0.270588 0.043137 0.000000
0.482353 0.054902 0.000000
0.635294 0.070588 0.000000
0.733333 0.098039 0.000000
0.819608 0.121569 0.011765
0.537255 0.168627 0.066667
0.109804 0.058824 0.000000
0.000000 0.121569 0.011765
0.098039 0.129412 0.000000
0.301961 0.164706 0.000000
0.525490 0.180392 0.000000
0.674510 0.196078 0.011765
0.745098 0.200000 0.011765
0.823529 0.254902 0.058824
0.262745 0.105882 0.000000
0.200000 0.101961 0.000000
0.035294 0.176471 0.019608
0.176471 0.231373 0.062745
0.407843 0.286275 0.105882
0.596078 0.278431 0.105882
0.721569 0.282353 0.098039
0.811765 0.301961 0.105882
0.901961 0.325490 0.129412
0.643137 0.349020 0.156863
0.141176 0.274510 0.027451
0.070588 0.321569 0.082353
0.215686 0.352941 0.101961
0.447059 0.419608 0.109804
0.690196 0.466667 0.180392
0.792157 0.474510 0.196078
0.874510 0.474510 0.192157
0.929412 0.478431 0.215686
0.137255 0.000000 0.000000
0.196078 0.364706 0.054902
0.164706 0.486275 0.156863
0.282353 0.478431 0.133333
0.482353 0.505882 0.145098
0.635294 0.525490 0.168627
0.764706 0.552941 0.223529
0.866667 0.584314 0.247059
0.933333 0.611765 0.282353
0.517647 0.564706 0.215686
0.192157 0.549020 0.235294
0.258824 0.552941 0.250980
0.349020 0.564706 0.239216
0.545098 0.607843 0.262745
0.682353 0.603922 0.258824
0.796078 0.596078 0.274510
0.905882 0.623529 0.325490
0.964706 0.654902 0.352941
0.745098 0.701961 0.372549
0.341176 0.580392 0.203922
0.337255 0.678431 0.294118
0.439216 0.713725 0.301961
0.592157 0.733333 0.317647
0.713725 0.717647 0.305882
0.796078 0.713725 0.321569
0.894118 0.733333 0.364706
0.992157 0.776471 0.419608
0.533333 0.674510 0.286275
0.572549 0.607843 0.352941
0.490196 0.713725 0.447059
0.580392 0.741176 0.470588
0.709804 0.756863 0.494118
0.788235 0.745098 0.462745
0.909804 0.749020 0.470588
1.000000 0.749020 0.490196
1.000000 0.729412 0.470588
0.815686 0.756863 0.466667
0.545098 0.772549 0.462745
0.560784 0.850980 0.541176
0.639216 0.862745 0.549020
0.713725 0.882353 0.529412
0.823529 0.870588 0.525490
0.956863 0.854902 0.541176
1.000000 0.843137 0.517647
1.000000 0.827451 0.513725
0.078431 0.011765 0.000000
0.000000 0.145098 0.000000
0.000000 0.125490 0.000000
0.011765 0.109804 0.000000
0.094118 0.090196 0.000000
0.250980 0.133333 0.000000
0.427451 0.176471 0.000000
0.560784 0.203922 0.027451
0.600000 0.235294 0.035294
0.443137 0.301961 0.109804
0.011765 0.160784 0.000000
0.000000 0.247059 0.000000
0.035294 0.250980 0.000000
0.121569 0.250980 0.000000
0.286275 0.286275 0.000000
0.498039 0.364706 0.090196
0.615686 0.372549 0.117647
0.674510 0.376471 0.137255
0.141176 0.200000 0.000000
0.117647 0.149020 0.000000
0.000000 0.262745 0.035294
0.054902 0.258824 0.043137
0.258824 0.298039 0.058824
0.486275 0.376471 0.125490
0.639216 0.372549 0.121569
0.733333 0.376471 0.129412
0.803922 0.396078 0.152941
0.537255 0.439216 0.184314
0.074510 0.345098 0.050980
0.054902 0.407843 0.101961
0.137255 0.415686 0.082353
0.298039 0.447059 0.082353
0.501961 0.509804 0.149020
0.678431 0.529412 0.196078
0.772549 0.556863 0.235294
0.854902 0.580392 0.274510
0.094118 0.019608 0.000000
0.172549 0.368627 0.086275
0.149020 0.490196 0.211765
0.239216 0.509804 0.211765
0.419608 0.533333 0.211765
0.607843 0.549020 0.227451
0.745098 0.572549 0.266667
0.839216 0.596078 0.282353
0.913725 0.635294 0.341176
0.494118 0.576471 0.266667
0.203922 0.600000 0.301961
0.247059 0.592157 0.294118
0.341176 0.600000 0.278431
0.466667 0.603922 0.270588
0.650980 0.635294 0.309804
0.752941 0.635294 0.329412
0.831373 0.650980 0.349020
0.901961 0.690196 0.403922
0.733333 0.745098 0.439216
0.341176 0.627451 0.247059
0.360784 0.721569 0.356863
0.454902 0.721569 0.360784
0.588235 0.752941 0.388235
0.698039 0.756863 0.396078
0.784314 0.756863 0.407843
0.862745 0.772549 0.435294
0.921569 0.784314 0.447059
0.529412 0.701961 0.337255
0.537255 0.643137 0.372549
0.466667 0.752941 0.466667
0.564706 0.772549 0.474510
0.698039 0.800000 0.490196
0.811765 0.792157 0.490196
0.913725 0.784314 0.498039
0.984314 0.800000 0.521569
1.000000 0.788235 0.517647
0.858824 0.827451 0.537255
0.572549 0.850980 0.521569
0.549020 0.886275 0.564706
0.635294 0.894118 0.584314
0.733333 0.890196 0.545098
0.850980 0.901961 0.564706
0.941176 0.898039 0.572549
0.988235 0.886275 0.576471
1.000000 0.874510 0.560784
0.074510 0.023529 0.000000
0.000000 0.105882 0.054902
0.000000 0.094118 0.039216
0.023529 0.086275 0.019608
0.149020 0.078431 0.000000
0.337255 0.082353 0.000000
0.482353 0.098039 0.003922
0.615686 0.137255 0.015686
0.682353 0.172549 0.047059
0.478431 0.239216 0.133333
0.039216 0.109804 0.000000
0.000000 0.196078 0.054902
0.027451 0.184314 0.043137
0.172549 0.192157 0.031373
0.415686 0.270588 0.094118
0.576471 0.294118 0.109804
0.654902 0.278431 0.086275
0.752941 0.313725 0.129412
0.180392 0.152941 0.000000
0.172549 0.082353 0.011765
0.043137 0.188235 0.117647
0.129412 0.207843 0.160784
0.309804 0.250980 0.172549
0.521569 0.274510 0.176471
0.662745 0.254902 0.141176
0.752941 0.262745 0.137255
0.843137 0.282353 0.149020
0.572549 0.313725 0.211765
0.125490 0.278431 0.121569
0.058824 0.333333 0.184314
0.192157 0.388235 0.219608
0.376471 0.415686 0.211765
0.600000 0.482353 0.278431
0.721569 0.466667 0.274510
0.823529 0.466667 0.282353
0.878431 0.494118 0.290196
0.117647 0.007843 0.000000
0.196078 0.368627 0.188235
0.137255 0.466667 0.262745
0.250980 0.498039 0.286275
0.439216 0.509804 0.290196
0.611765 0.537255 0.337255
0.749020 0.560784 0.368627
0.866667 0.592157 0.396078
0.917647 0.615686 0.431373
0.498039 0.549020 0.341176
0.207843 0.525490 0.384314
0.250980 0.541176 0.380392
0.352941 0.564706 0.388235
0.517647 0.596078 0.415686
0.682353 0.600000 0.423529
0.807843 0.619608 0.443137
0.929412 0.650980 0.494118
0.992157 0.686275 0.525490
0.756863 0.717647 0.541176
0.372549 0.588235 0.360784
0.352941 0.686275 0.447059
0.470588 0.713725 0.466667
0.603922 0.733333 0.474510
0.729412 0.737255 0.482353
0.815686 0.729412 0.494118
0.917647 0.756863 0.537255
1.000000 0.803922 0.592157
0.560784 0.686275 0.443137
0.545098 0.600000 0.466667
0.509804 0.713725 0.584314
0.596078 0.749020 0.623529
0.709804 0.749020 0.615686
0.788235 0.752941 0.592157
0.937255 0.768627 0.615686
1.000000 0.772549 0.627451
1.000000 0.749020 0.607843
0.854902 0.788235 0.615686
0.556863 0.796078 0.592157
0.572549 0.847059 0.643137
0.654902 0.870588 0.674510
0.729412 0.890196 0.662745
0.839216 0.882353 0.662745
0.933333 0.874510 0.662745
0.992157 0.850980 0.623529
1.000000 0.819608 0.619608
0.094118 0.043137 0.000000
0.000000 0.133333 0.125490
0.000000 0.121569 0.113725
0.000000 0.098039 0.086275
0.070588 0.098039 0.066667
0.215686 0.117647 0.058824
0.396078 0.172549 0.105882
0.560784 0.180392 0.125490
0.607843 0.200000 0.125490
0.403922 0.282353 0.227451
0.000000 0.156863 0.027451
0.000000 0.243137 0.129412
0.023529 0.223529 0.094118
0.105882 0.227451 0.094118
0.274510 0.274510 0.141176
0.486275 0.356863 0.231373
0.588235 0.364706 0.227451
0.647059 0.384314 0.247059
0.113725 0.188235 0.035294
0.098039 0.137255 0.098039
0.000000 0.262745 0.227451
0.062745 0.266667 0.219608
0.215686 0.274510 0.227451
0.427451 0.321569 0.254902
0.572549 0.321569 0.239216
0.670588 0.325490 0.219608
0.780392 0.333333 0.223529
0.490196 0.360784 0.290196
0.082353 0.337255 0.184314
0.047059 0.384314 0.239216
0.121569 0.384314 0.243137
0.290196 0.439216 0.274510
0.482353 0.482353 0.313725
0.639216 0.529412 0.372549
0.760784 0.564706 0.392157
0.843137 0.572549 0.407843
0.078431 0.015686 0.000000
0.160784 0.352941 0.262745
0.133333 0.474510 0.376471
0.219608 0.482353 0.376471
0.407843 0.513725 0.403922
0.568627 0.541176 0.423529
0.737255 0.572549 0.450980
0.854902 0.600000 0.470588
0.913725 0.631373 0.505882
0.482353 0.545098 0.396078
0.223529 0.568627 0.462745
0.262745 0.588235 0.478431
0.349020 0.596078 0.486275
0.482353 0.603922 0.498039
0.631373 0.623529 0.505882
0.756863 0.647059 0.529412
0.866667 0.666667 0.556863
0.937255 0.721569 0.576471
0.725490 0.737255 0.603922
0.376471 0.631373 0.439216
0.372549 0.717647 0.521569
0.462745 0.729412 0.537255
0.596078 0.768627 0.568627
0.694118 0.772549 0.568627
0.800000 0.784314 0.596078
0.866667 0.780392 0.600000
0.941176 0.796078 0.623529
0.525490 0.713725 0.525490
0.533333 0.639216 0.541176
0.458824 0.737255 0.639216
0.549020 0.772549 0.674510
0.678431 0.784314 0.682353
0.796078 0.780392 0.678431
0.894118 0.764706 0.654902
1.000000 0.792157 0.678431
1.000000 0.788235 0.670588
0.858824 0.827451 0.701961
0.529412 0.831373 0.690196
0.572549 0.878431 0.725490
0.650980 0.886275 0.737255
0.741176 0.898039 0.729412
0.850980 0.901961 0.733333
0.937255 0.890196 0.729412
0.988235 0.878431 0.713725
1.000000 0.858824 0.670588
0.082353 0.035294 0.000000
0.000000 0.129412 0.305882
0.000000 0.137255 0.294118
0.003922 0.129412 0.286275
0.090196 0.125490 0.286275
0.243137 0.082353 0.247059
0.454902 0.074510 0.235294
0.596078 0.105882 0.223529
0.666667 0.152941 0.211765
0.403922 0.203922 0.321569
0.000000 0.121569 0.196078
0.000000 0.211765 0.305882
0.043137 0.207843 0.290196
0.152941 0.215686 0.278431
0.301961 0.196078 0.254902
0.517647 0.223529 0.278431
0.623529 0.227451 0.250980
0.717647 0.250980 0.243137
0.160784 0.149020 0.180392
0.176471 0.129412 0.301961
0.078431 0.250980 0.450980
0.152941 0.282353 0.454902
0.258824 0.286275 0.466667
0.435294 0.266667 0.435294
0.643137 0.258824 0.403922
0.764706 0.254902 0.364706
0.850980 0.258824 0.352941
0.541176 0.301961 0.435294
0.164706 0.341176 0.419608
0.129412 0.372549 0.458824
0.215686 0.396078 0.486275
0.337255 0.435294 0.486275
0.517647 0.415686 0.458824
0.674510 0.396078 0.423529
0.752941 0.376471 0.380392
0.854902 0.380392 0.376471
0.113725 0.000000 0.000000
0.211765 0.376471 0.419608
0.180392 0.478431 0.525490
0.243137 0.482353 0.513725
0.400000 0.498039 0.545098
0.572549 0.521569 0.545098
0.713725 0.545098 0.541176
0.839216 0.549020 0.545098
0.886275 0.572549 0.568627
0.466667 0.513725 0.521569
0.207843 0.537255 0.615686
0.262745 0.537255 0.627451
0.364706 0.556863 0.639216
0.482353 0.584314 0.639216
0.635294 0.588235 0.627451
0.780392 0.584314 0.623529
0.929412 0.600000 0.627451
0.992157 0.611765 0.600000
0.756863 0.686275 0.717647
0.372549 0.588235 0.564706
0.356863 0.674510 0.654902
0.454902 0.698039 0.678431
0.560784 0.705882 0.674510
0.690196 0.721569 0.674510
0.807843 0.725490 0.678431
0.929412 0.764706 0.709804
1.000000 0.792157 0.745098
0.537255 0.662745 0.619608
0.533333 0.596078 0.631373
0.443137 0.690196 0.745098
0.549020 0.705882 0.760784
0.654902 0.729412 0.776471
0.764706 0.729412 0.764706
0.913725 0.729412 0.752941
1.000000 0.713725 0.721569
1.000000 0.694118 0.698039
0.839216 0.760784 0.764706
0.521569 0.772549 0.733333
0.521569 0.831373 0.788235
0.592157 0.847059 0.800000
0.709804 0.878431 0.835294
0.831373 0.878431 0.839216
0.945098 0.870588 0.815686
1.000000 0.862745 0.776471
1.000000 0.843137 0.764706
0.094118 0.023529 0.007843
0.000000 0.152941 0.333333
0.000000 0.164706 0.337255
0.000000 0.160784 0.321569
0.082353 0.145098 0.313725
0.180392 0.149020 0.317647
0.309804 0.149020 0.313725
0.533333 0.168627 0.321569
0.603922 0.200000 0.313725
0.333333 0.247059 0.372549
0.000000 0.176471 0.274510
0.023529 0.286275 0.384314
0.039216 0.258824 0.349020
0.105882 0.258824 0.337255
0.235294 0.278431 0.352941
0.384314 0.274510 0.341176
0.552941 0.294118 0.349020
0.631373 0.317647 0.341176
0.149020 0.211765 0.266667
0.121569 0.192157 0.372549
0.054902 0.309804 0.498039
0.141176 0.325490 0.501961
0.219608 0.325490 0.498039
0.341176 0.337255 0.498039
0.537255 0.325490 0.486275
0.670588 0.321569 0.466667
0.756863 0.317647 0.462745
0.458824 0.337255 0.490196
0.141176 0.396078 0.470588
0.121569 0.423529 0.517647
0.200000 0.454902 0.541176
0.290196 0.447059 0.537255
0.439216 0.466667 0.525490
0.592157 0.470588 0.525490
0.686275 0.466667 0.505882
0.788235 0.450980 0.486275
0.074510 0.007843 0.007843
0.266667 0.435294 0.568627
0.180392 0.505882 0.631373
0.282353 0.513725 0.643137
0.384314 0.521569 0.627451
0.545098 0.545098 0.643137
0.654902 0.529412 0.607843
0.776471 0.505882 0.615686
0.847059 0.521569 0.596078
0.454902 0.537255 0.623529
0.219608 0.572549 0.666667
0.266667 0.596078 0.678431
0.325490 0.592157 0.666667
0.443137 0.584314 0.670588
0.576471 0.623529 0.682353
0.698039 0.619608 0.682353
0.843137 0.639216 0.713725
0.925490 0.666667 0.709804
0.690196 0.725490 0.784314
0.345098 0.623529 0.639216
0.345098 0.701961 0.709804
0.423529 0.713725 0.709804
0.521569 0.729412 0.721569
0.666667 0.764706 0.752941
0.772549 0.756863 0.745098
0.874510 0.776471 0.752941
0.972549 0.796078 0.772549
0.509804 0.705882 0.701961
0.486275 0.639216 0.733333
0.419608 0.733333 0.835294
0.494118 0.749020 0.831373
0.607843 0.760784 0.843137
0.733333 0.780392 0.866667
0.866667 0.776471 0.862745
0.984314 0.780392 0.854902
1.000000 0.768627 0.819608
0.796078 0.815686 0.870588
0.474510 0.800000 0.827451
0.486275 0.854902 0.866667
0.592157 0.870588 0.874510
0.698039 0.882353 0.882353
0.815686 0.905882 0.890196
0.909804 0.890196 0.890196
0.988235 0.882353 0.882353
1.000000 0.858824 0.862745
0.074510 0.035294 0.039216
0.031373 0.196078 0.537255
0.023529 0.192157 0.521569
0.019608 0.188235 0.498039
0.113725 0.192157 0.505882
0.207843 0.196078 0.498039
0.341176 0.184314 0.494118
0.560784 0.200000 0.521569
0.682353 0.219608 0.517647
0.360784 0.266667 0.545098
0.039216 0.200000 0.447059
0.039216 0.290196 0.541176
0.101961 0.286275 0.521569
0.176471 0.290196 0.521569
0.270588 0.282353 0.517647
0.415686 0.286275 0.525490
0.588235 0.286275 0.525490
0.698039 0.301961 0.521569
0.184314 0.219608 0.435294
0.184314 0.223529 0.537255
0.152941 0.333333 0.666667
0.192157 0.341176 0.662745
0.247059 0.325490 0.658824
0.349020 0.329412 0.654902
0.490196 0.325490 0.647059
0.674510 0.309804 0.623529
0.811765 0.321569 0.615686
0.486275 0.341176 0.639216
0.188235 0.388235 0.623529
0.172549 0.427451 0.666667
0.243137 0.431373 0.674510
0.321569 0.439216 0.670588
0.447059 0.462745 0.678431
0.580392 0.443137 0.670588
0.725490 0.419608 0.643137
0.854902 0.423529 0.631373
0.117647 0.000000 0.058824
0.278431 0.431373 0.650980
0.231373 0.509804 0.709804
0.282353 0.509804 0.713725
0.388235 0.521569 0.721569
0.517647 0.549020 0.729412
0.639216 0.537255 0.725490
0.749020 0.521569 0.709804
0.831373 0.537255 0.733333
0.470588 0.529412 0.737255
0.239216 0.549020 0.784314
0.262745 0.552941 0.784314
0.349020 0.568627 0.796078
0.494118 0.588235 0.827451
0.592157 0.611765 0.827451
0.705882 0.607843 0.819608
0.831373 0.592157 0.827451
0.905882 0.603922 0.800000
0.721569 0.694118 0.894118
0.384314 0.588235 0.768627
0.356863 0.666667 0.803922
0.407843 0.690196 0.835294
0.541176 0.705882 0.839216
0.666667 0.713725 0.835294
0.776471 0.729412 0.843137
0.862745 0.725490 0.839216
0.968627 0.733333 0.850980
0.533333 0.650980 0.788235
0.505882 0.615686 0.843137
0.450980 0.698039 0.929412
0.537255 0.729412 0.952941
0.639216 0.752941 0.976471
0.745098 0.764706 0.984314
0.823529 0.760784 0.972549
0.941176 0.733333 0.949020
1.000000 0.705882 0.913725
0.815686 0.788235 0.984314
0.525490 0.768627 0.913725
0.537255 0.819608 0.972549
0.600000 0.850980 0.992157
0.698039 0.858824 0.996078
0.803922 0.874510 0.988235
0.901961 0.862745 0.992157
0.976471 0.839216 0.964706
1.000000 0.823529 0.941176
0.082353 0.023529 0.050980
0.027451 0.254902 0.584314
0.039216 0.254902 0.572549
0.074510 0.235294 0.549020
0.137255 0.235294 0.533333
0.211765 0.235294 0.509804
0.309804 0.231373 0.505882
0.415686 0.243137 0.545098
0.560784 0.266667 0.552941
0.329412 0.298039 0.580392
0.070588 0.258824 0.513725
0.098039 0.345098 0.588235
0.121569 0.341176 0.572549
0.188235 0.337255 0.556863
0.254902 0.337255 0.545098
0.372549 0.345098 0.545098
0.494118 0.356863 0.552941
0.607843 0.360784 0.556863
0.203922 0.294118 0.490196
0.160784 0.274510 0.576471
0.149020 0.376471 0.694118
0.180392 0.384314 0.686275
0.235294 0.376471 0.678431
0.325490 0.364706 0.666667
0.450980 0.380392 0.674510
0.572549 0.364706 0.650980
0.701961 0.364706 0.647059
0.411765 0.364706 0.647059
0.192157 0.454902 0.666667
0.180392 0.490196 0.725490
0.223529 0.458824 0.694118
0.298039 0.486275 0.709804
0.400000 0.474510 0.698039
0.533333 0.501961 0.686275
0.647059 0.494118 0.682353
0.756863 0.509804 0.690196
0.058824 0.000000 0.047059
0.274510 0.466667 0.721569
0.227451 0.529412 0.776471
0.286275 0.537255 0.780392
0.380392 0.549020 0.811765
0.486275 0.560784 0.819608
0.619608 0.576471 0.807843
0.737255 0.560784 0.792157
0.811765 0.560784 0.796078
0.435294 0.556863 0.792157
0.223529 0.576471 0.815686
0.258824 0.596078 0.823529
0.345098 0.603922 0.831373
0.435294 0.611765 0.835294
0.556863 0.639216 0.850980
0.682353 0.658824 0.866667
0.772549 0.662745 0.862745
0.858824 0.643137 0.827451
0.701961 0.737255 0.933333
0.345098 0.627451 0.784314
0.352941 0.698039 0.847059
0.400000 0.717647 0.831373
0.529412 0.733333 0.854902
0.647059 0.749020 0.866667
0.764706 0.768627 0.882353
0.847059 0.780392 0.886275
0.905882 0.776471 0.878431
0.509804 0.698039 0.807843
0.490196 0.643137 0.870588
0.435294 0.741176 0.976471
0.505882 0.749020 0.976471
0.607843 0.792157 0.996078
0.721569 0.792157 1.000000
0.831373 0.800000 1.000000
0.909804 0.788235 0.984314
0.988235 0.784314 0.968627
0.776471 0.811765 1.000000
0.486275 0.803922 0.937255
0.501961 0.866667 1.000000
0.576471 0.870588 0.996078
0.701961 0.882353 1.000000
0.788235 0.898039 1.000000
0.866667 0.894118 1.000000
0.952941 0.882353 1.000000
1.000000 0.870588 0.972549
0.050980 0.015686 0.050980
0.066667 0.270588 0.678431
0.101961 0.258824 0.674510
0.133333 0.266667 0.682353
0.184314 0.258824 0.682353
0.235294 0.258824 0.666667
0.317647 0.250980 0.658824
0.427451 0.231373 0.647059
0.552941 0.250980 0.670588
0.352941 0.305882 0.694118
0.125490 0.274510 0.635294
0.125490 0.352941 0.709804
0.152941 0.352941 0.694118
0.203922 0.345098 0.690196
0.262745 0.337255 0.666667
0.376471 0.329412 0.654902
0.478431 0.329412 0.654902
0.600000 0.333333 0.662745
0.239216 0.301961 0.611765
0.223529 0.294118 0.709804
0.192157 0.380392 0.796078
0.227451 0.396078 0.807843
0.286275 0.376471 0.807843
0.345098 0.372549 0.792157
0.466667 0.392157 0.807843
0.592157 0.396078 0.803922
0.709804 0.384314 0.796078
0.447059 0.388235 0.780392
0.231373 0.427451 0.776471
0.192157 0.454902 0.803922
0.243137 0.470588 0.819608
0.321569 0.474510 0.800000
0.439216 0.498039 0.819608
0.541176 0.521569 0.854902
0.670588 0.501961 0.850980
0.780392 0.474510 0.811765
0.105882 0.000000 0.094118
0.274510 0.498039 0.803922
0.231373 0.545098 0.839216
0.294118 0.552941 0.847059
0.380392 0.560784 0.854902
0.490196 0.568627 0.854902
0.623529 0.580392 0.850980
0.717647 0.596078 0.862745
0.760784 0.596078 0.854902
0.450980 0.552941 0.839216
0.231373 0.635294 0.909804
0.278431 0.631373 0.905882
0.329412 0.647059 0.901961
0.443137 0.654902 0.905882
0.564706 0.670588 0.913725
0.694118 0.682353 0.917647
0.776471 0.686275 0.905882
0.831373 0.682353 0.901961
0.678431 0.752941 0.976471
0.376471 0.662745 0.858824
0.341176 0.741176 0.921569
0.419608 0.745098 0.913725
0.529412 0.752941 0.929412
0.643137 0.768627 0.929412
0.776471 0.792157 0.941176
0.847059 0.796078 0.933333
0.925490 0.796078 0.949020
0.513725 0.713725 0.862745
0.450980 0.713725 0.847059
0.411765 0.815686 0.952941
0.486275 0.819608 0.972549
0.588235 0.839216 0.972549
0.698039 0.854902 0.964706
0.811765 0.866667 0.972549
0.886275 0.874510 0.980392
0.956863 0.874510 0.992157
0.745098 0.878431 0.984314
0.470588 0.862745 0.929412
0.501961 0.901961 0.988235
0.568627 0.894118 0.984314
0.670588 0.913725 0.968627
0.764706 0.925490 0.968627
0.862745 0.921569 0.972549
0.913725 0.937255 0.968627
0.960784 0.925490 0.992157
0.050980 0.027451 0.039216
